;This Gcode has been generated specifically for the LulzBot Mini
;Basic settings: Layer height: 0.25 Walls: 1 Fill: 20
;Filament Diameter: 2.85
;Nozzle Size: 0.5
G26                          ; clear potential 'probe fail' condition
G21                          ; metric values
G90                          ; absolute positioning
M82                          ; set extruder to absolute mode
M107                         ; start with the fan off
G92 E0                       ; set extruder position to 0
M140 S60; get bed heating up
G28                          ; home all
M109 R140                    ; set to cleaning temp and wait
G1 Z150 E-30 F75             ; suck up XXmm of filament
M109 R140                    ; heat up rest of way
G1 X45 Y174 F11520           ; move behind scraper
G1 Z0  F1200                 ; CRITICAL: set Z to height of top of scraper
G1 X45 Y174 Z-.5 F4000       ; wiping ; plunge into wipe pad
G1 X55 Y172 Z-.5 F4000       ; wiping
G1 X45 Y174 Z0 F4000         ; wiping
G1 X55 Y172 F4000            ; wiping
G1 X45 Y174 F4000            ; wiping
G1 X55 Y172 F4000            ; wiping
G1 X45 Y174 F4000            ; wiping
G1 X55 Y172 F4000            ; wiping
G1 X60 Y174 F4000            ; wiping
G1 X80 Y172 F4000            ; wiping
G1 X60 Y174 F4000            ; wiping
G1 X80 Y172 F4000            ; wiping
G1 X60 Y174 F4000            ; wiping
G1 X90 Y172 F4000            ; wiping
G1 X80 Y174 F4000            ; wiping
G1 X100 Y172 F4000           ; wiping
G1 X80 Y174 F4000            ; wiping
G1 X100 Y172 F4000           ; wiping
G1 X80 Y174 F4000            ; wiping
G1 X100 Y172 F4000           ; wiping
G1 X110 Y174 F4000           ; wiping
G1 X100 Y172 F4000           ; wiping
G1 X110 Y174 F4000           ; wiping
G1 X100 Y172 F4000           ; wiping
G1 X110 Y174 F4000           ; wiping
G1 X115 Y172 Z-0.5 F1000     ; wipe slower and bury noz in cleanish area
G1 Z10                       ; raise z
G28 X0 Y0                    ; home x and y
M109 R140                    ; set to probing temp
M204 S300                    ; Set probing acceleration
G29                          ; Probe
M204 S2000                   ; Restore standard acceleration
G1 X5 Y15 Z10 F5000          ; get out the way
G4 S1                        ; pause
M400                         ; clear buffer
M109 R205    ; set extruder temp and wait
G4 S15                       ; wait for bed to temp up
G1 Z2 E0 F75                 ; extrude filament back into nozzle
M140 S60; get bed temping up during first layer

;Layer count: 119
;LAYER:0
M107
G0 F10500 X64.063 Y69.563 Z0.425
;TYPE:SKIRT
G1 F900 X95.937 Y69.563 E1.32717
G1 X95.937 Y86.437 E2.02977
G1 X64.063 Y86.437 E3.35693
G1 X64.063 Y69.563 E4.05953
G0 F10500 X64.688 Y70.188
G1 F900 X95.312 Y70.188 E5.33465
G1 X95.312 Y85.812 E5.98521
G1 X64.688 Y85.812 E7.26033
G1 X64.688 Y70.188 E7.91088
G0 F10500 X65.313 Y70.813
G1 F900 X94.687 Y70.813 E9.13395
G1 X94.687 Y85.187 E9.73245
G1 X65.313 Y85.187 E10.95553
G1 X65.313 Y70.813 E11.55403
G0 F10500 X65.938 Y71.438
G1 F900 X94.062 Y71.438 E12.72506
G1 X94.062 Y84.562 E13.27151
G1 X65.938 Y84.562 E14.44254
G1 X65.938 Y71.438 E14.98900
G0 F10500 X66.563 Y72.063
G1 F900 X93.437 Y72.063 E16.10797
G1 X93.437 Y83.937 E16.60238
G1 X66.563 Y83.937 E17.72136
G1 X66.563 Y72.063 E18.21577
G0 F10500 X67.188 Y72.688
G1 F900 X92.812 Y72.688 E19.28270
G1 X92.812 Y83.312 E19.72506
G1 X67.188 Y83.312 E20.79199
G1 X67.188 Y72.688 E21.23436
G0 F10500 X67.813 Y73.313
G1 F900 X92.187 Y73.313 E22.24924
G1 X92.187 Y82.687 E22.63955
G1 X67.813 Y82.687 E23.65444
G1 X67.813 Y73.313 E24.04475
G0 F10500 X68.438 Y73.938
G1 F900 X91.562 Y73.938 E25.00759
G1 X91.562 Y82.062 E25.34585
G1 X68.438 Y82.062 E26.30869
G1 X68.438 Y73.938 E26.64696
G0 F10500 X69.063 Y74.563
G1 F900 X90.937 Y74.563 E27.55774
G1 X90.937 Y81.437 E27.84396
G1 X69.063 Y81.437 E28.75475
G1 X69.063 Y74.563 E29.04097
G0 F10500 X69.688 Y75.188
G1 F900 X90.312 Y75.188 E29.89971
G1 X90.312 Y80.812 E30.13388
G1 X69.688 Y80.812 E30.99263
G1 X69.688 Y75.188 E31.22680
G0 F10500 X70.725 Y76.135
G0 X70.937 Y76.437
;TYPE:WALL-INNER
G1 F900 X89.063 Y76.437 E31.98153
G1 X89.063 Y79.563 E32.11169
G1 X70.937 Y79.563 E32.86642
G1 X70.937 Y76.437 E32.99658
G0 F10500 X70.312 Y75.812
;TYPE:WALL-OUTER
G1 F900 X89.688 Y75.812 E33.80335
G1 X89.688 Y80.188 E33.98556
G1 X70.312 Y80.188 E34.79234
G1 X70.312 Y75.812 E34.97455
G0 F10500 X71.155 Y76.901
;TYPE:SKIN
G1 F900 X73.597 Y79.343 E35.11834
G0 F10500 X74.480 Y79.343
G1 F900 X71.793 Y76.656 E35.27657
G0 F10500 X72.677 Y76.656
G1 F900 X75.364 Y79.343 E35.43479
G0 F10500 X76.248 Y79.343
G1 F900 X73.561 Y76.656 E35.59301
G0 F10500 X74.445 Y76.656
G1 F900 X77.132 Y79.343 E35.75124
G0 F10500 X78.016 Y79.343
G1 F900 X75.329 Y76.656 E35.90946
G0 F10500 X76.213 Y76.656
G1 F900 X78.900 Y79.343 E36.06769
G0 F10500 X79.784 Y79.343
G1 F900 X77.097 Y76.656 E36.22591
G0 F10500 X77.981 Y76.656
G1 F900 X80.668 Y79.343 E36.38413
G0 F10500 X81.552 Y79.343
G1 F900 X78.865 Y76.656 E36.54236
G0 F10500 X79.748 Y76.656
G1 F900 X82.435 Y79.343 E36.70058
G0 F10500 X83.319 Y79.343
G1 F900 X80.632 Y76.656 E36.85881
G0 F10500 X81.516 Y76.656
G1 F900 X84.203 Y79.343 E37.01703
G0 F10500 X85.087 Y79.343
G1 F900 X82.400 Y76.656 E37.17525
G0 F10500 X83.284 Y76.656
G1 F900 X85.971 Y79.343 E37.33348
G0 F10500 X86.855 Y79.343
G1 F900 X84.168 Y76.656 E37.49170
G0 F10500 X85.052 Y76.656
G1 F900 X87.739 Y79.343 E37.64993
G0 F10500 X88.623 Y79.343
G1 F900 X85.936 Y76.656 E37.80815
G0 F10500 X86.819 Y76.656
G1 F900 X88.843 Y78.679 E37.92730
G0 F10500 X88.843 Y77.795
G1 F900 X87.703 Y76.656 E37.99440
G0 F10500 X88.587 Y76.656
G1 F900 X88.843 Y76.912 E38.00948
G0 F10500 X72.713 Y79.343
G1 F900 X71.155 Y77.785 E38.10122
G0 F10500 X71.155 Y78.669
G1 F900 X71.829 Y79.343 E38.14091
;LAYER:1
M106 S247
G0 F10500 X70.750 Y79.750 Z0.675
;TYPE:WALL-INNER
G1 F600 X70.750 Y76.250 E38.20949
G1 X89.250 Y76.250 E38.57198
G1 X89.250 Y79.750 E38.64056
G1 X70.750 Y79.750 E39.00306
G0 F10500 X70.250 Y80.250
;TYPE:WALL-OUTER
G1 F540 X70.250 Y75.750 E39.09123
G1 X89.750 Y75.750 E39.47332
G1 X89.750 Y80.250 E39.56150
G1 X70.250 Y80.250 E39.94359
G0 F10500 X70.924 Y79.335
;TYPE:SKIN
G1 F720 X73.835 Y76.424 E40.02425
G0 F10500 X74.542 Y76.424
G1 F720 X71.392 Y79.574 E40.11154
G0 F10500 X72.099 Y79.574
G1 F720 X75.249 Y76.424 E40.19883
G0 F10500 X75.956 Y76.424
G1 F720 X72.806 Y79.574 E40.28612
G0 F10500 X73.513 Y79.574
G1 F720 X76.663 Y76.424 E40.37340
G0 F10500 X77.370 Y76.424
G1 F720 X74.220 Y79.574 E40.46069
G0 F10500 X74.927 Y79.574
G1 F720 X78.078 Y76.424 E40.54800
G0 F10500 X78.785 Y76.424
G1 F720 X75.634 Y79.574 E40.63530
G0 F10500 X76.342 Y79.574
G1 F720 X79.492 Y76.424 E40.72259
G0 F10500 X80.199 Y76.424
G1 F720 X77.049 Y79.574 E40.80987
G0 F10500 X77.756 Y79.574
G1 F720 X80.906 Y76.424 E40.89716
G0 F10500 X81.613 Y76.424
G1 F720 X78.463 Y79.574 E40.98445
G0 F10500 X79.170 Y79.574
G1 F720 X82.320 Y76.424 E41.07174
G0 F10500 X83.027 Y76.424
G1 F720 X79.877 Y79.574 E41.15903
G0 F10500 X73.128 Y76.424
G1 F720 X70.924 Y78.628 E41.22010
G0 F10500 X70.924 Y77.921
G1 F720 X72.421 Y76.424 E41.26158
G0 F10500 X71.714 Y76.424
G1 F720 X70.924 Y77.213 E41.28346
G0 F10500 X70.924 Y76.506
G1 F720 X71.006 Y76.424 E41.28573
G0 F10500 X80.584 Y79.574
G1 F720 X83.734 Y76.424 E41.37302
G0 F10500 X84.441 Y76.424
G1 F720 X81.291 Y79.574 E41.46031
G0 F10500 X81.998 Y79.574
G1 F720 X85.149 Y76.424 E41.54761
G0 F10500 X85.856 Y76.424
G1 F720 X82.706 Y79.574 E41.63490
G0 F10500 X83.413 Y79.574
G1 F720 X86.563 Y76.424 E41.72219
G0 F10500 X87.270 Y76.424
G1 F720 X84.120 Y79.574 E41.80948
G0 F10500 X84.827 Y79.574
G1 F720 X87.977 Y76.424 E41.89677
G0 F10500 X88.684 Y76.424
G1 F720 X85.534 Y79.574 E41.98405
G0 F10500 X86.241 Y79.574
G1 F720 X89.074 Y76.742 E42.06254
G0 F10500 X89.074 Y77.449
G1 F720 X86.948 Y79.574 E42.12144
G0 F10500 X87.655 Y79.574
G1 F720 X89.074 Y78.156 E42.16075
G0 F10500 X89.074 Y78.863
G1 F720 X88.362 Y79.574 E42.18047
;LAYER:2
M106 S255
G0 F10500 X89.250 Y79.750 Z0.925
;TYPE:WALL-INNER
G1 F600 X70.750 Y79.750 E42.54296
G1 X70.750 Y76.250 E42.61154
G1 X89.250 Y76.250 E42.97404
G1 X89.250 Y79.750 E43.04262
G0 F10500 X89.750 Y80.250
;TYPE:WALL-OUTER
G1 F540 X70.250 Y80.250 E43.42471
G1 X70.250 Y75.750 E43.51288
G1 X89.750 Y75.750 E43.89497
G1 X89.750 Y80.250 E43.98314
G0 F10500 X89.074 Y79.528
;TYPE:SKIN
G1 F840 X85.971 Y76.425 E44.06913
G0 F10500 X85.264 Y76.425
G1 F840 X88.413 Y79.574 E44.15639
G0 F10500 X87.705 Y79.574
G1 F840 X84.557 Y76.425 E44.24364
G0 F10500 X83.850 Y76.425
G1 F840 X86.998 Y79.574 E44.33088
G0 F10500 X86.291 Y79.574
G1 F840 X83.143 Y76.425 E44.41813
G0 F10500 X82.435 Y76.425
G1 F840 X85.584 Y79.574 E44.50539
G0 F10500 X84.877 Y79.574
G1 F840 X81.728 Y76.425 E44.59265
G0 F10500 X81.021 Y76.425
G1 F840 X84.170 Y79.574 E44.67991
G0 F10500 X83.463 Y79.574
G1 F840 X80.314 Y76.425 E44.76717
G0 F10500 X79.607 Y76.425
G1 F840 X82.756 Y79.574 E44.85443
G0 F10500 X82.049 Y79.574
G1 F840 X78.900 Y76.425 E44.94169
G0 F10500 X78.193 Y76.425
G1 F840 X81.342 Y79.574 E45.02896
G0 F10500 X80.634 Y79.574
G1 F840 X77.486 Y76.425 E45.11620
G0 F10500 X76.779 Y76.425
G1 F840 X79.927 Y79.574 E45.20345
G0 F10500 X79.220 Y79.574
G1 F840 X76.071 Y76.425 E45.29071
G0 F10500 X75.364 Y76.425
G1 F840 X78.513 Y79.574 E45.37797
G0 F10500 X77.806 Y79.574
G1 F840 X74.657 Y76.425 E45.46523
G0 F10500 X73.950 Y76.425
G1 F840 X77.099 Y79.574 E45.55249
G0 F10500 X76.392 Y79.574
G1 F840 X73.243 Y76.425 E45.63975
G0 F10500 X72.536 Y76.425
G1 F840 X75.685 Y79.574 E45.72701
G0 F10500 X74.978 Y79.574
G1 F840 X71.829 Y76.425 E45.81427
G0 F10500 X71.122 Y76.425
G1 F840 X74.270 Y79.574 E45.90152
G0 F10500 X73.563 Y79.574
G1 F840 X70.924 Y76.935 E45.97465
G0 F10500 X70.924 Y77.642
G1 F840 X72.856 Y79.574 E46.02818
G0 F10500 X72.149 Y79.574
G1 F840 X70.924 Y78.349 E46.06213
G0 F10500 X70.924 Y79.056
G1 F840 X71.442 Y79.574 E46.07648
G0 F10500 X86.678 Y76.425
G1 F840 X89.074 Y78.821 E46.14288
G0 F10500 X89.074 Y78.114
G1 F840 X87.385 Y76.425 E46.18968
G0 F10500 X88.092 Y76.425
G1 F840 X89.074 Y77.406 E46.21688
G0 F10500 X89.074 Y76.699
G1 F840 X88.799 Y76.425 E46.22449
;LAYER:3
G0 F10500 X89.250 Y76.250 Z1.175
;TYPE:WALL-INNER
G1 F660 X89.250 Y79.750 E46.29307
G1 X70.750 Y79.750 E46.65556
G1 X70.750 Y76.250 E46.72414
G1 X89.250 Y76.250 E47.08664
G0 F10500 X89.750 Y75.750
;TYPE:WALL-OUTER
G1 F600 X89.750 Y80.250 E47.17481
G1 X70.250 Y80.250 E47.55690
G1 X70.250 Y75.750 E47.64508
G1 X89.750 Y75.750 E48.02716
G0 F10500 X89.074 Y76.742
;TYPE:SKIN
G1 F960 X86.241 Y79.574 E48.10565
G0 F10500 X86.948 Y79.574
G1 F960 X89.074 Y77.449 E48.16455
G0 F10500 X89.074 Y78.156
G1 F960 X87.655 Y79.574 E48.20386
G0 F10500 X88.362 Y79.574
G1 F960 X89.074 Y78.863 E48.22358
G0 F10500 X88.684 Y76.424
G1 F960 X85.534 Y79.574 E48.31087
G0 F10500 X84.827 Y79.574
G1 F960 X87.977 Y76.424 E48.39815
G0 F10500 X87.270 Y76.424
G1 F960 X84.120 Y79.574 E48.48544
G0 F10500 X83.413 Y79.574
G1 F960 X86.563 Y76.424 E48.57273
G0 F10500 X85.856 Y76.424
G1 F960 X82.706 Y79.574 E48.66002
G0 F10500 X81.998 Y79.574
G1 F960 X85.149 Y76.424 E48.74732
G0 F10500 X84.441 Y76.424
G1 F960 X81.291 Y79.574 E48.83461
G0 F10500 X80.584 Y79.574
G1 F960 X83.734 Y76.424 E48.92190
G0 F10500 X83.027 Y76.424
G1 F960 X79.877 Y79.574 E49.00919
G0 F10500 X79.170 Y79.574
G1 F960 X82.320 Y76.424 E49.09647
G0 F10500 X81.613 Y76.424
G1 F960 X78.463 Y79.574 E49.18376
G0 F10500 X77.756 Y79.574
G1 F960 X80.906 Y76.424 E49.27105
G0 F10500 X80.199 Y76.424
G1 F960 X77.049 Y79.574 E49.35834
G0 F10500 X76.342 Y79.574
G1 F960 X79.492 Y76.424 E49.44563
G0 F10500 X78.785 Y76.424
G1 F960 X75.634 Y79.574 E49.53293
G0 F10500 X74.927 Y79.574
G1 F960 X78.078 Y76.424 E49.62023
G0 F10500 X77.370 Y76.424
G1 F960 X74.220 Y79.574 E49.70752
G0 F10500 X73.513 Y79.574
G1 F960 X76.663 Y76.424 E49.79481
G0 F10500 X75.956 Y76.424
G1 F960 X72.806 Y79.574 E49.88210
G0 F10500 X72.099 Y79.574
G1 F960 X75.249 Y76.424 E49.96938
G0 F10500 X74.542 Y76.424
G1 F960 X71.392 Y79.574 E50.05667
G0 F10500 X70.924 Y79.335
G1 F960 X73.835 Y76.424 E50.13734
G0 F10500 X73.128 Y76.424
G1 F960 X70.924 Y78.628 E50.19841
G0 F10500 X70.924 Y77.921
G1 F960 X72.421 Y76.424 E50.23989
G0 F10500 X71.714 Y76.424
G1 F960 X70.924 Y77.213 E50.26177
G0 F10500 X70.924 Y76.506
G1 F960 X71.006 Y76.424 E50.26404
;LAYER:4
G0 F10500 X70.750 Y76.250 Z1.425
;TYPE:WALL-INNER
G1 F660 X89.250 Y76.250 E50.62654
G1 X89.250 Y79.750 E50.69512
G1 X70.750 Y79.750 E51.05761
G1 X70.750 Y76.250 E51.12620
G0 F10500 X70.250 Y75.750
;TYPE:WALL-OUTER
G1 F540 X89.750 Y75.750 E51.50828
G1 X89.750 Y80.250 E51.59646
G1 X70.250 Y80.250 E51.97855
G1 X70.250 Y75.750 E52.06672
G0 F10500 X70.600 Y76.010
G0 X72.889 Y76.425
;TYPE:FILL
G1 F780 X76.038 Y79.574 E52.15398
G0 F10500 X75.603 Y76.424
G1 F780 X72.452 Y79.574 E52.24129
G0 F10500 X79.524 Y79.574
G1 F780 X82.674 Y76.424 E52.32857
G0 F10500 X79.961 Y76.425
G1 F780 X83.109 Y79.574 E52.41582
G0 F10500 X86.595 Y79.574
G1 F780 X89.074 Y77.095 E52.48452
G0 F10500 X89.074 Y78.467
G1 F780 X87.032 Y76.425 E52.54110
;LAYER:5
G0 F10500 X89.250 Y76.250 Z1.675
;TYPE:WALL-INNER
G1 F660 X89.250 Y79.750 E52.60968
G1 X70.750 Y79.750 E52.97218
G1 X70.750 Y76.250 E53.04076
G1 X89.250 Y76.250 E53.40325
G0 F10500 X89.750 Y75.750
;TYPE:WALL-OUTER
G1 F540 X89.750 Y80.250 E53.49143
G1 X70.250 Y80.250 E53.87351
G1 X70.250 Y75.750 E53.96169
G1 X89.750 Y75.750 E54.34378
G0 F10500 X89.400 Y76.010
G0 X89.074 Y77.095
;TYPE:FILL
G1 F780 X86.595 Y79.574 E54.41247
G0 F10500 X89.074 Y78.467
G1 F780 X87.032 Y76.425 E54.46906
G0 F10500 X82.674 Y76.424
G1 F780 X79.524 Y79.574 E54.55635
G0 F10500 X79.961 Y76.425
G1 F780 X83.109 Y79.574 E54.64359
G0 F10500 X76.038 Y79.574
G1 F780 X72.889 Y76.425 E54.73085
G0 F10500 X75.603 Y76.424
G1 F780 X72.452 Y79.574 E54.81816
;LAYER:6
G0 F10500 X70.750 Y79.750 Z1.925
;TYPE:WALL-INNER
G1 F660 X70.750 Y76.250 E54.88674
G1 X89.250 Y76.250 E55.24923
G1 X89.250 Y79.750 E55.31781
G1 X70.750 Y79.750 E55.68031
G0 F10500 X70.250 Y80.250
;TYPE:WALL-OUTER
G1 F540 X70.250 Y75.750 E55.76848
G1 X89.750 Y75.750 E56.15057
G1 X89.750 Y80.250 E56.23874
G1 X70.250 Y80.250 E56.62083
G0 F10500 X70.510 Y79.900
G0 X72.452 Y79.574
;TYPE:FILL
G1 F780 X75.603 Y76.424 E56.70814
G0 F10500 X72.889 Y76.425
G1 F780 X76.038 Y79.574 E56.79540
G0 F10500 X79.524 Y79.574
G1 F780 X82.674 Y76.424 E56.88269
G0 F10500 X79.961 Y76.425
G1 F780 X83.109 Y79.574 E56.96993
G0 F10500 X86.595 Y79.574
G1 F780 X89.074 Y77.095 E57.03863
G0 F10500 X89.074 Y78.467
G1 F780 X87.032 Y76.425 E57.09521
;LAYER:7
G0 F10500 X89.250 Y76.250 Z2.175
;TYPE:WALL-INNER
G1 F660 X89.250 Y79.750 E57.16379
G1 X70.750 Y79.750 E57.52629
G1 X70.750 Y76.250 E57.59487
G1 X89.250 Y76.250 E57.95736
G0 F10500 X89.750 Y75.750
;TYPE:WALL-OUTER
G1 F540 X89.750 Y80.250 E58.04554
G1 X70.250 Y80.250 E58.42763
G1 X70.250 Y75.750 E58.51580
G1 X89.750 Y75.750 E58.89789
G0 F10500 X89.400 Y76.010
G0 X89.074 Y77.095
;TYPE:FILL
G1 F780 X86.595 Y79.574 E58.96658
G0 F10500 X89.074 Y78.467
G1 F780 X87.032 Y76.425 E59.02317
G0 F10500 X82.674 Y76.424
G1 F780 X79.524 Y79.574 E59.11046
G0 F10500 X79.961 Y76.425
G1 F780 X83.109 Y79.574 E59.19770
G0 F10500 X76.038 Y79.574
G1 F780 X72.889 Y76.425 E59.28496
G0 F10500 X75.603 Y76.424
G1 F780 X72.452 Y79.574 E59.37227
;LAYER:8
G0 F10500 X70.750 Y79.750 Z2.425
;TYPE:WALL-INNER
G1 F660 X70.750 Y76.250 E59.44085
G1 X89.250 Y76.250 E59.80334
G1 X89.250 Y79.750 E59.87192
G1 X70.750 Y79.750 E60.23442
G0 F10500 X70.250 Y80.250
;TYPE:WALL-OUTER
G1 F540 X70.250 Y75.750 E60.32259
G1 X89.750 Y75.750 E60.70468
G1 X89.750 Y80.250 E60.79286
G1 X70.250 Y80.250 E61.17495
G0 F10500 X70.510 Y79.900
G0 X72.452 Y79.574
;TYPE:FILL
G1 F780 X75.603 Y76.424 E61.26225
G0 F10500 X72.889 Y76.425
G1 F780 X76.038 Y79.574 E61.34951
G0 F10500 X79.524 Y79.574
G1 F780 X82.674 Y76.424 E61.43680
G0 F10500 X79.961 Y76.425
G1 F780 X83.109 Y79.574 E61.52404
G0 F10500 X86.595 Y79.574
G1 F780 X89.074 Y77.095 E61.59274
G0 F10500 X89.074 Y78.467
G1 F780 X87.032 Y76.425 E61.64932
;LAYER:9
G0 F10500 X89.250 Y76.250 Z2.675
;TYPE:WALL-INNER
G1 F660 X89.250 Y79.750 E61.71790
G1 X70.750 Y79.750 E62.08040
G1 X70.750 Y76.250 E62.14898
G1 X89.250 Y76.250 E62.51147
G0 F10500 X89.750 Y75.750
;TYPE:WALL-OUTER
G1 F540 X89.750 Y80.250 E62.59965
G1 X70.250 Y80.250 E62.98174
G1 X70.250 Y75.750 E63.06991
G1 X89.750 Y75.750 E63.45200
G0 F10500 X89.400 Y76.010
G0 X89.074 Y77.095
;TYPE:FILL
G1 F780 X86.595 Y79.574 E63.52070
G0 F10500 X89.074 Y78.467
G1 F780 X87.032 Y76.425 E63.57728
G0 F10500 X82.674 Y76.424
G1 F780 X79.524 Y79.574 E63.66457
G0 F10500 X79.961 Y76.425
G1 F780 X83.109 Y79.574 E63.75182
G0 F10500 X76.038 Y79.574
G1 F780 X72.889 Y76.425 E63.83908
G0 F10500 X75.603 Y76.424
G1 F780 X72.452 Y79.574 E63.92638
;LAYER:10
G0 F10500 X70.750 Y79.750 Z2.925
;TYPE:WALL-INNER
G1 F660 X70.750 Y76.250 E63.99496
G1 X89.250 Y76.250 E64.35745
G1 X89.250 Y79.750 E64.42603
G1 X70.750 Y79.750 E64.78853
G0 F10500 X70.250 Y80.250
;TYPE:WALL-OUTER
G1 F540 X70.250 Y75.750 E64.87670
G1 X89.750 Y75.750 E65.25879
G1 X89.750 Y80.250 E65.34697
G1 X70.250 Y80.250 E65.72906
G0 F10500 X70.510 Y79.900
G0 X72.452 Y79.574
;TYPE:FILL
G1 F780 X75.603 Y76.424 E65.81636
G0 F10500 X72.889 Y76.425
G1 F780 X76.038 Y79.574 E65.90362
G0 F10500 X79.524 Y79.574
G1 F780 X82.674 Y76.424 E65.99091
G0 F10500 X79.961 Y76.425
G1 F780 X83.109 Y79.574 E66.07815
G0 F10500 X86.595 Y79.574
G1 F780 X89.074 Y77.095 E66.14685
G0 F10500 X89.074 Y78.467
G1 F780 X87.032 Y76.425 E66.20343
;LAYER:11
G0 F10500 X89.250 Y76.250 Z3.175
;TYPE:WALL-INNER
G1 F660 X89.250 Y79.750 E66.27201
G1 X70.750 Y79.750 E66.63451
G1 X70.750 Y76.250 E66.70309
G1 X89.250 Y76.250 E67.06558
G0 F10500 X89.750 Y75.750
;TYPE:WALL-OUTER
G1 F540 X89.750 Y80.250 E67.15376
G1 X70.250 Y80.250 E67.53585
G1 X70.250 Y75.750 E67.62402
G1 X89.750 Y75.750 E68.00611
G0 F10500 X89.400 Y76.010
G0 X89.074 Y77.095
;TYPE:FILL
G1 F780 X86.595 Y79.574 E68.07481
G0 F10500 X89.074 Y78.467
G1 F780 X87.032 Y76.425 E68.13139
G0 F10500 X82.674 Y76.424
G1 F780 X79.524 Y79.574 E68.21868
G0 F10500 X79.961 Y76.425
G1 F780 X83.109 Y79.574 E68.30593
G0 F10500 X76.038 Y79.574
G1 F780 X72.889 Y76.425 E68.39319
G0 F10500 X75.603 Y76.424
G1 F780 X72.452 Y79.574 E68.48049
;LAYER:12
G0 F10500 X70.750 Y79.750 Z3.425
;TYPE:WALL-INNER
G1 F660 X70.750 Y76.250 E68.54907
G1 X89.250 Y76.250 E68.91156
G1 X89.250 Y79.750 E68.98014
G1 X70.750 Y79.750 E69.34264
G0 F10500 X70.250 Y80.250
;TYPE:WALL-OUTER
G1 F540 X70.250 Y75.750 E69.43081
G1 X89.750 Y75.750 E69.81290
G1 X89.750 Y80.250 E69.90108
G1 X70.250 Y80.250 E70.28317
G0 F10500 X70.510 Y79.900
G0 X72.452 Y79.574
;TYPE:FILL
G1 F780 X75.603 Y76.424 E70.37047
G0 F10500 X72.889 Y76.425
G1 F780 X76.038 Y79.574 E70.45773
G0 F10500 X79.524 Y79.574
G1 F780 X82.674 Y76.424 E70.54502
G0 F10500 X79.961 Y76.425
G1 F780 X83.109 Y79.574 E70.63226
G0 F10500 X86.595 Y79.574
G1 F780 X89.074 Y77.095 E70.70096
G0 F10500 X89.074 Y78.467
G1 F780 X87.032 Y76.425 E70.75754
;LAYER:13
G0 F10500 X89.250 Y76.250 Z3.675
;TYPE:WALL-INNER
G1 F660 X89.250 Y79.750 E70.82612
G1 X70.750 Y79.750 E71.18862
G1 X70.750 Y76.250 E71.25720
G1 X89.250 Y76.250 E71.61969
G0 F10500 X89.750 Y75.750
;TYPE:WALL-OUTER
G1 F540 X89.750 Y80.250 E71.70787
G1 X70.250 Y80.250 E72.08996
G1 X70.250 Y75.750 E72.17813
G1 X89.750 Y75.750 E72.56022
G0 F10500 X89.400 Y76.010
G0 X89.074 Y77.095
;TYPE:FILL
G1 F780 X86.595 Y79.574 E72.62892
G0 F10500 X89.074 Y78.467
G1 F780 X87.032 Y76.425 E72.68550
G0 F10500 X82.674 Y76.424
G1 F780 X79.524 Y79.574 E72.77279
G0 F10500 X79.961 Y76.425
G1 F780 X83.109 Y79.574 E72.86004
G0 F10500 X76.038 Y79.574
G1 F780 X72.889 Y76.425 E72.94730
G0 F10500 X75.603 Y76.424
G1 F780 X72.452 Y79.574 E73.03460
;LAYER:14
G0 F10500 X70.750 Y79.750 Z3.925
;TYPE:WALL-INNER
G1 F660 X70.750 Y76.250 E73.10318
G1 X89.250 Y76.250 E73.46568
G1 X89.250 Y79.750 E73.53426
G1 X70.750 Y79.750 E73.89675
G0 F10500 X70.250 Y80.250
;TYPE:WALL-OUTER
G1 F540 X70.250 Y75.750 E73.98492
G1 X89.750 Y75.750 E74.36701
G1 X89.750 Y80.250 E74.45519
G1 X70.250 Y80.250 E74.83728
G0 F10500 X70.510 Y79.900
G0 X72.452 Y79.574
;TYPE:FILL
G1 F780 X75.603 Y76.424 E74.92458
G0 F10500 X72.889 Y76.425
G1 F780 X76.038 Y79.574 E75.01184
G0 F10500 X79.524 Y79.574
G1 F780 X82.674 Y76.424 E75.09913
G0 F10500 X79.961 Y76.425
G1 F780 X83.109 Y79.574 E75.18638
G0 F10500 X86.595 Y79.574
G1 F780 X89.074 Y77.095 E75.25507
G0 F10500 X89.074 Y78.467
G1 F780 X87.032 Y76.425 E75.31166
;LAYER:15
G0 F10500 X89.250 Y76.250 Z4.175
;TYPE:WALL-INNER
G1 F660 X89.250 Y79.750 E75.38024
G1 X70.750 Y79.750 E75.74273
G1 X70.750 Y76.250 E75.81131
G1 X89.250 Y76.250 E76.17381
G0 F10500 X89.750 Y75.750
;TYPE:WALL-OUTER
G1 F540 X89.750 Y80.250 E76.26198
G1 X70.250 Y80.250 E76.64407
G1 X70.250 Y75.750 E76.73224
G1 X89.750 Y75.750 E77.11433
G0 F10500 X89.400 Y76.010
G0 X89.074 Y77.095
;TYPE:FILL
G1 F780 X86.595 Y79.574 E77.18303
G0 F10500 X89.074 Y78.467
G1 F780 X87.032 Y76.425 E77.23961
G0 F10500 X82.674 Y76.424
G1 F780 X79.524 Y79.574 E77.32690
G0 F10500 X79.961 Y76.425
G1 F780 X83.109 Y79.574 E77.41415
G0 F10500 X76.038 Y79.574
G1 F780 X72.889 Y76.425 E77.50141
G0 F10500 X75.603 Y76.424
G1 F780 X72.452 Y79.574 E77.58871
;LAYER:16
G0 F10500 X70.750 Y79.750 Z4.425
;TYPE:WALL-INNER
G1 F660 X70.750 Y76.250 E77.65729
G1 X89.250 Y76.250 E78.01979
G1 X89.250 Y79.750 E78.08837
G1 X70.750 Y79.750 E78.45086
G0 F10500 X70.250 Y80.250
;TYPE:WALL-OUTER
G1 F540 X70.250 Y75.750 E78.53904
G1 X89.750 Y75.750 E78.92113
G1 X89.750 Y80.250 E79.00930
G1 X70.250 Y80.250 E79.39139
G0 F10500 X70.510 Y79.900
G0 X72.452 Y79.574
;TYPE:FILL
G1 F780 X75.603 Y76.424 E79.47869
G0 F10500 X72.889 Y76.425
G1 F780 X76.038 Y79.574 E79.56595
G0 F10500 X79.524 Y79.574
G1 F780 X82.674 Y76.424 E79.65324
G0 F10500 X79.961 Y76.425
G1 F780 X83.109 Y79.574 E79.74049
G0 F10500 X86.595 Y79.574
G1 F780 X89.074 Y77.095 E79.80918
G0 F10500 X89.074 Y78.467
G1 F780 X87.032 Y76.425 E79.86577
;LAYER:17
G0 F10500 X89.250 Y76.250 Z4.675
;TYPE:WALL-INNER
G1 F660 X89.250 Y79.750 E79.93435
G1 X70.750 Y79.750 E80.29684
G1 X70.750 Y76.250 E80.36542
G1 X89.250 Y76.250 E80.72792
G0 F10500 X89.750 Y75.750
;TYPE:WALL-OUTER
G1 F540 X89.750 Y80.250 E80.81609
G1 X70.250 Y80.250 E81.19818
G1 X70.250 Y75.750 E81.28636
G1 X89.750 Y75.750 E81.66844
G0 F10500 X89.400 Y76.010
G0 X89.074 Y77.095
;TYPE:FILL
G1 F780 X86.595 Y79.574 E81.73714
G0 F10500 X89.074 Y78.467
G1 F780 X87.032 Y76.425 E81.79372
G0 F10500 X82.674 Y76.424
G1 F780 X79.524 Y79.574 E81.88101
G0 F10500 X79.961 Y76.425
G1 F780 X83.109 Y79.574 E81.96826
G0 F10500 X76.038 Y79.574
G1 F780 X72.889 Y76.425 E82.05552
G0 F10500 X75.603 Y76.424
G1 F780 X72.452 Y79.574 E82.14282
;LAYER:18
G0 F10500 X70.750 Y79.750 Z4.925
;TYPE:WALL-INNER
G1 F660 X70.750 Y76.250 E82.21140
G1 X89.250 Y76.250 E82.57390
G1 X89.250 Y79.750 E82.64248
G1 X70.750 Y79.750 E83.00497
G0 F10500 X70.250 Y80.250
;TYPE:WALL-OUTER
G1 F540 X70.250 Y75.750 E83.09315
G1 X89.750 Y75.750 E83.47524
G1 X89.750 Y80.250 E83.56341
G1 X70.250 Y80.250 E83.94550
G0 F10500 X70.510 Y79.900
G0 X72.452 Y79.574
;TYPE:FILL
G1 F780 X75.603 Y76.424 E84.03280
G0 F10500 X72.889 Y76.425
G1 F780 X76.038 Y79.574 E84.12006
G0 F10500 X79.524 Y79.574
G1 F780 X82.674 Y76.424 E84.20735
G0 F10500 X79.961 Y76.425
G1 F780 X83.109 Y79.574 E84.29460
G0 F10500 X86.595 Y79.574
G1 F780 X89.074 Y77.095 E84.36329
G0 F10500 X89.074 Y78.467
G1 F780 X87.032 Y76.425 E84.41988
;LAYER:19
G0 F10500 X89.250 Y76.250 Z5.175
;TYPE:WALL-INNER
G1 F660 X89.250 Y79.750 E84.48846
G1 X70.750 Y79.750 E84.85095
G1 X70.750 Y76.250 E84.91953
G1 X89.250 Y76.250 E85.28203
G0 F10500 X89.750 Y75.750
;TYPE:WALL-OUTER
G1 F540 X89.750 Y80.250 E85.37020
G1 X70.250 Y80.250 E85.75229
G1 X70.250 Y75.750 E85.84047
G1 X89.750 Y75.750 E86.22256
G0 F10500 X89.400 Y76.010
G0 X89.074 Y77.095
;TYPE:FILL
G1 F780 X86.595 Y79.574 E86.29125
G0 F10500 X89.074 Y78.467
G1 F780 X87.032 Y76.425 E86.34784
G0 F10500 X82.674 Y76.424
G1 F780 X79.524 Y79.574 E86.43512
G0 F10500 X79.961 Y76.425
G1 F780 X83.109 Y79.574 E86.52237
G0 F10500 X76.038 Y79.574
G1 F780 X72.889 Y76.425 E86.60963
G0 F10500 X75.603 Y76.424
G1 F780 X72.452 Y79.574 E86.69693
;LAYER:20
G0 F10500 X70.750 Y79.750 Z5.425
;TYPE:WALL-INNER
G1 F660 X70.750 Y76.250 E86.76551
G1 X89.250 Y76.250 E87.12801
G1 X89.250 Y79.750 E87.19659
G1 X70.750 Y79.750 E87.55908
G0 F10500 X70.250 Y80.250
;TYPE:WALL-OUTER
G1 F540 X70.250 Y75.750 E87.64726
G1 X89.750 Y75.750 E88.02935
G1 X89.750 Y80.250 E88.11752
G1 X70.250 Y80.250 E88.49961
G0 F10500 X70.510 Y79.900
G0 X72.452 Y79.574
;TYPE:FILL
G1 F780 X75.603 Y76.424 E88.58691
G0 F10500 X72.889 Y76.425
G1 F780 X76.038 Y79.574 E88.67417
G0 F10500 X79.524 Y79.574
G1 F780 X82.674 Y76.424 E88.76146
G0 F10500 X79.961 Y76.425
G1 F780 X83.109 Y79.574 E88.84871
G0 F10500 X86.595 Y79.574
G1 F780 X89.074 Y77.095 E88.91740
G0 F10500 X89.074 Y78.467
G1 F780 X87.032 Y76.425 E88.97399
;LAYER:21
G0 F10500 X89.250 Y76.250 Z5.675
;TYPE:WALL-INNER
G1 F660 X89.250 Y79.750 E89.04257
G1 X70.750 Y79.750 E89.40506
G1 X70.750 Y76.250 E89.47364
G1 X89.250 Y76.250 E89.83614
G0 F10500 X89.750 Y75.750
;TYPE:WALL-OUTER
G1 F540 X89.750 Y80.250 E89.92431
G1 X70.250 Y80.250 E90.30640
G1 X70.250 Y75.750 E90.39458
G1 X89.750 Y75.750 E90.77667
G0 F10500 X89.400 Y76.010
G0 X89.074 Y77.095
;TYPE:FILL
G1 F780 X86.595 Y79.574 E90.84536
G0 F10500 X89.074 Y78.467
G1 F780 X87.032 Y76.425 E90.90195
G0 F10500 X82.674 Y76.424
G1 F780 X79.524 Y79.574 E90.98923
G0 F10500 X79.961 Y76.425
G1 F780 X83.109 Y79.574 E91.07648
G0 F10500 X76.038 Y79.574
G1 F780 X72.889 Y76.425 E91.16374
G0 F10500 X75.603 Y76.424
G1 F780 X72.452 Y79.574 E91.25104
;LAYER:22
G0 F10500 X70.750 Y79.750 Z5.925
;TYPE:WALL-INNER
G1 F660 X70.750 Y76.250 E91.31962
G1 X89.250 Y76.250 E91.68212
G1 X89.250 Y79.750 E91.75070
G1 X70.750 Y79.750 E92.11319
G0 F10500 X70.250 Y80.250
;TYPE:WALL-OUTER
G1 F540 X70.250 Y75.750 E92.20137
G1 X89.750 Y75.750 E92.58346
G1 X89.750 Y80.250 E92.67163
G1 X70.250 Y80.250 E93.05372
G0 F10500 X70.510 Y79.900
G0 X72.452 Y79.574
;TYPE:FILL
G1 F780 X75.603 Y76.424 E93.14102
G0 F10500 X72.889 Y76.425
G1 F780 X76.038 Y79.574 E93.22829
G0 F10500 X79.524 Y79.574
G1 F780 X82.674 Y76.424 E93.31557
G0 F10500 X79.961 Y76.425
G1 F780 X83.109 Y79.574 E93.40282
G0 F10500 X86.595 Y79.574
G1 F780 X89.074 Y77.095 E93.47151
G0 F10500 X89.074 Y78.467
G1 F780 X87.032 Y76.425 E93.52810
;LAYER:23
G0 F10500 X89.250 Y76.250 Z6.175
;TYPE:WALL-INNER
G1 F660 X89.250 Y79.750 E93.59668
G1 X70.750 Y79.750 E93.95917
G1 X70.750 Y76.250 E94.02776
G1 X89.250 Y76.250 E94.39025
G0 F10500 X89.750 Y75.750
;TYPE:WALL-OUTER
G1 F540 X89.750 Y80.250 E94.47842
G1 X70.250 Y80.250 E94.86051
G1 X70.250 Y75.750 E94.94869
G1 X89.750 Y75.750 E95.33078
G0 F10500 X89.400 Y76.010
G0 X89.074 Y77.095
;TYPE:FILL
G1 F780 X86.595 Y79.574 E95.39947
G0 F10500 X89.074 Y78.467
G1 F780 X87.032 Y76.425 E95.45606
G0 F10500 X82.674 Y76.424
G1 F780 X79.524 Y79.574 E95.54335
G0 F10500 X79.961 Y76.425
G1 F780 X83.109 Y79.574 E95.63059
G0 F10500 X76.038 Y79.574
G1 F780 X72.889 Y76.425 E95.71785
G0 F10500 X75.603 Y76.424
G1 F780 X72.452 Y79.574 E95.80516
;LAYER:24
G0 F10500 X70.750 Y79.750 Z6.425
;TYPE:WALL-INNER
G1 F660 X70.750 Y76.250 E95.87374
G1 X89.250 Y76.250 E96.23623
G1 X89.250 Y79.750 E96.30481
G1 X70.750 Y79.750 E96.66731
G0 F10500 X70.250 Y80.250
;TYPE:WALL-OUTER
G1 F540 X70.250 Y75.750 E96.75548
G1 X89.750 Y75.750 E97.13757
G1 X89.750 Y80.250 E97.22574
G1 X70.250 Y80.250 E97.60783
G0 F10500 X70.510 Y79.900
G0 X72.452 Y79.574
;TYPE:FILL
G1 F780 X75.603 Y76.424 E97.69514
G0 F10500 X72.889 Y76.425
G1 F780 X76.038 Y79.574 E97.78240
G0 F10500 X79.524 Y79.574
G1 F780 X82.674 Y76.424 E97.86968
G0 F10500 X79.961 Y76.425
G1 F780 X83.109 Y79.574 E97.95693
G0 F10500 X86.595 Y79.574
G1 F780 X89.074 Y77.095 E98.02563
G0 F10500 X89.074 Y78.467
G1 F780 X87.032 Y76.425 E98.08221
;LAYER:25
G0 F10500 X89.250 Y76.250 Z6.675
;TYPE:WALL-INNER
G1 F660 X89.250 Y79.750 E98.15079
G1 X70.750 Y79.750 E98.51329
G1 X70.750 Y76.250 E98.58187
G1 X89.250 Y76.250 E98.94436
G0 F10500 X89.750 Y75.750
;TYPE:WALL-OUTER
G1 F540 X89.750 Y80.250 E99.03254
G1 X70.250 Y80.250 E99.41463
G1 X70.250 Y75.750 E99.50280
G1 X89.750 Y75.750 E99.88489
G0 F10500 X89.400 Y76.010
G0 X89.074 Y77.095
;TYPE:FILL
G1 F780 X86.595 Y79.574 E99.95358
G0 F10500 X89.074 Y78.467
G1 F780 X87.032 Y76.425 E100.01017
G0 F10500 X82.674 Y76.424
G1 F780 X79.524 Y79.574 E100.09746
G0 F10500 X79.961 Y76.425
G1 F780 X83.109 Y79.574 E100.18470
G0 F10500 X76.038 Y79.574
G1 F780 X72.889 Y76.425 E100.27196
G0 F10500 X75.603 Y76.424
G1 F780 X72.452 Y79.574 E100.35927
;LAYER:26
G0 F10500 X70.750 Y79.750 Z6.925
;TYPE:WALL-INNER
G1 F660 X70.750 Y76.250 E100.42785
G1 X89.250 Y76.250 E100.79034
G1 X89.250 Y79.750 E100.85892
G1 X70.750 Y79.750 E101.22142
G0 F10500 X70.250 Y80.250
;TYPE:WALL-OUTER
G1 F540 X70.250 Y75.750 E101.30959
G1 X89.750 Y75.750 E101.69168
G1 X89.750 Y80.250 E101.77986
G1 X70.250 Y80.250 E102.16194
G0 F10500 X70.510 Y79.900
G0 X72.452 Y79.574
;TYPE:FILL
G1 F780 X75.603 Y76.424 E102.24925
G0 F10500 X72.889 Y76.425
G1 F780 X76.038 Y79.574 E102.33651
G0 F10500 X79.524 Y79.574
G1 F780 X82.674 Y76.424 E102.42380
G0 F10500 X79.961 Y76.425
G1 F780 X83.109 Y79.574 E102.51104
G0 F10500 X86.595 Y79.574
G1 F780 X89.074 Y77.095 E102.57974
G0 F10500 X89.074 Y78.467
G1 F780 X87.032 Y76.425 E102.63632
;LAYER:27
G0 F10500 X89.250 Y76.250 Z7.175
;TYPE:WALL-INNER
G1 F660 X89.250 Y79.750 E102.70490
G1 X70.750 Y79.750 E103.06740
G1 X70.750 Y76.250 E103.13598
G1 X89.250 Y76.250 E103.49847
G0 F10500 X89.750 Y75.750
;TYPE:WALL-OUTER
G1 F540 X89.750 Y80.250 E103.58665
G1 X70.250 Y80.250 E103.96874
G1 X70.250 Y75.750 E104.05691
G1 X89.750 Y75.750 E104.43900
G0 F10500 X89.400 Y76.010
G0 X89.074 Y77.095
;TYPE:FILL
G1 F780 X86.595 Y79.574 E104.50769
G0 F10500 X89.074 Y78.467
G1 F780 X87.032 Y76.425 E104.56428
G0 F10500 X82.674 Y76.424
G1 F780 X79.524 Y79.574 E104.65157
G0 F10500 X79.961 Y76.425
G1 F780 X83.109 Y79.574 E104.73881
G0 F10500 X76.038 Y79.574
G1 F780 X72.889 Y76.425 E104.82608
G0 F10500 X75.603 Y76.424
G1 F780 X72.452 Y79.574 E104.91338
;LAYER:28
G0 F10500 X70.750 Y79.750 Z7.425
;TYPE:WALL-INNER
G1 F660 X70.750 Y76.250 E104.98196
G1 X89.250 Y76.250 E105.34445
G1 X89.250 Y79.750 E105.41303
G1 X70.750 Y79.750 E105.77553
G0 F10500 X70.250 Y80.250
;TYPE:WALL-OUTER
G1 F540 X70.250 Y75.750 E105.86370
G1 X89.750 Y75.750 E106.24579
G1 X89.750 Y80.250 E106.33397
G1 X70.250 Y80.250 E106.71606
G0 F10500 X70.510 Y79.900
G0 X72.452 Y79.574
;TYPE:FILL
G1 F780 X75.603 Y76.424 E106.80336
G0 F10500 X72.889 Y76.425
G1 F780 X76.038 Y79.574 E106.89062
G0 F10500 X79.524 Y79.574
G1 F780 X82.674 Y76.424 E106.97791
G0 F10500 X79.961 Y76.425
G1 F780 X83.109 Y79.574 E107.06515
G0 F10500 X86.595 Y79.574
G1 F780 X89.074 Y77.095 E107.13385
G0 F10500 X89.074 Y78.467
G1 F780 X87.032 Y76.425 E107.19043
;LAYER:29
G0 F10500 X89.250 Y76.250 Z7.675
;TYPE:WALL-INNER
G1 F660 X89.250 Y79.750 E107.25901
G1 X70.750 Y79.750 E107.62151
G1 X70.750 Y76.250 E107.69009
G1 X89.250 Y76.250 E108.05258
G0 F10500 X89.750 Y75.750
;TYPE:WALL-OUTER
G1 F540 X89.750 Y80.250 E108.14076
G1 X70.250 Y80.250 E108.52285
G1 X70.250 Y75.750 E108.61102
G1 X89.750 Y75.750 E108.99311
G0 F10500 X89.400 Y76.010
G0 X89.074 Y77.095
;TYPE:FILL
G1 F780 X86.595 Y79.574 E109.06181
G0 F10500 X89.074 Y78.467
G1 F780 X87.032 Y76.425 E109.11839
G0 F10500 X82.674 Y76.424
G1 F780 X79.524 Y79.574 E109.20568
G0 F10500 X79.961 Y76.425
G1 F780 X83.109 Y79.574 E109.29293
G0 F10500 X76.038 Y79.574
G1 F780 X72.889 Y76.425 E109.38019
G0 F10500 X75.603 Y76.424
G1 F780 X72.452 Y79.574 E109.46749
;LAYER:30
G0 F10500 X70.750 Y79.750 Z7.925
;TYPE:WALL-INNER
G1 F660 X70.750 Y76.250 E109.53607
G1 X89.250 Y76.250 E109.89856
G1 X89.250 Y79.750 E109.96714
G1 X70.750 Y79.750 E110.32964
G0 F10500 X70.250 Y80.250
;TYPE:WALL-OUTER
G1 F540 X70.250 Y75.750 E110.41781
G1 X89.750 Y75.750 E110.79990
G1 X89.750 Y80.250 E110.88808
G1 X70.250 Y80.250 E111.27017
G0 F10500 X70.510 Y79.900
G0 X72.452 Y79.574
;TYPE:FILL
G1 F780 X75.603 Y76.424 E111.35747
G0 F10500 X72.889 Y76.425
G1 F780 X76.038 Y79.574 E111.44473
G0 F10500 X79.524 Y79.574
G1 F780 X82.674 Y76.424 E111.53202
G0 F10500 X79.961 Y76.425
G1 F780 X83.109 Y79.574 E111.61926
G0 F10500 X86.595 Y79.574
G1 F780 X89.074 Y77.095 E111.68796
G0 F10500 X89.074 Y78.467
G1 F780 X87.032 Y76.425 E111.74454
;LAYER:31
G0 F10500 X89.250 Y76.250 Z8.175
;TYPE:WALL-INNER
G1 F660 X89.250 Y79.750 E111.81312
G1 X70.750 Y79.750 E112.17562
G1 X70.750 Y76.250 E112.24420
G1 X89.250 Y76.250 E112.60669
G0 F10500 X89.750 Y75.750
;TYPE:WALL-OUTER
G1 F540 X89.750 Y80.250 E112.69487
G1 X70.250 Y80.250 E113.07696
G1 X70.250 Y75.750 E113.16513
G1 X89.750 Y75.750 E113.54722
G0 F10500 X89.400 Y76.010
G0 X89.074 Y77.095
;TYPE:FILL
G1 F780 X86.595 Y79.574 E113.61592
G0 F10500 X89.074 Y78.467
G1 F780 X87.032 Y76.425 E113.67250
G0 F10500 X82.674 Y76.424
G1 F780 X79.524 Y79.574 E113.75979
G0 F10500 X79.961 Y76.425
G1 F780 X83.109 Y79.574 E113.84704
G0 F10500 X76.038 Y79.574
G1 F780 X72.889 Y76.425 E113.93430
G0 F10500 X75.603 Y76.424
G1 F780 X72.452 Y79.574 E114.02160
;LAYER:32
G0 F10500 X70.750 Y79.750 Z8.425
;TYPE:WALL-INNER
G1 F660 X70.750 Y76.250 E114.09018
G1 X89.250 Y76.250 E114.45267
G1 X89.250 Y79.750 E114.52125
G1 X70.750 Y79.750 E114.88375
G0 F10500 X70.250 Y80.250
;TYPE:WALL-OUTER
G1 F540 X70.250 Y75.750 E114.97192
G1 X89.750 Y75.750 E115.35401
G1 X89.750 Y80.250 E115.44219
G1 X70.250 Y80.250 E115.82428
G0 F10500 X70.510 Y79.900
G0 X72.452 Y79.574
;TYPE:FILL
G1 F780 X75.603 Y76.424 E115.91158
G0 F10500 X72.889 Y76.425
G1 F780 X76.038 Y79.574 E115.99884
G0 F10500 X79.524 Y79.574
G1 F780 X82.674 Y76.424 E116.08613
G0 F10500 X79.961 Y76.425
G1 F780 X83.109 Y79.574 E116.17338
G0 F10500 X86.595 Y79.574
G1 F780 X89.074 Y77.095 E116.24207
G0 F10500 X89.074 Y78.467
G1 F780 X87.032 Y76.425 E116.29865
;LAYER:33
G0 F10500 X89.250 Y76.250 Z8.675
;TYPE:WALL-INNER
G1 F660 X89.250 Y79.750 E116.36724
G1 X70.750 Y79.750 E116.72973
G1 X70.750 Y76.250 E116.79831
G1 X89.250 Y76.250 E117.16081
G0 F10500 X89.750 Y75.750
;TYPE:WALL-OUTER
G1 F540 X89.750 Y80.250 E117.24898
G1 X70.250 Y80.250 E117.63107
G1 X70.250 Y75.750 E117.71924
G1 X89.750 Y75.750 E118.10133
G0 F10500 X89.400 Y76.010
G0 X89.074 Y77.095
;TYPE:FILL
G1 F780 X86.595 Y79.574 E118.17003
G0 F10500 X89.074 Y78.467
G1 F780 X87.032 Y76.425 E118.22661
G0 F10500 X82.674 Y76.424
G1 F780 X79.524 Y79.574 E118.31390
G0 F10500 X79.961 Y76.425
G1 F780 X83.109 Y79.574 E118.40115
G0 F10500 X76.038 Y79.574
G1 F780 X72.889 Y76.425 E118.48841
G0 F10500 X75.603 Y76.424
G1 F780 X72.452 Y79.574 E118.57571
;LAYER:34
G0 F10500 X70.750 Y79.750 Z8.925
;TYPE:WALL-INNER
G1 F660 X70.750 Y76.250 E118.64429
G1 X89.250 Y76.250 E119.00679
G1 X89.250 Y79.750 E119.07537
G1 X70.750 Y79.750 E119.43786
G0 F10500 X70.250 Y80.250
;TYPE:WALL-OUTER
G1 F540 X70.250 Y75.750 E119.52604
G1 X89.750 Y75.750 E119.90812
G1 X89.750 Y80.250 E119.99630
G1 X70.250 Y80.250 E120.37839
G0 F10500 X70.510 Y79.900
G0 X72.452 Y79.574
;TYPE:FILL
G1 F780 X75.603 Y76.424 E120.46569
G0 F10500 X72.889 Y76.425
G1 F780 X76.038 Y79.574 E120.55295
G0 F10500 X79.524 Y79.574
G1 F780 X82.674 Y76.424 E120.64024
G0 F10500 X79.961 Y76.425
G1 F780 X83.109 Y79.574 E120.72749
G0 F10500 X86.595 Y79.574
G1 F780 X89.074 Y77.095 E120.79618
G0 F10500 X89.074 Y78.467
G1 F780 X87.032 Y76.425 E120.85277
;LAYER:35
G0 F10500 X89.250 Y76.250 Z9.175
;TYPE:WALL-INNER
G1 F660 X89.250 Y79.750 E120.92135
G1 X70.750 Y79.750 E121.28384
G1 X70.750 Y76.250 E121.35242
G1 X89.250 Y76.250 E121.71492
G0 F10500 X89.750 Y75.750
;TYPE:WALL-OUTER
G1 F540 X89.750 Y80.250 E121.80309
G1 X70.250 Y80.250 E122.18518
G1 X70.250 Y75.750 E122.27335
G1 X89.750 Y75.750 E122.65544
G0 F10500 X89.400 Y76.010
G0 X89.074 Y77.095
;TYPE:FILL
G1 F780 X86.595 Y79.574 E122.72414
G0 F10500 X89.074 Y78.467
G1 F780 X87.032 Y76.425 E122.78072
G0 F10500 X82.674 Y76.424
G1 F780 X82.524 Y76.574 E122.78488
G0 F10500 X80.110 Y76.574
G1 F780 X79.961 Y76.425 E122.78901
G0 F10500 X75.603 Y76.424
G1 F780 X72.453 Y79.574 E122.87630
G0 F10500 X72.889 Y76.425
G1 F780 X76.038 Y79.574 E122.96356
G0 F10500 X82.674 Y79.138
G1 F780 X82.908 Y79.574 E122.97564
G1 X83.324 Y78.956 E122.99024
G0 F10500 X83.324 Y78.249
;TYPE:SKIN
G1 F960 X81.998 Y79.574 E123.02697
G0 F10500 X81.291 Y79.574
G1 F960 X83.324 Y77.542 E123.08329
G0 F10500 X83.324 Y76.835
G1 F960 X80.584 Y79.574 E123.15920
G0 F10500 X79.877 Y79.574
G1 F960 X83.027 Y76.424 E123.24649
G0 F10500 X82.320 Y76.424
G1 F960 X79.170 Y79.574 E123.33378
G0 F10500 X78.463 Y79.574
G1 F960 X81.613 Y76.424 E123.42107
G0 F10500 X80.906 Y76.424
G1 F960 X77.756 Y79.574 E123.50835
G0 F10500 X77.049 Y79.574
G1 F960 X80.199 Y76.424 E123.59564
G0 F10500 X79.492 Y76.424
G1 F960 X76.675 Y79.241 E123.67370
G0 F10500 X76.675 Y78.534
G1 F960 X78.785 Y76.424 E123.73217
G0 F10500 X78.078 Y76.424
G1 F960 X76.675 Y77.827 E123.77105
G0 F10500 X76.675 Y77.120
G1 F960 X77.370 Y76.424 E123.79032
;LAYER:36
G0 F10500 X70.750 Y76.250 Z9.425
;TYPE:WALL-INNER
G1 F660 X89.250 Y76.250 E124.15282
G1 X89.250 Y79.750 E124.22140
G1 X70.750 Y79.750 E124.58389
G1 X70.750 Y76.250 E124.65247
G0 F10500 X70.250 Y75.750
;TYPE:WALL-OUTER
G1 F540 X89.750 Y75.750 E125.03456
G1 X89.750 Y80.250 E125.12274
G1 X70.250 Y80.250 E125.50483
G1 X70.250 Y75.750 E125.59300
G0 F10500 X70.600 Y76.010
G0 X72.889 Y76.425
;TYPE:FILL
G1 F780 X76.038 Y79.574 E125.68026
G0 F10500 X75.603 Y76.424
G1 F780 X72.453 Y79.574 E125.76755
G0 F10500 X79.961 Y76.425
G1 F780 X80.110 Y76.574 E125.77168
G0 F10500 X82.524 Y76.574
G1 F780 X82.674 Y76.424 E125.77584
G0 F10500 X82.674 Y79.138
G1 F780 X83.110 Y79.574 E125.78792
G0 F10500 X86.595 Y79.574
G1 F780 X89.074 Y77.095 E125.85661
G0 F10500 X89.074 Y78.467
G1 F780 X87.032 Y76.425 E125.91320
G0 F10500 X83.324 Y76.607
;TYPE:SKIN
G1 F960 X83.143 Y76.425 E125.91823
G0 F10500 X82.435 Y76.425
G1 F960 X83.324 Y77.314 E125.94286
G0 F10500 X83.324 Y78.021
G1 F960 X81.728 Y76.425 E125.98709
G0 F10500 X81.021 Y76.425
G1 F960 X83.324 Y78.728 E126.05091
G0 F10500 X83.324 Y79.435
G1 F960 X80.314 Y76.425 E126.13431
G0 F10500 X79.607 Y76.425
G1 F960 X82.756 Y79.574 E126.22157
G0 F10500 X82.049 Y79.574
G1 F960 X78.900 Y76.425 E126.30884
G0 F10500 X78.193 Y76.425
G1 F960 X81.342 Y79.574 E126.39610
G0 F10500 X80.634 Y79.574
G1 F960 X77.486 Y76.425 E126.48334
G0 F10500 X76.779 Y76.425
G1 F960 X79.927 Y79.574 E126.57059
G0 F10500 X79.220 Y79.574
G1 F960 X76.674 Y77.027 E126.64115
G0 F10500 X76.674 Y77.735
G1 F960 X78.513 Y79.574 E126.69211
G0 F10500 X77.806 Y79.574
G1 F960 X76.674 Y78.442 E126.72348
G0 F10500 X76.674 Y79.149
G1 F960 X77.099 Y79.574 E126.73526
;LAYER:37
G0 F10500 X70.750 Y79.750 Z9.675
;TYPE:WALL-INNER
G1 F660 X70.750 Y76.250 E126.80384
G1 X89.250 Y76.250 E127.16633
G1 X89.250 Y79.750 E127.23491
G1 X70.750 Y79.750 E127.59741
G0 F10500 X70.250 Y80.250
;TYPE:WALL-OUTER
G1 F540 X70.250 Y75.750 E127.68558
G1 X89.750 Y75.750 E128.06767
G1 X89.750 Y80.250 E128.15585
G1 X70.250 Y80.250 E128.53794
G0 F10500 X70.510 Y79.900
G0 X72.453 Y79.574
;TYPE:FILL
G1 F780 X75.603 Y76.424 E128.62523
G0 F10500 X72.889 Y76.425
G1 F780 X76.038 Y79.574 E128.71249
G0 F10500 X79.961 Y76.425
G1 F780 X80.110 Y76.574 E128.71662
G0 F10500 X82.524 Y76.574
G1 F780 X82.674 Y76.424 E128.72077
G0 F10500 X82.674 Y79.138
G1 F780 X83.110 Y79.574 E128.73285
G0 F10500 X86.595 Y79.574
G1 F780 X89.074 Y77.095 E128.80155
G0 F10500 X89.074 Y78.467
G1 F780 X87.032 Y76.425 E128.85813
G0 F10500 X83.324 Y76.835
;TYPE:SKIN
G1 F960 X80.584 Y79.574 E128.93405
G0 F10500 X81.291 Y79.574
G1 F960 X83.324 Y77.542 E128.99037
G0 F10500 X83.324 Y78.249
G1 F960 X81.998 Y79.574 E129.02710
G0 F10500 X82.706 Y79.574
G1 F960 X83.324 Y78.956 E129.04422
G0 F10500 X83.027 Y76.424
G1 F960 X79.877 Y79.574 E129.13151
G0 F10500 X79.170 Y79.574
G1 F960 X82.320 Y76.424 E129.21880
G0 F10500 X81.613 Y76.424
G1 F960 X78.463 Y79.574 E129.30609
G0 F10500 X77.756 Y79.574
G1 F960 X80.906 Y76.424 E129.39338
G0 F10500 X80.199 Y76.424
G1 F960 X77.049 Y79.574 E129.48066
G0 F10500 X76.675 Y79.241
G1 F960 X79.492 Y76.424 E129.55873
G0 F10500 X78.785 Y76.424
G1 F960 X76.675 Y78.534 E129.61719
G0 F10500 X76.675 Y77.827
G1 F960 X78.078 Y76.424 E129.65607
G0 F10500 X77.370 Y76.424
G1 F960 X76.675 Y77.120 E129.67535
;LAYER:38
G0 F10500 X70.750 Y76.250 Z9.925
;TYPE:WALL-INNER
G1 F660 X89.250 Y76.250 E130.03784
G1 X89.250 Y79.750 E130.10642
G1 X70.750 Y79.750 E130.46892
G1 X70.750 Y76.250 E130.53750
G0 F10500 X70.250 Y75.750
;TYPE:WALL-OUTER
G1 F540 X89.750 Y75.750 E130.91959
G1 X89.750 Y80.250 E131.00776
G1 X70.250 Y80.250 E131.38985
G1 X70.250 Y75.750 E131.47802
G0 F10500 X70.600 Y76.010
G0 X72.889 Y76.425
;TYPE:FILL
G1 F780 X76.038 Y79.574 E131.56528
G0 F10500 X75.603 Y76.424
G1 F780 X72.453 Y79.574 E131.65257
G0 F10500 X79.961 Y76.425
G1 F780 X80.110 Y76.574 E131.65670
G0 F10500 X82.524 Y76.574
G1 F780 X82.674 Y76.424 E131.66086
G0 F10500 X82.674 Y79.138
G1 F780 X83.110 Y79.574 E131.67294
G0 F10500 X86.595 Y79.574
G1 F780 X89.074 Y77.095 E131.74163
G0 F10500 X89.074 Y78.467
G1 F780 X87.032 Y76.425 E131.79822
G0 F10500 X83.324 Y76.607
;TYPE:SKIN
G1 F960 X83.143 Y76.425 E131.80325
G0 F10500 X82.435 Y76.425
G1 F960 X83.324 Y77.314 E131.82788
G0 F10500 X83.324 Y78.021
G1 F960 X81.728 Y76.425 E131.87211
G0 F10500 X81.021 Y76.425
G1 F960 X83.324 Y78.728 E131.93593
G0 F10500 X83.324 Y79.435
G1 F960 X80.314 Y76.425 E132.01934
G0 F10500 X79.607 Y76.425
G1 F960 X82.756 Y79.574 E132.10660
G0 F10500 X82.049 Y79.574
G1 F960 X78.900 Y76.425 E132.19386
G0 F10500 X78.193 Y76.425
G1 F960 X81.342 Y79.574 E132.28112
G0 F10500 X80.634 Y79.574
G1 F960 X77.486 Y76.425 E132.36836
G0 F10500 X76.779 Y76.425
G1 F960 X79.927 Y79.574 E132.45561
G0 F10500 X79.220 Y79.574
G1 F960 X76.674 Y77.027 E132.52618
G0 F10500 X76.674 Y77.735
G1 F960 X78.513 Y79.574 E132.57714
G0 F10500 X77.806 Y79.574
G1 F960 X76.674 Y78.442 E132.60850
G0 F10500 X76.674 Y79.149
G1 F960 X77.099 Y79.574 E132.62028
;LAYER:39
G0 F10500 X76.750 Y79.750 Z10.175
;TYPE:WALL-INNER
G1 F660 X70.750 Y79.750 E132.73785
G1 X70.750 Y76.250 E132.80643
G1 X76.750 Y76.250 E132.92399
G1 X76.750 Y79.750 E132.99257
G0 F10500 X77.250 Y80.250
;TYPE:WALL-OUTER
G1 F540 X70.250 Y80.250 E133.12973
G1 X70.250 Y75.750 E133.21791
G1 X77.250 Y75.750 E133.35507
G1 X77.250 Y80.250 E133.44324
G0 F10500 X76.038 Y79.574
;TYPE:FILL
G1 F780 X72.889 Y76.424 E133.53052
G0 F10500 X75.603 Y76.424
G1 F780 X72.453 Y79.574 E133.61781
G1 F600 E131.86781
G1 Z10.275
G0 F10500 X83.250 Y79.750
;TYPE:WALL-INNER
G1 Z10.175
G1 F600 E133.61781
G1 F660 X83.250 Y76.250 E133.68639
G1 X89.250 Y76.250 E133.80395
G1 X89.250 Y79.750 E133.87253
G1 X83.250 Y79.750 E133.99010
G0 F10500 X82.750 Y80.250
;TYPE:WALL-OUTER
G1 F540 X82.750 Y75.750 E134.07827
G1 X89.750 Y75.750 E134.21543
G1 X89.750 Y80.250 E134.30361
G1 X82.750 Y80.250 E134.44077
G0 F10500 X83.010 Y79.900
G0 X86.595 Y79.574
;TYPE:FILL
G1 F780 X89.074 Y77.095 E134.50946
G0 F10500 X89.074 Y78.467
G1 F780 X87.032 Y76.425 E134.56605
;LAYER:40
G1 F600 E132.81605
G1 Z10.275
G0 F10500 X76.750 Y76.250 Z10.425
;TYPE:WALL-INNER
G1 Z10.425
G1 F600 E134.56605
G1 F660 X76.750 Y79.750 E134.63463
G1 X70.750 Y79.750 E134.75219
G1 X70.750 Y76.250 E134.82077
G1 X76.750 Y76.250 E134.93834
G0 F10500 X77.250 Y75.750
;TYPE:WALL-OUTER
G1 F540 X77.250 Y80.250 E135.02651
G1 X70.250 Y80.250 E135.16367
G1 X70.250 Y75.750 E135.25185
G1 X77.250 Y75.750 E135.38901
G0 F10500 X76.900 Y76.010
G0 X75.603 Y76.424
;TYPE:FILL
G1 F780 X72.453 Y79.574 E135.47630
G0 F10500 X72.889 Y76.424
G1 F780 X76.038 Y79.574 E135.56357
G1 F600 E133.81357
G1 Z10.525
G0 F10500 X83.250 Y79.750
;TYPE:WALL-INNER
G1 Z10.425
G1 F600 E135.56357
G1 F660 X83.250 Y76.250 E135.63215
G1 X89.250 Y76.250 E135.74972
G1 X89.250 Y79.750 E135.81830
G1 X83.250 Y79.750 E135.93586
G0 F10500 X82.750 Y80.250
;TYPE:WALL-OUTER
G1 F540 X82.750 Y75.750 E136.02404
G1 X89.750 Y75.750 E136.16120
G1 X89.750 Y80.250 E136.24937
G1 X82.750 Y80.250 E136.38653
G0 F10500 X83.010 Y79.900
G0 X86.595 Y79.574
;TYPE:FILL
G1 F780 X89.074 Y77.095 E136.45523
G0 F10500 X89.074 Y78.467
G1 F780 X87.032 Y76.425 E136.51181
;LAYER:41
G1 F600 E134.76181
G1 Z10.525
G0 F10500 X76.750 Y76.250 Z10.675
;TYPE:WALL-INNER
G1 Z10.675
G1 F600 E136.51181
G1 F660 X76.750 Y79.750 E136.58039
G1 X70.750 Y79.750 E136.69796
G1 X70.750 Y76.250 E136.76654
G1 X76.750 Y76.250 E136.88411
G0 F10500 X77.250 Y75.750
;TYPE:WALL-OUTER
G1 F540 X77.250 Y80.250 E136.97228
G1 X70.250 Y80.250 E137.10944
G1 X70.250 Y75.750 E137.19761
G1 X77.250 Y75.750 E137.33477
G0 F10500 X76.900 Y76.010
G0 X75.603 Y76.424
;TYPE:FILL
G1 F780 X72.453 Y79.574 E137.42206
G0 F10500 X72.889 Y76.424
G1 F780 X76.038 Y79.574 E137.50934
G1 F600 E135.75934
G1 Z10.775
G0 F10500 X83.250 Y79.750
;TYPE:WALL-INNER
G1 Z10.675
G1 F600 E137.50934
G1 F660 X83.250 Y76.250 E137.57792
G1 X89.250 Y76.250 E137.69548
G1 X89.250 Y79.750 E137.76406
G1 X83.250 Y79.750 E137.88163
G0 F10500 X82.750 Y80.250
;TYPE:WALL-OUTER
G1 F540 X82.750 Y75.750 E137.96980
G1 X89.750 Y75.750 E138.10696
G1 X89.750 Y80.250 E138.19514
G1 X82.750 Y80.250 E138.33230
G0 F10500 X83.010 Y79.900
G0 X86.595 Y79.574
;TYPE:FILL
G1 F780 X89.074 Y77.095 E138.40099
G0 F10500 X89.074 Y78.467
G1 F780 X87.032 Y76.425 E138.45758
;LAYER:42
G1 F600 E136.70758
G1 Z10.775
G0 F10500 X76.750 Y76.250 Z10.925
;TYPE:WALL-INNER
G1 Z10.925
G1 F600 E138.45758
G1 F660 X76.750 Y79.750 E138.52616
G1 X70.750 Y79.750 E138.64372
G1 X70.750 Y76.250 E138.71230
G1 X76.750 Y76.250 E138.82987
G0 F10500 X77.250 Y75.750
;TYPE:WALL-OUTER
G1 F540 X77.250 Y80.250 E138.91805
G1 X70.250 Y80.250 E139.05521
G1 X70.250 Y75.750 E139.14338
G1 X77.250 Y75.750 E139.28054
G0 F10500 X76.900 Y76.010
G0 X75.603 Y76.424
;TYPE:FILL
G1 F780 X72.453 Y79.574 E139.36783
G0 F10500 X72.889 Y76.424
G1 F780 X76.038 Y79.574 E139.45510
G1 F600 E137.70510
G1 Z11.025
G0 F10500 X83.250 Y79.750
;TYPE:WALL-INNER
G1 Z10.925
G1 F600 E139.45510
G1 F660 X83.250 Y76.250 E139.52368
G1 X89.250 Y76.250 E139.64125
G1 X89.250 Y79.750 E139.70983
G1 X83.250 Y79.750 E139.82740
G0 F10500 X82.750 Y80.250
;TYPE:WALL-OUTER
G1 F540 X82.750 Y75.750 E139.91557
G1 X89.750 Y75.750 E140.05273
G1 X89.750 Y80.250 E140.14090
G1 X82.750 Y80.250 E140.27807
G0 F10500 X83.010 Y79.900
G0 X86.595 Y79.574
;TYPE:FILL
G1 F780 X89.074 Y77.095 E140.34676
G0 F10500 X89.074 Y78.467
G1 F780 X87.032 Y76.425 E140.40334
;LAYER:43
G1 F600 E138.65334
G1 Z11.025
G0 F10500 X76.750 Y76.250 Z11.175
;TYPE:WALL-INNER
G1 Z11.175
G1 F600 E140.40334
G1 F660 X76.750 Y79.750 E140.47192
G1 X70.750 Y79.750 E140.58949
G1 X70.750 Y76.250 E140.65807
G1 X76.750 Y76.250 E140.77564
G0 F10500 X77.250 Y75.750
;TYPE:WALL-OUTER
G1 F540 X77.250 Y80.250 E140.86381
G1 X70.250 Y80.250 E141.00097
G1 X70.250 Y75.750 E141.08915
G1 X77.250 Y75.750 E141.22631
G0 F10500 X76.900 Y76.010
G0 X75.603 Y76.424
;TYPE:FILL
G1 F780 X72.453 Y79.574 E141.31359
G0 F10500 X72.889 Y76.424
G1 F780 X76.038 Y79.574 E141.40087
G1 F600 E139.65087
G1 Z11.275
G0 F10500 X83.250 Y79.750
;TYPE:WALL-INNER
G1 Z11.175
G1 F600 E141.40087
G1 F660 X83.250 Y76.250 E141.46945
G1 X89.250 Y76.250 E141.58702
G1 X89.250 Y79.750 E141.65560
G1 X83.250 Y79.750 E141.77316
G0 F10500 X82.750 Y80.250
;TYPE:WALL-OUTER
G1 F540 X82.750 Y75.750 E141.86134
G1 X89.750 Y75.750 E141.99850
G1 X89.750 Y80.250 E142.08667
G1 X82.750 Y80.250 E142.22383
G0 F10500 X83.010 Y79.900
G0 X86.595 Y79.574
;TYPE:FILL
G1 F780 X89.074 Y77.095 E142.29253
G0 F10500 X89.074 Y78.467
G1 F780 X87.032 Y76.425 E142.34911
;LAYER:44
G1 F600 E140.59911
G1 Z11.275
G0 F10500 X76.750 Y76.250 Z11.425
;TYPE:WALL-INNER
G1 Z11.425
G1 F600 E142.34911
G1 F660 X76.750 Y79.750 E142.41769
G1 X70.750 Y79.750 E142.53526
G1 X70.750 Y76.250 E142.60384
G1 X76.750 Y76.250 E142.72140
G0 F10500 X77.250 Y75.750
;TYPE:WALL-OUTER
G1 F540 X77.250 Y80.250 E142.80958
G1 X70.250 Y80.250 E142.94674
G1 X70.250 Y75.750 E143.03491
G1 X77.250 Y75.750 E143.17207
G0 F10500 X76.900 Y76.010
G0 X75.603 Y76.424
;TYPE:FILL
G1 F780 X72.453 Y79.574 E143.25936
G0 F10500 X72.889 Y76.424
G1 F780 X76.038 Y79.574 E143.34663
G1 F600 E141.59663
G1 Z11.525
G0 F10500 X83.250 Y79.750
;TYPE:WALL-INNER
G1 Z11.425
G1 F600 E143.34663
G1 F660 X83.250 Y76.250 E143.41522
G1 X89.250 Y76.250 E143.53278
G1 X89.250 Y79.750 E143.60136
G1 X83.250 Y79.750 E143.71893
G0 F10500 X82.750 Y80.250
;TYPE:WALL-OUTER
G1 F540 X82.750 Y75.750 E143.80710
G1 X89.750 Y75.750 E143.94426
G1 X89.750 Y80.250 E144.03244
G1 X82.750 Y80.250 E144.16960
G0 F10500 X83.010 Y79.900
G0 X86.595 Y79.574
;TYPE:FILL
G1 F780 X89.074 Y77.095 E144.23829
G0 F10500 X89.074 Y78.467
G1 F780 X87.032 Y76.425 E144.29488
;LAYER:45
G1 F600 E142.54488
G1 Z11.525
G0 F10500 X76.750 Y76.250 Z11.675
;TYPE:WALL-INNER
G1 Z11.675
G1 F600 E144.29488
G1 F660 X76.750 Y79.750 E144.36346
G1 X70.750 Y79.750 E144.48102
G1 X70.750 Y76.250 E144.54960
G1 X76.750 Y76.250 E144.66717
G0 F10500 X77.250 Y75.750
;TYPE:WALL-OUTER
G1 F540 X77.250 Y80.250 E144.75534
G1 X70.250 Y80.250 E144.89250
G1 X70.250 Y75.750 E144.98068
G1 X77.250 Y75.750 E145.11784
G0 F10500 X76.900 Y76.010
G0 X75.603 Y76.424
;TYPE:FILL
G1 F780 X72.453 Y79.574 E145.20513
G0 F10500 X72.889 Y76.424
G1 F780 X76.038 Y79.574 E145.29240
G1 F600 E143.54240
G1 Z11.775
G0 F10500 X83.250 Y79.750
;TYPE:WALL-INNER
G1 Z11.675
G1 F600 E145.29240
G1 F660 X83.250 Y76.250 E145.36098
G1 X89.250 Y76.250 E145.47855
G1 X89.250 Y79.750 E145.54713
G1 X83.250 Y79.750 E145.66469
G0 F10500 X82.750 Y80.250
;TYPE:WALL-OUTER
G1 F540 X82.750 Y75.750 E145.75287
G1 X89.750 Y75.750 E145.89003
G1 X89.750 Y80.250 E145.97820
G1 X82.750 Y80.250 E146.11536
G0 F10500 X83.010 Y79.900
G0 X86.595 Y79.574
;TYPE:FILL
G1 F780 X89.074 Y77.095 E146.18406
G0 F10500 X89.074 Y78.467
G1 F780 X87.032 Y76.425 E146.24064
;LAYER:46
G1 F600 E144.49064
G1 Z11.775
G0 F10500 X76.750 Y76.250 Z11.925
;TYPE:WALL-INNER
G1 Z11.925
G1 F600 E146.24064
G1 F660 X76.750 Y79.750 E146.30922
G1 X70.750 Y79.750 E146.42679
G1 X70.750 Y76.250 E146.49537
G1 X76.750 Y76.250 E146.61293
G0 F10500 X77.250 Y75.750
;TYPE:WALL-OUTER
G1 F540 X77.250 Y80.250 E146.70111
G1 X70.250 Y80.250 E146.83827
G1 X70.250 Y75.750 E146.92644
G1 X77.250 Y75.750 E147.06360
G0 F10500 X76.900 Y76.010
G0 X75.603 Y76.424
;TYPE:FILL
G1 F780 X72.453 Y79.574 E147.15089
G0 F10500 X72.889 Y76.424
G1 F780 X76.038 Y79.574 E147.23817
G1 F600 E145.48817
G1 Z12.025
G0 F10500 X83.250 Y79.750
;TYPE:WALL-INNER
G1 Z11.925
G1 F600 E147.23817
G1 F660 X83.250 Y76.250 E147.30675
G1 X89.250 Y76.250 E147.42431
G1 X89.250 Y79.750 E147.49289
G1 X83.250 Y79.750 E147.61046
G0 F10500 X82.750 Y80.250
;TYPE:WALL-OUTER
G1 F540 X82.750 Y75.750 E147.69863
G1 X89.750 Y75.750 E147.83579
G1 X89.750 Y80.250 E147.92397
G1 X82.750 Y80.250 E148.06113
G0 F10500 X83.010 Y79.900
G0 X86.595 Y79.574
;TYPE:FILL
G1 F780 X89.074 Y77.095 E148.12982
G0 F10500 X89.074 Y78.467
G1 F780 X87.032 Y76.425 E148.18641
;LAYER:47
G1 F600 E146.43641
G1 Z12.025
G0 F10500 X76.750 Y76.250 Z12.175
;TYPE:WALL-INNER
G1 Z12.175
G1 F600 E148.18641
G1 F660 X76.750 Y79.750 E148.25499
G1 X70.750 Y79.750 E148.37255
G1 X70.750 Y76.250 E148.44113
G1 X76.750 Y76.250 E148.55870
G0 F10500 X77.250 Y75.750
;TYPE:WALL-OUTER
G1 F540 X77.250 Y80.250 E148.64687
G1 X70.250 Y80.250 E148.78404
G1 X70.250 Y75.750 E148.87221
G1 X77.250 Y75.750 E149.00937
G0 F10500 X76.900 Y76.010
G0 X75.603 Y76.424
;TYPE:FILL
G1 F780 X72.453 Y79.574 E149.09666
G0 F10500 X72.889 Y76.424
G1 F780 X76.038 Y79.574 E149.18393
G1 F600 E147.43393
G1 Z12.275
G0 F10500 X83.250 Y79.750
;TYPE:WALL-INNER
G1 Z12.175
G1 F600 E149.18393
G1 F660 X83.250 Y76.250 E149.25251
G1 X89.250 Y76.250 E149.37008
G1 X89.250 Y79.750 E149.43866
G1 X83.250 Y79.750 E149.55622
G0 F10500 X82.750 Y80.250
;TYPE:WALL-OUTER
G1 F540 X82.750 Y75.750 E149.64440
G1 X89.750 Y75.750 E149.78156
G1 X89.750 Y80.250 E149.86973
G1 X82.750 Y80.250 E150.00689
G0 F10500 X83.010 Y79.900
G0 X86.595 Y79.574
;TYPE:FILL
G1 F780 X89.074 Y77.095 E150.07559
G0 F10500 X89.074 Y78.467
G1 F780 X87.032 Y76.425 E150.13217
;LAYER:48
G1 F600 E148.38217
G1 Z12.275
G0 F10500 X76.750 Y76.250 Z12.425
;TYPE:WALL-INNER
G1 Z12.425
G1 F600 E150.13217
G1 F660 X76.750 Y79.750 E150.20075
G1 X70.750 Y79.750 E150.31832
G1 X70.750 Y76.250 E150.38690
G1 X76.750 Y76.250 E150.50447
G0 F10500 X77.250 Y75.750
;TYPE:WALL-OUTER
G1 F540 X77.250 Y80.250 E150.59264
G1 X70.250 Y80.250 E150.72980
G1 X70.250 Y75.750 E150.81798
G1 X77.250 Y75.750 E150.95514
G0 F10500 X76.900 Y76.010
G0 X75.603 Y76.424
;TYPE:FILL
G1 F780 X72.453 Y79.574 E151.04242
G0 F10500 X72.889 Y76.424
G1 F780 X76.038 Y79.574 E151.12970
G1 F600 E149.37970
G1 Z12.525
G0 F10500 X83.250 Y79.750
;TYPE:WALL-INNER
G1 Z12.425
G1 F600 E151.12970
G1 F660 X83.250 Y76.250 E151.19828
G1 X89.250 Y76.250 E151.31584
G1 X89.250 Y79.750 E151.38442
G1 X83.250 Y79.750 E151.50199
G0 F10500 X82.750 Y80.250
;TYPE:WALL-OUTER
G1 F540 X82.750 Y75.750 E151.59017
G1 X89.750 Y75.750 E151.72733
G1 X89.750 Y80.250 E151.81550
G1 X82.750 Y80.250 E151.95266
G0 F10500 X83.010 Y79.900
G0 X86.595 Y79.574
;TYPE:FILL
G1 F780 X89.074 Y77.095 E152.02135
G0 F10500 X89.074 Y78.467
G1 F780 X87.032 Y76.425 E152.07794
;LAYER:49
G1 F600 E150.32794
G1 Z12.525
G0 F10500 X76.750 Y76.250 Z12.675
;TYPE:WALL-INNER
G1 Z12.675
G1 F600 E152.07794
G1 F660 X76.750 Y79.750 E152.14652
G1 X70.750 Y79.750 E152.26409
G1 X70.750 Y76.250 E152.33267
G1 X76.750 Y76.250 E152.45023
G0 F10500 X77.250 Y75.750
;TYPE:WALL-OUTER
G1 F540 X77.250 Y80.250 E152.53841
G1 X70.250 Y80.250 E152.67557
G1 X70.250 Y75.750 E152.76374
G1 X77.250 Y75.750 E152.90090
G0 F10500 X76.900 Y76.010
G0 X75.603 Y76.424
;TYPE:FILL
G1 F780 X72.453 Y79.574 E152.98819
G0 F10500 X72.889 Y76.424
G1 F780 X76.038 Y79.574 E153.07546
G1 F600 E151.32546
G1 Z12.775
G0 F10500 X83.250 Y79.750
;TYPE:WALL-INNER
G1 Z12.675
G1 F600 E153.07546
G1 F660 X83.250 Y76.250 E153.14404
G1 X89.250 Y76.250 E153.26161
G1 X89.250 Y79.750 E153.33019
G1 X83.250 Y79.750 E153.44776
G0 F10500 X82.750 Y80.250
;TYPE:WALL-OUTER
G1 F540 X82.750 Y75.750 E153.53593
G1 X89.750 Y75.750 E153.67309
G1 X89.750 Y80.250 E153.76127
G1 X82.750 Y80.250 E153.89843
G0 F10500 X83.010 Y79.900
G0 X86.595 Y79.574
;TYPE:FILL
G1 F780 X89.074 Y77.095 E153.96712
G0 F10500 X89.074 Y78.467
G1 F780 X87.032 Y76.425 E154.02371
;LAYER:50
G1 F600 E152.27371
G1 Z12.775
G0 F10500 X76.750 Y76.250 Z12.925
;TYPE:WALL-INNER
G1 Z12.925
G1 F600 E154.02371
G1 F660 X76.750 Y79.750 E154.09229
G1 X70.750 Y79.750 E154.20985
G1 X70.750 Y76.250 E154.27843
G1 X76.750 Y76.250 E154.39600
G0 F10500 X77.250 Y75.750
;TYPE:WALL-OUTER
G1 F540 X77.250 Y80.250 E154.48417
G1 X70.250 Y80.250 E154.62133
G1 X70.250 Y75.750 E154.70951
G1 X77.250 Y75.750 E154.84667
G0 F10500 X76.900 Y76.010
G0 X75.603 Y76.424
;TYPE:FILL
G1 F780 X72.453 Y79.574 E154.93396
G0 F10500 X72.889 Y76.424
G1 F780 X76.038 Y79.574 E155.02123
G1 F600 E153.27123
G1 Z13.025
G0 F10500 X83.250 Y79.750
;TYPE:WALL-INNER
G1 Z12.925
G1 F600 E155.02123
G1 F660 X83.250 Y76.250 E155.08981
G1 X89.250 Y76.250 E155.20738
G1 X89.250 Y79.750 E155.27596
G1 X83.250 Y79.750 E155.39352
G0 F10500 X82.750 Y80.250
;TYPE:WALL-OUTER
G1 F540 X82.750 Y75.750 E155.48170
G1 X89.750 Y75.750 E155.61886
G1 X89.750 Y80.250 E155.70703
G1 X82.750 Y80.250 E155.84419
G0 F10500 X83.010 Y79.900
G0 X86.595 Y79.574
;TYPE:FILL
G1 F780 X89.074 Y77.095 E155.91289
G0 F10500 X89.074 Y78.467
G1 F780 X87.032 Y76.425 E155.96947
;LAYER:51
G1 F600 E154.21947
G1 Z13.025
G0 F10500 X76.750 Y76.250 Z13.175
;TYPE:WALL-INNER
G1 Z13.175
G1 F600 E155.96947
G1 F660 X76.750 Y79.750 E156.03805
G1 X70.750 Y79.750 E156.15562
G1 X70.750 Y76.250 E156.22420
G1 X76.750 Y76.250 E156.34176
G0 F10500 X77.250 Y75.750
;TYPE:WALL-OUTER
G1 F540 X77.250 Y80.250 E156.42994
G1 X70.250 Y80.250 E156.56710
G1 X70.250 Y75.750 E156.65527
G1 X77.250 Y75.750 E156.79243
G0 F10500 X76.900 Y76.010
G0 X75.603 Y76.424
;TYPE:FILL
G1 F780 X72.453 Y79.574 E156.87972
G0 F10500 X72.889 Y76.424
G1 F780 X76.038 Y79.574 E156.96700
G1 F600 E155.21700
G1 Z13.275
G0 F10500 X83.250 Y79.750
;TYPE:WALL-INNER
G1 Z13.175
G1 F600 E156.96700
G1 F660 X83.250 Y76.250 E157.03558
G1 X89.250 Y76.250 E157.15314
G1 X89.250 Y79.750 E157.22172
G1 X83.250 Y79.750 E157.33929
G0 F10500 X82.750 Y80.250
;TYPE:WALL-OUTER
G1 F540 X82.750 Y75.750 E157.42746
G1 X89.750 Y75.750 E157.56462
G1 X89.750 Y80.250 E157.65280
G1 X82.750 Y80.250 E157.78996
G0 F10500 X83.010 Y79.900
G0 X86.595 Y79.574
;TYPE:FILL
G1 F780 X89.074 Y77.095 E157.85865
G0 F10500 X89.074 Y78.467
G1 F780 X87.032 Y76.425 E157.91524
;LAYER:52
G1 F600 E156.16524
G1 Z13.275
G0 F10500 X76.750 Y76.250 Z13.425
;TYPE:WALL-INNER
G1 Z13.425
G1 F600 E157.91524
G1 F660 X76.750 Y79.750 E157.98382
G1 X70.750 Y79.750 E158.10138
G1 X70.750 Y76.250 E158.16996
G1 X76.750 Y76.250 E158.28753
G0 F10500 X77.250 Y75.750
;TYPE:WALL-OUTER
G1 F540 X77.250 Y80.250 E158.37570
G1 X70.250 Y80.250 E158.51286
G1 X70.250 Y75.750 E158.60104
G1 X77.250 Y75.750 E158.73820
G0 F10500 X76.900 Y76.010
G0 X75.603 Y76.424
;TYPE:FILL
G1 F780 X72.453 Y79.574 E158.82549
G0 F10500 X72.889 Y76.424
G1 F780 X76.038 Y79.574 E158.91276
G1 F600 E157.16276
G1 Z13.525
G0 F10500 X83.250 Y79.750
;TYPE:WALL-INNER
G1 Z13.425
G1 F600 E158.91276
G1 F660 X83.250 Y76.250 E158.98134
G1 X89.250 Y76.250 E159.09891
G1 X89.250 Y79.750 E159.16749
G1 X83.250 Y79.750 E159.28505
G0 F10500 X82.750 Y80.250
;TYPE:WALL-OUTER
G1 F540 X82.750 Y75.750 E159.37323
G1 X89.750 Y75.750 E159.51039
G1 X89.750 Y80.250 E159.59856
G1 X82.750 Y80.250 E159.73572
G0 F10500 X83.010 Y79.900
G0 X86.595 Y79.574
;TYPE:FILL
G1 F780 X89.074 Y77.095 E159.80442
G0 F10500 X89.074 Y78.467
G1 F780 X87.032 Y76.425 E159.86100
;LAYER:53
G1 F600 E158.11100
G1 Z13.525
G0 F10500 X76.750 Y76.250 Z13.675
;TYPE:WALL-INNER
G1 Z13.675
G1 F600 E159.86100
G1 F660 X76.750 Y79.750 E159.92958
G1 X70.750 Y79.750 E160.04715
G1 X70.750 Y76.250 E160.11573
G1 X76.750 Y76.250 E160.23330
G0 F10500 X77.250 Y75.750
;TYPE:WALL-OUTER
G1 F540 X77.250 Y80.250 E160.32147
G1 X70.250 Y80.250 E160.45863
G1 X70.250 Y75.750 E160.54680
G1 X77.250 Y75.750 E160.68397
G0 F10500 X76.900 Y76.010
G0 X75.603 Y76.424
;TYPE:FILL
G1 F780 X72.453 Y79.574 E160.77125
G0 F10500 X72.889 Y76.424
G1 F780 X76.038 Y79.574 E160.85853
G1 F600 E159.10853
G1 Z13.775
G0 F10500 X83.250 Y79.750
;TYPE:WALL-INNER
G1 Z13.675
G1 F600 E160.85853
G1 F660 X83.250 Y76.250 E160.92711
G1 X89.250 Y76.250 E161.04467
G1 X89.250 Y79.750 E161.11325
G1 X83.250 Y79.750 E161.23082
G0 F10500 X82.750 Y80.250
;TYPE:WALL-OUTER
G1 F540 X82.750 Y75.750 E161.31899
G1 X89.750 Y75.750 E161.45616
G1 X89.750 Y80.250 E161.54433
G1 X82.750 Y80.250 E161.68149
G0 F10500 X83.010 Y79.900
G0 X86.595 Y79.574
;TYPE:FILL
G1 F780 X89.074 Y77.095 E161.75018
G0 F10500 X89.074 Y78.467
G1 F780 X87.032 Y76.425 E161.80677
;LAYER:54
G1 F600 E160.05677
G1 Z13.775
G0 F10500 X76.750 Y76.250 Z13.925
;TYPE:WALL-INNER
G1 Z13.925
G1 F600 E161.80677
G1 F660 X76.750 Y79.750 E161.87535
G1 X70.750 Y79.750 E161.99292
G1 X70.750 Y76.250 E162.06150
G1 X76.750 Y76.250 E162.17906
G0 F10500 X77.250 Y75.750
;TYPE:WALL-OUTER
G1 F540 X77.250 Y80.250 E162.26724
G1 X70.250 Y80.250 E162.40440
G1 X70.250 Y75.750 E162.49257
G1 X77.250 Y75.750 E162.62973
G0 F10500 X76.900 Y76.010
G0 X75.603 Y76.424
;TYPE:FILL
G1 F780 X72.453 Y79.574 E162.71702
G0 F10500 X72.889 Y76.424
G1 F780 X76.038 Y79.574 E162.80429
G1 F600 E161.05429
G1 Z14.025
G0 F10500 X83.250 Y79.750
;TYPE:WALL-INNER
G1 Z13.925
G1 F600 E162.80429
G1 F660 X83.250 Y76.250 E162.87287
G1 X89.250 Y76.250 E162.99044
G1 X89.250 Y79.750 E163.05902
G1 X83.250 Y79.750 E163.17659
G0 F10500 X82.750 Y80.250
;TYPE:WALL-OUTER
G1 F540 X82.750 Y75.750 E163.26476
G1 X89.750 Y75.750 E163.40192
G1 X89.750 Y80.250 E163.49010
G1 X82.750 Y80.250 E163.62726
G0 F10500 X83.010 Y79.900
G0 X86.595 Y79.574
;TYPE:FILL
G1 F780 X89.074 Y77.095 E163.69595
G0 F10500 X89.074 Y78.467
G1 F780 X87.032 Y76.425 E163.75254
;LAYER:55
G1 F600 E162.00254
G1 Z14.025
G0 F10500 X76.750 Y76.250 Z14.175
;TYPE:WALL-INNER
G1 Z14.175
G1 F600 E163.75254
G1 F660 X76.750 Y79.750 E163.82112
G1 X70.750 Y79.750 E163.93868
G1 X70.750 Y76.250 E164.00726
G1 X76.750 Y76.250 E164.12483
G0 F10500 X77.250 Y75.750
;TYPE:WALL-OUTER
G1 F540 X77.250 Y80.250 E164.21300
G1 X70.250 Y80.250 E164.35016
G1 X70.250 Y75.750 E164.43834
G1 X77.250 Y75.750 E164.57550
G0 F10500 X76.900 Y76.010
G0 X75.603 Y76.424
;TYPE:FILL
G1 F780 X72.453 Y79.574 E164.66279
G0 F10500 X72.889 Y76.424
G1 F780 X76.038 Y79.574 E164.75006
G1 F600 E163.00006
G1 Z14.275
G0 F10500 X83.250 Y79.750
;TYPE:WALL-INNER
G1 Z14.175
G1 F600 E164.75006
G1 F660 X83.250 Y76.250 E164.81864
G1 X89.250 Y76.250 E164.93621
G1 X89.250 Y79.750 E165.00479
G1 X83.250 Y79.750 E165.12235
G0 F10500 X82.750 Y80.250
;TYPE:WALL-OUTER
G1 F540 X82.750 Y75.750 E165.21053
G1 X89.750 Y75.750 E165.34769
G1 X89.750 Y80.250 E165.43586
G1 X82.750 Y80.250 E165.57302
G0 F10500 X83.010 Y79.900
G0 X86.595 Y79.574
;TYPE:FILL
G1 F780 X89.074 Y77.095 E165.64172
G0 F10500 X89.074 Y78.467
G1 F780 X87.032 Y76.425 E165.69830
;LAYER:56
G1 F600 E163.94830
G1 Z14.275
G0 F10500 X76.750 Y76.250 Z14.425
;TYPE:WALL-INNER
G1 Z14.425
G1 F600 E165.69830
G1 F660 X76.750 Y79.750 E165.76688
G1 X70.750 Y79.750 E165.88445
G1 X70.750 Y76.250 E165.95303
G1 X76.750 Y76.250 E166.07059
G0 F10500 X77.250 Y75.750
;TYPE:WALL-OUTER
G1 F540 X77.250 Y80.250 E166.15877
G1 X70.250 Y80.250 E166.29593
G1 X70.250 Y75.750 E166.38410
G1 X77.250 Y75.750 E166.52126
G0 F10500 X76.900 Y76.010
G0 X75.603 Y76.424
;TYPE:FILL
G1 F780 X72.453 Y79.574 E166.60855
G0 F10500 X72.889 Y76.424
G1 F780 X76.038 Y79.574 E166.69583
G1 F600 E164.94583
G1 Z14.525
G0 F10500 X83.250 Y79.750
;TYPE:WALL-INNER
G1 Z14.425
G1 F600 E166.69583
G1 F660 X83.250 Y76.250 E166.76441
G1 X89.250 Y76.250 E166.88197
G1 X89.250 Y79.750 E166.95055
G1 X83.250 Y79.750 E167.06812
G0 F10500 X82.750 Y80.250
;TYPE:WALL-OUTER
G1 F540 X82.750 Y75.750 E167.15629
G1 X89.750 Y75.750 E167.29345
G1 X89.750 Y80.250 E167.38163
G1 X82.750 Y80.250 E167.51879
G0 F10500 X83.010 Y79.900
G0 X86.595 Y79.574
;TYPE:FILL
G1 F780 X89.074 Y77.095 E167.58748
G0 F10500 X89.074 Y78.467
G1 F780 X87.032 Y76.425 E167.64407
;LAYER:57
G1 F600 E165.89407
G1 Z14.525
G0 F10500 X76.750 Y76.250 Z14.675
;TYPE:WALL-INNER
G1 Z14.675
G1 F600 E167.64407
G1 F660 X76.750 Y79.750 E167.71265
G1 X70.750 Y79.750 E167.83021
G1 X70.750 Y76.250 E167.89879
G1 X76.750 Y76.250 E168.01636
G0 F10500 X77.250 Y75.750
;TYPE:WALL-OUTER
G1 F540 X77.250 Y80.250 E168.10453
G1 X70.250 Y80.250 E168.24169
G1 X70.250 Y75.750 E168.32987
G1 X77.250 Y75.750 E168.46703
G0 F10500 X76.900 Y76.010
G0 X75.603 Y76.424
;TYPE:FILL
G1 F780 X72.453 Y79.574 E168.55432
G0 F10500 X72.889 Y76.424
G1 F780 X76.038 Y79.574 E168.64159
G1 F600 E166.89159
G1 Z14.775
G0 F10500 X83.250 Y79.750
;TYPE:WALL-INNER
G1 Z14.675
G1 F600 E168.64159
G1 F660 X83.250 Y76.250 E168.71017
G1 X89.250 Y76.250 E168.82774
G1 X89.250 Y79.750 E168.89632
G1 X83.250 Y79.750 E169.01388
G0 F10500 X82.750 Y80.250
;TYPE:WALL-OUTER
G1 F540 X82.750 Y75.750 E169.10206
G1 X89.750 Y75.750 E169.23922
G1 X89.750 Y80.250 E169.32739
G1 X82.750 Y80.250 E169.46455
G0 F10500 X83.010 Y79.900
G0 X86.595 Y79.574
;TYPE:FILL
G1 F780 X89.074 Y77.095 E169.53325
G0 F10500 X89.074 Y78.467
G1 F780 X87.032 Y76.425 E169.58983
;LAYER:58
G1 F600 E167.83983
G1 Z14.775
G0 F10500 X76.750 Y76.250 Z14.925
;TYPE:WALL-INNER
G1 Z14.925
G1 F600 E169.58983
G1 F660 X76.750 Y79.750 E169.65841
G1 X70.750 Y79.750 E169.77598
G1 X70.750 Y76.250 E169.84456
G1 X76.750 Y76.250 E169.96213
G0 F10500 X77.250 Y75.750
;TYPE:WALL-OUTER
G1 F540 X77.250 Y80.250 E170.05030
G1 X70.250 Y80.250 E170.18746
G1 X70.250 Y75.750 E170.27563
G1 X77.250 Y75.750 E170.41279
G0 F10500 X76.900 Y76.010
G0 X75.603 Y76.424
;TYPE:FILL
G1 F780 X72.453 Y79.574 E170.50008
G0 F10500 X72.889 Y76.424
G1 F780 X76.038 Y79.574 E170.58736
G1 F600 E168.83736
G1 Z15.025
G0 F10500 X83.250 Y79.750
;TYPE:WALL-INNER
G1 Z14.925
G1 F600 E170.58736
G1 F660 X83.250 Y76.250 E170.65594
G1 X89.250 Y76.250 E170.77350
G1 X89.250 Y79.750 E170.84208
G1 X83.250 Y79.750 E170.95965
G0 F10500 X82.750 Y80.250
;TYPE:WALL-OUTER
G1 F540 X82.750 Y75.750 E171.04782
G1 X89.750 Y75.750 E171.18498
G1 X89.750 Y80.250 E171.27316
G1 X82.750 Y80.250 E171.41032
G0 F10500 X83.010 Y79.900
G0 X86.595 Y79.574
;TYPE:FILL
G1 F780 X89.074 Y77.095 E171.47901
G0 F10500 X89.074 Y78.467
G1 F780 X87.032 Y76.425 E171.53560
;LAYER:59
G1 F600 E169.78560
G1 Z15.025
G0 F10500 X76.750 Y76.250 Z15.175
;TYPE:WALL-INNER
G1 Z15.175
G1 F600 E171.53560
G1 F660 X76.750 Y79.750 E171.60418
G1 X70.750 Y79.750 E171.72174
G1 X70.750 Y76.250 E171.79033
G1 X76.750 Y76.250 E171.90789
G0 F10500 X77.250 Y75.750
;TYPE:WALL-OUTER
G1 F540 X77.250 Y80.250 E171.99607
G1 X70.250 Y80.250 E172.13323
G1 X70.250 Y75.750 E172.22140
G1 X77.250 Y75.750 E172.35856
G0 F10500 X76.900 Y76.010
G0 X75.603 Y76.424
;TYPE:FILL
G1 F780 X72.453 Y79.574 E172.44585
G0 F10500 X72.889 Y76.424
G1 F780 X76.038 Y79.574 E172.53312
G1 F600 E170.78312
G1 Z15.275
G0 F10500 X83.250 Y79.750
;TYPE:WALL-INNER
G1 Z15.175
G1 F600 E172.53312
G1 F660 X83.250 Y76.250 E172.60170
G1 X89.250 Y76.250 E172.71927
G1 X89.250 Y79.750 E172.78785
G1 X83.250 Y79.750 E172.90542
G0 F10500 X82.750 Y80.250
;TYPE:WALL-OUTER
G1 F540 X82.750 Y75.750 E172.99359
G1 X89.750 Y75.750 E173.13075
G1 X89.750 Y80.250 E173.21892
G1 X82.750 Y80.250 E173.35609
G0 F10500 X83.010 Y79.900
G0 X86.595 Y79.574
;TYPE:FILL
G1 F780 X89.074 Y77.095 E173.42478
G0 F10500 X89.074 Y78.467
G1 F780 X87.032 Y76.425 E173.48136
;LAYER:60
G1 F600 E171.73136
G1 Z15.275
G0 F10500 X76.750 Y76.250 Z15.425
;TYPE:WALL-INNER
G1 Z15.425
G1 F600 E173.48136
G1 F660 X76.750 Y79.750 E173.54994
G1 X70.750 Y79.750 E173.66751
G1 X70.750 Y76.250 E173.73609
G1 X76.750 Y76.250 E173.85366
G0 F10500 X77.250 Y75.750
;TYPE:WALL-OUTER
G1 F540 X77.250 Y80.250 E173.94183
G1 X70.250 Y80.250 E174.07899
G1 X70.250 Y75.750 E174.16717
G1 X77.250 Y75.750 E174.30433
G0 F10500 X76.900 Y76.010
G0 X75.603 Y76.424
;TYPE:FILL
G1 F780 X72.453 Y79.574 E174.39161
G0 F10500 X72.889 Y76.424
G1 F780 X76.038 Y79.574 E174.47889
G1 F600 E172.72889
G1 Z15.525
G0 F10500 X83.250 Y79.750
;TYPE:WALL-INNER
G1 Z15.425
G1 F600 E174.47889
G1 F660 X83.250 Y76.250 E174.54747
G1 X89.250 Y76.250 E174.66504
G1 X89.250 Y79.750 E174.73362
G1 X83.250 Y79.750 E174.85118
G0 F10500 X82.750 Y80.250
;TYPE:WALL-OUTER
G1 F540 X82.750 Y75.750 E174.93936
G1 X89.750 Y75.750 E175.07652
G1 X89.750 Y80.250 E175.16469
G1 X82.750 Y80.250 E175.30185
G0 F10500 X83.010 Y79.900
G0 X86.595 Y79.574
;TYPE:FILL
G1 F780 X89.074 Y77.095 E175.37055
G0 F10500 X89.074 Y78.467
G1 F780 X87.032 Y76.425 E175.42713
;LAYER:61
G1 F600 E173.67713
G1 Z15.525
G0 F10500 X76.750 Y76.250 Z15.675
;TYPE:WALL-INNER
G1 Z15.675
G1 F600 E175.42713
G1 F660 X76.750 Y79.750 E175.49571
G1 X70.750 Y79.750 E175.61328
G1 X70.750 Y76.250 E175.68186
G1 X76.750 Y76.250 E175.79942
G0 F10500 X77.250 Y75.750
;TYPE:WALL-OUTER
G1 F540 X77.250 Y80.250 E175.88760
G1 X70.250 Y80.250 E176.02476
G1 X70.250 Y75.750 E176.11293
G1 X77.250 Y75.750 E176.25009
G0 F10500 X76.900 Y76.010
G0 X75.603 Y76.424
;TYPE:FILL
G1 F780 X72.453 Y79.574 E176.33738
G0 F10500 X72.889 Y76.424
G1 F780 X76.038 Y79.574 E176.42466
G1 F600 E174.67466
G1 Z15.775
G0 F10500 X83.250 Y79.750
;TYPE:WALL-INNER
G1 Z15.675
G1 F600 E176.42466
G1 F660 X83.250 Y76.250 E176.49324
G1 X89.250 Y76.250 E176.61080
G1 X89.250 Y79.750 E176.67938
G1 X83.250 Y79.750 E176.79695
G0 F10500 X82.750 Y80.250
;TYPE:WALL-OUTER
G1 F540 X82.750 Y75.750 E176.88512
G1 X89.750 Y75.750 E177.02228
G1 X89.750 Y80.250 E177.11046
G1 X82.750 Y80.250 E177.24762
G0 F10500 X83.010 Y79.900
G0 X86.595 Y79.574
;TYPE:FILL
G1 F780 X89.074 Y77.095 E177.31631
G0 F10500 X89.074 Y78.467
G1 F780 X87.032 Y76.425 E177.37290
;LAYER:62
G1 F600 E175.62290
G1 Z15.775
G0 F10500 X76.750 Y76.250 Z15.925
;TYPE:WALL-INNER
G1 Z15.925
G1 F600 E177.37290
G1 F660 X76.750 Y79.750 E177.44148
G1 X70.750 Y79.750 E177.55904
G1 X70.750 Y76.250 E177.62762
G1 X76.750 Y76.250 E177.74519
G0 F10500 X77.250 Y75.750
;TYPE:WALL-OUTER
G1 F540 X77.250 Y80.250 E177.83336
G1 X70.250 Y80.250 E177.97052
G1 X70.250 Y75.750 E178.05870
G1 X77.250 Y75.750 E178.19586
G0 F10500 X76.900 Y76.010
G0 X75.603 Y76.424
;TYPE:FILL
G1 F780 X72.453 Y79.574 E178.28315
G0 F10500 X72.889 Y76.424
G1 F780 X76.038 Y79.574 E178.37042
G1 F600 E176.62042
G1 Z16.025
G0 F10500 X83.250 Y79.750
;TYPE:WALL-INNER
G1 Z15.925
G1 F600 E178.37042
G1 F660 X83.250 Y76.250 E178.43900
G1 X89.250 Y76.250 E178.55657
G1 X89.250 Y79.750 E178.62515
G1 X83.250 Y79.750 E178.74271
G0 F10500 X82.750 Y80.250
;TYPE:WALL-OUTER
G1 F540 X82.750 Y75.750 E178.83089
G1 X89.750 Y75.750 E178.96805
G1 X89.750 Y80.250 E179.05622
G1 X82.750 Y80.250 E179.19338
G0 F10500 X83.010 Y79.900
G0 X86.595 Y79.574
;TYPE:FILL
G1 F780 X89.074 Y77.095 E179.26208
G0 F10500 X89.074 Y78.467
G1 F780 X87.032 Y76.425 E179.31866
;LAYER:63
G1 F600 E177.56866
G1 Z16.025
G0 F10500 X76.750 Y76.250 Z16.175
;TYPE:WALL-INNER
G1 Z16.175
G1 F600 E179.31866
G1 F660 X76.750 Y79.750 E179.38724
G1 X70.750 Y79.750 E179.50481
G1 X70.750 Y76.250 E179.57339
G1 X76.750 Y76.250 E179.69095
G0 F10500 X77.250 Y75.750
;TYPE:WALL-OUTER
G1 F540 X77.250 Y80.250 E179.77913
G1 X70.250 Y80.250 E179.91629
G1 X70.250 Y75.750 E180.00446
G1 X77.250 Y75.750 E180.14162
G0 F10500 X76.900 Y76.010
G0 X75.603 Y76.424
;TYPE:FILL
G1 F780 X72.453 Y79.574 E180.22891
G0 F10500 X72.889 Y76.424
G1 F780 X76.038 Y79.574 E180.31619
G1 F600 E178.56619
G1 Z16.275
G0 F10500 X83.250 Y79.750
;TYPE:WALL-INNER
G1 Z16.175
G1 F600 E180.31619
G1 F660 X83.250 Y76.250 E180.38477
G1 X89.250 Y76.250 E180.50233
G1 X89.250 Y79.750 E180.57091
G1 X83.250 Y79.750 E180.68848
G0 F10500 X82.750 Y80.250
;TYPE:WALL-OUTER
G1 F540 X82.750 Y75.750 E180.77665
G1 X89.750 Y75.750 E180.91381
G1 X89.750 Y80.250 E181.00199
G1 X82.750 Y80.250 E181.13915
G0 F10500 X83.010 Y79.900
G0 X86.595 Y79.574
;TYPE:FILL
G1 F780 X89.074 Y77.095 E181.20784
G0 F10500 X89.074 Y78.467
G1 F780 X87.032 Y76.425 E181.26443
;LAYER:64
G1 F600 E179.51443
G1 Z16.275
G0 F10500 X76.750 Y76.250 Z16.425
;TYPE:WALL-INNER
G1 Z16.425
G1 F600 E181.26443
G1 F660 X76.750 Y79.750 E181.33301
G1 X70.750 Y79.750 E181.45057
G1 X70.750 Y76.250 E181.51915
G1 X76.750 Y76.250 E181.63672
G0 F10500 X77.250 Y75.750
;TYPE:WALL-OUTER
G1 F540 X77.250 Y80.250 E181.72489
G1 X70.250 Y80.250 E181.86206
G1 X70.250 Y75.750 E181.95023
G1 X77.250 Y75.750 E182.08739
G0 F10500 X76.900 Y76.010
G0 X75.603 Y76.424
;TYPE:FILL
G1 F780 X72.453 Y79.574 E182.17468
G0 F10500 X72.889 Y76.424
G1 F780 X76.038 Y79.574 E182.26195
G1 F600 E180.51195
G1 Z16.525
G0 F10500 X83.250 Y79.750
;TYPE:WALL-INNER
G1 Z16.425
G1 F600 E182.26195
G1 F660 X83.250 Y76.250 E182.33053
G1 X89.250 Y76.250 E182.44810
G1 X89.250 Y79.750 E182.51668
G1 X83.250 Y79.750 E182.63424
G0 F10500 X82.750 Y80.250
;TYPE:WALL-OUTER
G1 F540 X82.750 Y75.750 E182.72242
G1 X89.750 Y75.750 E182.85958
G1 X89.750 Y80.250 E182.94775
G1 X82.750 Y80.250 E183.08491
G0 F10500 X83.010 Y79.900
G0 X86.595 Y79.574
;TYPE:FILL
G1 F780 X89.074 Y77.095 E183.15361
G0 F10500 X89.074 Y78.467
G1 F780 X87.032 Y76.425 E183.21019
;LAYER:65
G1 F600 E181.46019
G1 Z16.525
G0 F10500 X76.750 Y76.250 Z16.675
;TYPE:WALL-INNER
G1 Z16.675
G1 F600 E183.21019
G1 F660 X76.750 Y79.750 E183.27877
G1 X70.750 Y79.750 E183.39634
G1 X70.750 Y76.250 E183.46492
G1 X76.750 Y76.250 E183.58249
G0 F10500 X77.250 Y75.750
;TYPE:WALL-OUTER
G1 F540 X77.250 Y80.250 E183.67066
G1 X70.250 Y80.250 E183.80782
G1 X70.250 Y75.750 E183.89600
G1 X77.250 Y75.750 E184.03316
G0 F10500 X76.900 Y76.010
G0 X75.603 Y76.424
;TYPE:FILL
G1 F780 X72.453 Y79.574 E184.12044
G0 F10500 X72.889 Y76.424
G1 F780 X76.038 Y79.574 E184.20772
G1 F600 E182.45772
G1 Z16.775
G0 F10500 X83.250 Y79.750
;TYPE:WALL-INNER
G1 Z16.675
G1 F600 E184.20772
G1 F660 X83.250 Y76.250 E184.27630
G1 X89.250 Y76.250 E184.39386
G1 X89.250 Y79.750 E184.46244
G1 X83.250 Y79.750 E184.58001
G0 F10500 X82.750 Y80.250
;TYPE:WALL-OUTER
G1 F540 X82.750 Y75.750 E184.66819
G1 X89.750 Y75.750 E184.80535
G1 X89.750 Y80.250 E184.89352
G1 X82.750 Y80.250 E185.03068
G0 F10500 X83.010 Y79.900
G0 X86.595 Y79.574
;TYPE:FILL
G1 F780 X89.074 Y77.095 E185.09937
G0 F10500 X89.074 Y78.467
G1 F780 X87.032 Y76.425 E185.15596
;LAYER:66
G1 F600 E183.40596
G1 Z16.775
G0 F10500 X76.750 Y76.250 Z16.925
;TYPE:WALL-INNER
G1 Z16.925
G1 F600 E185.15596
G1 F660 X76.750 Y79.750 E185.22454
G1 X70.750 Y79.750 E185.34211
G1 X70.750 Y76.250 E185.41069
G1 X76.750 Y76.250 E185.52825
G0 F10500 X77.250 Y75.750
;TYPE:WALL-OUTER
G1 F540 X77.250 Y80.250 E185.61643
G1 X70.250 Y80.250 E185.75359
G1 X70.250 Y75.750 E185.84176
G1 X77.250 Y75.750 E185.97892
G0 F10500 X76.900 Y76.010
G0 X75.603 Y76.424
;TYPE:FILL
G1 F780 X72.453 Y79.574 E186.06621
G0 F10500 X72.889 Y76.424
G1 F780 X76.038 Y79.574 E186.15348
G1 F600 E184.40348
G1 Z17.025
G0 F10500 X83.250 Y79.750
;TYPE:WALL-INNER
G1 Z16.925
G1 F600 E186.15348
G1 F660 X83.250 Y76.250 E186.22206
G1 X89.250 Y76.250 E186.33963
G1 X89.250 Y79.750 E186.40821
G1 X83.250 Y79.750 E186.52578
G0 F10500 X82.750 Y80.250
;TYPE:WALL-OUTER
G1 F540 X82.750 Y75.750 E186.61395
G1 X89.750 Y75.750 E186.75111
G1 X89.750 Y80.250 E186.83929
G1 X82.750 Y80.250 E186.97645
G0 F10500 X83.010 Y79.900
G0 X86.595 Y79.574
;TYPE:FILL
G1 F780 X89.074 Y77.095 E187.04514
G0 F10500 X89.074 Y78.467
G1 F780 X87.032 Y76.425 E187.10173
;LAYER:67
G1 F600 E185.35173
G1 Z17.025
G0 F10500 X76.750 Y76.250 Z17.175
;TYPE:WALL-INNER
G1 Z17.175
G1 F600 E187.10173
G1 F660 X76.750 Y79.750 E187.17031
G1 X70.750 Y79.750 E187.28787
G1 X70.750 Y76.250 E187.35645
G1 X76.750 Y76.250 E187.47402
G0 F10500 X77.250 Y75.750
;TYPE:WALL-OUTER
G1 F540 X77.250 Y80.250 E187.56219
G1 X70.250 Y80.250 E187.69935
G1 X70.250 Y75.750 E187.78753
G1 X77.250 Y75.750 E187.92469
G0 F10500 X76.900 Y76.010
G0 X75.603 Y76.424
;TYPE:FILL
G1 F780 X72.453 Y79.574 E188.01198
G0 F10500 X72.889 Y76.424
G1 F780 X76.038 Y79.574 E188.09925
G1 F600 E186.34925
G1 Z17.275
G0 F10500 X83.250 Y79.750
;TYPE:WALL-INNER
G1 Z17.175
G1 F600 E188.09925
G1 F660 X83.250 Y76.250 E188.16783
G1 X89.250 Y76.250 E188.28540
G1 X89.250 Y79.750 E188.35398
G1 X83.250 Y79.750 E188.47154
G0 F10500 X82.750 Y80.250
;TYPE:WALL-OUTER
G1 F540 X82.750 Y75.750 E188.55972
G1 X89.750 Y75.750 E188.69688
G1 X89.750 Y80.250 E188.78505
G1 X82.750 Y80.250 E188.92221
G0 F10500 X83.010 Y79.900
G0 X86.595 Y79.574
;TYPE:FILL
G1 F780 X89.074 Y77.095 E188.99091
G0 F10500 X89.074 Y78.467
G1 F780 X87.032 Y76.425 E189.04749
;LAYER:68
G1 F600 E187.29749
G1 Z17.275
G0 F10500 X76.750 Y76.250 Z17.425
;TYPE:WALL-INNER
G1 Z17.425
G1 F600 E189.04749
G1 F660 X76.750 Y79.750 E189.11607
G1 X70.750 Y79.750 E189.23364
G1 X70.750 Y76.250 E189.30222
G1 X76.750 Y76.250 E189.41978
G0 F10500 X77.250 Y75.750
;TYPE:WALL-OUTER
G1 F540 X77.250 Y80.250 E189.50796
G1 X70.250 Y80.250 E189.64512
G1 X70.250 Y75.750 E189.73329
G1 X77.250 Y75.750 E189.87045
G0 F10500 X76.900 Y76.010
G0 X75.603 Y76.424
;TYPE:FILL
G1 F780 X72.453 Y79.574 E189.95774
G0 F10500 X72.889 Y76.424
G1 F780 X76.038 Y79.574 E190.04502
G1 F600 E188.29502
G1 Z17.525
G0 F10500 X83.250 Y79.750
;TYPE:WALL-INNER
G1 Z17.425
G1 F600 E190.04502
G1 F660 X83.250 Y76.250 E190.11360
G1 X89.250 Y76.250 E190.23116
G1 X89.250 Y79.750 E190.29974
G1 X83.250 Y79.750 E190.41731
G0 F10500 X82.750 Y80.250
;TYPE:WALL-OUTER
G1 F540 X82.750 Y75.750 E190.50548
G1 X89.750 Y75.750 E190.64264
G1 X89.750 Y80.250 E190.73082
G1 X82.750 Y80.250 E190.86798
G0 F10500 X83.010 Y79.900
G0 X86.595 Y79.574
;TYPE:FILL
G1 F780 X89.074 Y77.095 E190.93667
G0 F10500 X89.074 Y78.467
G1 F780 X87.032 Y76.425 E190.99326
;LAYER:69
G1 F600 E189.24326
G1 Z17.525
G0 F10500 X76.750 Y76.250 Z17.675
;TYPE:WALL-INNER
G1 Z17.675
G1 F600 E190.99326
G1 F660 X76.750 Y79.750 E191.06184
G1 X70.750 Y79.750 E191.17940
G1 X70.750 Y76.250 E191.24798
G1 X76.750 Y76.250 E191.36555
G0 F10500 X77.250 Y75.750
;TYPE:WALL-OUTER
G1 F540 X77.250 Y80.250 E191.45372
G1 X70.250 Y80.250 E191.59088
G1 X70.250 Y75.750 E191.67906
G1 X77.250 Y75.750 E191.81622
G0 F10500 X76.900 Y76.010
G0 X75.603 Y76.424
;TYPE:FILL
G1 F780 X72.453 Y79.574 E191.90351
G0 F10500 X72.889 Y76.424
G1 F780 X76.038 Y79.574 E191.99078
G1 F600 E190.24078
G1 Z17.775
G0 F10500 X83.250 Y79.750
;TYPE:WALL-INNER
G1 Z17.675
G1 F600 E191.99078
G1 F660 X83.250 Y76.250 E192.05936
G1 X89.250 Y76.250 E192.17693
G1 X89.250 Y79.750 E192.24551
G1 X83.250 Y79.750 E192.36307
G0 F10500 X82.750 Y80.250
;TYPE:WALL-OUTER
G1 F540 X82.750 Y75.750 E192.45125
G1 X89.750 Y75.750 E192.58841
G1 X89.750 Y80.250 E192.67658
G1 X82.750 Y80.250 E192.81374
G0 F10500 X83.010 Y79.900
G0 X86.595 Y79.574
;TYPE:FILL
G1 F780 X89.074 Y77.095 E192.88244
G0 F10500 X89.074 Y78.467
G1 F780 X87.032 Y76.425 E192.93902
;LAYER:70
G1 F600 E191.18902
G1 Z17.775
G0 F10500 X76.750 Y76.250 Z17.925
;TYPE:WALL-INNER
G1 Z17.925
G1 F600 E192.93902
G1 F660 X76.750 Y79.750 E193.00760
G1 X70.750 Y79.750 E193.12517
G1 X70.750 Y76.250 E193.19375
G1 X76.750 Y76.250 E193.31132
G0 F10500 X77.250 Y75.750
;TYPE:WALL-OUTER
G1 F540 X77.250 Y80.250 E193.39949
G1 X70.250 Y80.250 E193.53665
G1 X70.250 Y75.750 E193.62482
G1 X77.250 Y75.750 E193.76199
G0 F10500 X76.900 Y76.010
G0 X75.603 Y76.424
;TYPE:FILL
G1 F780 X72.453 Y79.574 E193.84927
G0 F10500 X72.889 Y76.424
G1 F780 X76.038 Y79.574 E193.93655
G1 F600 E192.18655
G1 Z18.025
G0 F10500 X83.250 Y79.750
;TYPE:WALL-INNER
G1 Z17.925
G1 F600 E193.93655
G1 F660 X83.250 Y76.250 E194.00513
G1 X89.250 Y76.250 E194.12269
G1 X89.250 Y79.750 E194.19127
G1 X83.250 Y79.750 E194.30884
G0 F10500 X82.750 Y80.250
;TYPE:WALL-OUTER
G1 F540 X82.750 Y75.750 E194.39701
G1 X89.750 Y75.750 E194.53418
G1 X89.750 Y80.250 E194.62235
G1 X82.750 Y80.250 E194.75951
G0 F10500 X83.010 Y79.900
G0 X86.595 Y79.574
;TYPE:FILL
G1 F780 X89.074 Y77.095 E194.82820
G0 F10500 X89.074 Y78.467
G1 F780 X87.032 Y76.425 E194.88479
;LAYER:71
G1 F600 E193.13479
G1 Z18.025
G0 F10500 X76.750 Y76.250 Z18.175
;TYPE:WALL-INNER
G1 Z18.175
G1 F600 E194.88479
G1 F660 X76.750 Y79.750 E194.95337
G1 X70.750 Y79.750 E195.07094
G1 X70.750 Y76.250 E195.13952
G1 X76.750 Y76.250 E195.25708
G0 F10500 X77.250 Y75.750
;TYPE:WALL-OUTER
G1 F540 X77.250 Y80.250 E195.34526
G1 X70.250 Y80.250 E195.48242
G1 X70.250 Y75.750 E195.57059
G1 X77.250 Y75.750 E195.70775
G0 F10500 X76.900 Y76.010
G0 X75.603 Y76.424
;TYPE:FILL
G1 F780 X72.453 Y79.574 E195.79504
G0 F10500 X72.889 Y76.424
G1 F780 X76.038 Y79.574 E195.88231
G1 F600 E194.13231
G1 Z18.275
G0 F10500 X83.250 Y79.750
;TYPE:WALL-INNER
G1 Z18.175
G1 F600 E195.88231
G1 F660 X83.250 Y76.250 E195.95089
G1 X89.250 Y76.250 E196.06846
G1 X89.250 Y79.750 E196.13704
G1 X83.250 Y79.750 E196.25461
G0 F10500 X82.750 Y80.250
;TYPE:WALL-OUTER
G1 F540 X82.750 Y75.750 E196.34278
G1 X89.750 Y75.750 E196.47994
G1 X89.750 Y80.250 E196.56812
G1 X82.750 Y80.250 E196.70528
G0 F10500 X83.010 Y79.900
G0 X86.595 Y79.574
;TYPE:FILL
G1 F780 X89.074 Y77.095 E196.77397
G0 F10500 X89.074 Y78.467
G1 F780 X87.032 Y76.425 E196.83056
;LAYER:72
G1 F600 E195.08056
G1 Z18.275
G0 F10500 X76.750 Y76.250 Z18.425
;TYPE:WALL-INNER
G1 Z18.425
G1 F600 E196.83056
G1 F660 X76.750 Y79.750 E196.89914
G1 X70.750 Y79.750 E197.01670
G1 X70.750 Y76.250 E197.08528
G1 X76.750 Y76.250 E197.20285
G0 F10500 X77.250 Y75.750
;TYPE:WALL-OUTER
G1 F540 X77.250 Y80.250 E197.29102
G1 X70.250 Y80.250 E197.42818
G1 X70.250 Y75.750 E197.51636
G1 X77.250 Y75.750 E197.65352
G0 F10500 X76.900 Y76.010
G0 X75.603 Y76.424
;TYPE:FILL
G1 F780 X72.453 Y79.574 E197.74081
G0 F10500 X72.889 Y76.424
G1 F780 X76.038 Y79.574 E197.82808
G1 F600 E196.07808
G1 Z18.525
G0 F10500 X83.250 Y79.750
;TYPE:WALL-INNER
G1 Z18.425
G1 F600 E197.82808
G1 F660 X83.250 Y76.250 E197.89666
G1 X89.250 Y76.250 E198.01423
G1 X89.250 Y79.750 E198.08281
G1 X83.250 Y79.750 E198.20037
G0 F10500 X82.750 Y80.250
;TYPE:WALL-OUTER
G1 F540 X82.750 Y75.750 E198.28855
G1 X89.750 Y75.750 E198.42571
G1 X89.750 Y80.250 E198.51388
G1 X82.750 Y80.250 E198.65104
G0 F10500 X83.010 Y79.900
G0 X86.595 Y79.574
;TYPE:FILL
G1 F780 X89.074 Y77.095 E198.71974
G0 F10500 X89.074 Y78.467
G1 F780 X87.032 Y76.425 E198.77632
;LAYER:73
G1 F600 E197.02632
G1 Z18.525
G0 F10500 X76.750 Y76.250 Z18.675
;TYPE:WALL-INNER
G1 Z18.675
G1 F600 E198.77632
G1 F660 X76.750 Y79.750 E198.84490
G1 X70.750 Y79.750 E198.96247
G1 X70.750 Y76.250 E199.03105
G1 X76.750 Y76.250 E199.14861
G0 F10500 X77.250 Y75.750
;TYPE:WALL-OUTER
G1 F540 X77.250 Y80.250 E199.23679
G1 X70.250 Y80.250 E199.37395
G1 X70.250 Y75.750 E199.46212
G1 X77.250 Y75.750 E199.59928
G0 F10500 X76.900 Y76.010
G0 X75.603 Y76.424
;TYPE:FILL
G1 F780 X72.453 Y79.574 E199.68657
G0 F10500 X72.889 Y76.424
G1 F780 X76.038 Y79.574 E199.77385
G1 F600 E198.02385
G1 Z18.775
G0 F10500 X83.250 Y79.750
;TYPE:WALL-INNER
G1 Z18.675
G1 F600 E199.77385
G1 F660 X83.250 Y76.250 E199.84243
G1 X89.250 Y76.250 E199.95999
G1 X89.250 Y79.750 E200.02857
G1 X83.250 Y79.750 E200.14614
G0 F10500 X82.750 Y80.250
;TYPE:WALL-OUTER
G1 F540 X82.750 Y75.750 E200.23431
G1 X89.750 Y75.750 E200.37147
G1 X89.750 Y80.250 E200.45965
G1 X82.750 Y80.250 E200.59681
G0 F10500 X83.010 Y79.900
G0 X86.595 Y79.574
;TYPE:FILL
G1 F780 X89.074 Y77.095 E200.66550
G0 F10500 X89.074 Y78.467
G1 F780 X87.032 Y76.425 E200.72209
;LAYER:74
G1 F600 E198.97209
G1 Z18.775
G0 F10500 X76.750 Y76.250 Z18.925
;TYPE:WALL-INNER
G1 Z18.925
G1 F600 E200.72209
G1 F660 X76.750 Y79.750 E200.79067
G1 X70.750 Y79.750 E200.90823
G1 X70.750 Y76.250 E200.97681
G1 X76.750 Y76.250 E201.09438
G0 F10500 X77.250 Y75.750
;TYPE:WALL-OUTER
G1 F540 X77.250 Y80.250 E201.18255
G1 X70.250 Y80.250 E201.31971
G1 X70.250 Y75.750 E201.40789
G1 X77.250 Y75.750 E201.54505
G0 F10500 X76.900 Y76.010
G0 X75.603 Y76.424
;TYPE:FILL
G1 F780 X72.453 Y79.574 E201.63234
G0 F10500 X72.889 Y76.424
G1 F780 X76.038 Y79.574 E201.71961
G1 F600 E199.96961
G1 Z19.025
G0 F10500 X83.250 Y79.750
;TYPE:WALL-INNER
G1 Z18.925
G1 F600 E201.71961
G1 F660 X83.250 Y76.250 E201.78819
G1 X89.250 Y76.250 E201.90576
G1 X89.250 Y79.750 E201.97434
G1 X83.250 Y79.750 E202.09190
G0 F10500 X82.750 Y80.250
;TYPE:WALL-OUTER
G1 F540 X82.750 Y75.750 E202.18008
G1 X89.750 Y75.750 E202.31724
G1 X89.750 Y80.250 E202.40541
G1 X82.750 Y80.250 E202.54257
G0 F10500 X83.010 Y79.900
G0 X86.595 Y79.574
;TYPE:FILL
G1 F780 X89.074 Y77.095 E202.61127
G0 F10500 X89.074 Y78.467
G1 F780 X87.032 Y76.425 E202.66785
;LAYER:75
G1 F600 E200.91785
G1 Z19.025
G0 F10500 X76.750 Y76.250 Z19.175
;TYPE:WALL-INNER
G1 Z19.175
G1 F600 E202.66785
G1 F660 X76.750 Y79.750 E202.73643
G1 X70.750 Y79.750 E202.85400
G1 X70.750 Y76.250 E202.92258
G1 X76.750 Y76.250 E203.04015
G0 F10500 X77.250 Y75.750
;TYPE:WALL-OUTER
G1 F540 X77.250 Y80.250 E203.12832
G1 X70.250 Y80.250 E203.26548
G1 X70.250 Y75.750 E203.35365
G1 X77.250 Y75.750 E203.49081
G0 F10500 X76.900 Y76.010
G0 X75.603 Y76.424
;TYPE:FILL
G1 F780 X72.453 Y79.574 E203.57810
G0 F10500 X72.889 Y76.424
G1 F780 X76.038 Y79.574 E203.66538
G1 F600 E201.91538
G1 Z19.275
G0 F10500 X83.250 Y79.750
;TYPE:WALL-INNER
G1 Z19.175
G1 F600 E203.66538
G1 F660 X83.250 Y76.250 E203.73396
G1 X89.250 Y76.250 E203.85152
G1 X89.250 Y79.750 E203.92010
G1 X83.250 Y79.750 E204.03767
G0 F10500 X82.750 Y80.250
;TYPE:WALL-OUTER
G1 F540 X82.750 Y75.750 E204.12584
G1 X89.750 Y75.750 E204.26300
G1 X89.750 Y80.250 E204.35118
G1 X82.750 Y80.250 E204.48834
G0 F10500 X83.010 Y79.900
G0 X86.595 Y79.574
;TYPE:FILL
G1 F780 X89.074 Y77.095 E204.55703
G0 F10500 X89.074 Y78.467
G1 F780 X87.032 Y76.425 E204.61362
;LAYER:76
G1 F600 E202.86362
G1 Z19.275
G0 F10500 X76.750 Y76.250 Z19.425
;TYPE:WALL-INNER
G1 Z19.425
G1 F600 E204.61362
G1 F660 X76.750 Y79.750 E204.68220
G1 X70.750 Y79.750 E204.79976
G1 X70.750 Y76.250 E204.86835
G1 X76.750 Y76.250 E204.98591
G0 F10500 X77.250 Y75.750
;TYPE:WALL-OUTER
G1 F540 X77.250 Y80.250 E205.07409
G1 X70.250 Y80.250 E205.21125
G1 X70.250 Y75.750 E205.29942
G1 X77.250 Y75.750 E205.43658
G0 F10500 X76.900 Y76.010
G0 X75.603 Y76.424
;TYPE:FILL
G1 F780 X72.453 Y79.574 E205.52387
G0 F10500 X72.889 Y76.424
G1 F780 X76.038 Y79.574 E205.61114
G1 F600 E203.86114
G1 Z19.525
G0 F10500 X83.250 Y79.750
;TYPE:WALL-INNER
G1 Z19.425
G1 F600 E205.61114
G1 F660 X83.250 Y76.250 E205.67972
G1 X89.250 Y76.250 E205.79729
G1 X89.250 Y79.750 E205.86587
G1 X83.250 Y79.750 E205.98344
G0 F10500 X82.750 Y80.250
;TYPE:WALL-OUTER
G1 F540 X82.750 Y75.750 E206.07161
G1 X89.750 Y75.750 E206.20877
G1 X89.750 Y80.250 E206.29694
G1 X82.750 Y80.250 E206.43411
G0 F10500 X83.010 Y79.900
G0 X86.595 Y79.574
;TYPE:FILL
G1 F780 X89.074 Y77.095 E206.50280
G0 F10500 X89.074 Y78.467
G1 F780 X87.032 Y76.425 E206.55938
;LAYER:77
G1 F600 E204.80938
G1 Z19.525
G0 F10500 X76.750 Y76.250 Z19.675
;TYPE:WALL-INNER
G1 Z19.675
G1 F600 E206.55938
G1 F660 X76.750 Y79.750 E206.62796
G1 X70.750 Y79.750 E206.74553
G1 X70.750 Y76.250 E206.81411
G1 X76.750 Y76.250 E206.93168
G0 F10500 X77.250 Y75.750
;TYPE:WALL-OUTER
G1 F540 X77.250 Y80.250 E207.01985
G1 X70.250 Y80.250 E207.15701
G1 X70.250 Y75.750 E207.24519
G1 X77.250 Y75.750 E207.38235
G0 F10500 X76.900 Y76.010
G0 X75.603 Y76.424
;TYPE:FILL
G1 F780 X72.453 Y79.574 E207.46963
G0 F10500 X72.889 Y76.424
G1 F780 X76.038 Y79.574 E207.55691
G1 F600 E205.80691
G1 Z19.775
G0 F10500 X83.250 Y79.750
;TYPE:WALL-INNER
G1 Z19.675
G1 F600 E207.55691
G1 F660 X83.250 Y76.250 E207.62549
G1 X89.250 Y76.250 E207.74306
G1 X89.250 Y79.750 E207.81164
G1 X83.250 Y79.750 E207.92920
G0 F10500 X82.750 Y80.250
;TYPE:WALL-OUTER
G1 F540 X82.750 Y75.750 E208.01738
G1 X89.750 Y75.750 E208.15454
G1 X89.750 Y80.250 E208.24271
G1 X82.750 Y80.250 E208.37987
G0 F10500 X83.010 Y79.900
G0 X86.595 Y79.574
;TYPE:FILL
G1 F780 X89.074 Y77.095 E208.44857
G0 F10500 X89.074 Y78.467
G1 F780 X87.032 Y76.425 E208.50515
;LAYER:78
G1 F600 E206.75515
G1 Z19.775
G0 F10500 X76.750 Y76.250 Z19.925
;TYPE:WALL-INNER
G1 Z19.925
G1 F600 E208.50515
G1 F660 X76.750 Y79.750 E208.57373
G1 X70.750 Y79.750 E208.69130
G1 X70.750 Y76.250 E208.75988
G1 X76.750 Y76.250 E208.87744
G0 F10500 X77.250 Y75.750
;TYPE:WALL-OUTER
G1 F540 X77.250 Y80.250 E208.96562
G1 X70.250 Y80.250 E209.10278
G1 X70.250 Y75.750 E209.19095
G1 X77.250 Y75.750 E209.32811
G0 F10500 X76.900 Y76.010
G0 X75.603 Y76.424
;TYPE:FILL
G1 F780 X72.453 Y79.574 E209.41540
G0 F10500 X72.889 Y76.424
G1 F780 X76.038 Y79.574 E209.50268
G1 F600 E207.75268
G1 Z20.025
G0 F10500 X83.250 Y79.750
;TYPE:WALL-INNER
G1 Z19.925
G1 F600 E209.50268
G1 F660 X83.250 Y76.250 E209.57126
G1 X89.250 Y76.250 E209.68882
G1 X89.250 Y79.750 E209.75740
G1 X83.250 Y79.750 E209.87497
G0 F10500 X82.750 Y80.250
;TYPE:WALL-OUTER
G1 F540 X82.750 Y75.750 E209.96314
G1 X89.750 Y75.750 E210.10030
G1 X89.750 Y80.250 E210.18848
G1 X82.750 Y80.250 E210.32564
G0 F10500 X83.010 Y79.900
G0 X86.595 Y79.574
;TYPE:FILL
G1 F780 X89.074 Y77.095 E210.39433
G0 F10500 X89.074 Y78.467
G1 F780 X87.032 Y76.425 E210.45092
;LAYER:79
G1 F600 E208.70092
G1 Z20.025
G0 F10500 X76.750 Y76.250 Z20.175
;TYPE:WALL-INNER
G1 Z20.175
G1 F600 E210.45092
G1 F660 X76.750 Y79.750 E210.51950
G1 X70.750 Y79.750 E210.63706
G1 X70.750 Y76.250 E210.70564
G1 X76.750 Y76.250 E210.82321
G0 F10500 X77.250 Y75.750
;TYPE:WALL-OUTER
G1 F540 X77.250 Y80.250 E210.91138
G1 X70.250 Y80.250 E211.04854
G1 X70.250 Y75.750 E211.13672
G1 X77.250 Y75.750 E211.27388
G0 F10500 X76.900 Y76.010
G0 X75.603 Y76.424
;TYPE:FILL
G1 F780 X72.453 Y79.574 E211.36117
G0 F10500 X72.889 Y76.424
G1 F780 X76.038 Y79.574 E211.44844
G1 F600 E209.69844
G1 Z20.275
G0 F10500 X83.250 Y79.750
;TYPE:WALL-INNER
G1 Z20.175
G1 F600 E211.44844
G1 F660 X83.250 Y76.250 E211.51702
G1 X89.250 Y76.250 E211.63459
G1 X89.250 Y79.750 E211.70317
G1 X83.250 Y79.750 E211.82073
G0 F10500 X82.750 Y80.250
;TYPE:WALL-OUTER
G1 F540 X82.750 Y75.750 E211.90891
G1 X89.750 Y75.750 E212.04607
G1 X89.750 Y80.250 E212.13424
G1 X82.750 Y80.250 E212.27140
G0 F10500 X83.010 Y79.900
G0 X86.595 Y79.574
;TYPE:FILL
G1 F780 X89.074 Y77.095 E212.34010
G0 F10500 X89.074 Y78.467
G1 F780 X87.032 Y76.425 E212.39668
;LAYER:80
G1 F600 E210.64668
G1 Z20.275
G0 F10500 X76.750 Y76.250 Z20.425
;TYPE:WALL-INNER
G1 Z20.425
G1 F600 E212.39668
G1 F660 X76.750 Y79.750 E212.46526
G1 X70.750 Y79.750 E212.58283
G1 X70.750 Y76.250 E212.65141
G1 X76.750 Y76.250 E212.76897
G0 F10500 X77.250 Y75.750
;TYPE:WALL-OUTER
G1 F540 X77.250 Y80.250 E212.85715
G1 X70.250 Y80.250 E212.99431
G1 X70.250 Y75.750 E213.08248
G1 X77.250 Y75.750 E213.21964
G0 F10500 X76.900 Y76.010
G0 X75.603 Y76.424
;TYPE:FILL
G1 F780 X72.453 Y79.574 E213.30693
G0 F10500 X72.889 Y76.424
G1 F780 X76.038 Y79.574 E213.39421
G1 F600 E211.64421
G1 Z20.525
G0 F10500 X83.250 Y79.750
;TYPE:WALL-INNER
G1 Z20.425
G1 F600 E213.39421
G1 F660 X83.250 Y76.250 E213.46279
G1 X89.250 Y76.250 E213.58035
G1 X89.250 Y79.750 E213.64893
G1 X83.250 Y79.750 E213.76650
G0 F10500 X82.750 Y80.250
;TYPE:WALL-OUTER
G1 F540 X82.750 Y75.750 E213.85467
G1 X89.750 Y75.750 E213.99183
G1 X89.750 Y80.250 E214.08001
G1 X82.750 Y80.250 E214.21717
G0 F10500 X83.010 Y79.900
G0 X86.595 Y79.574
;TYPE:FILL
G1 F780 X89.074 Y77.095 E214.28586
G0 F10500 X89.074 Y78.467
G1 F780 X87.032 Y76.425 E214.34245
;LAYER:81
G1 F600 E212.59245
G1 Z20.525
G0 F10500 X76.750 Y76.250 Z20.675
;TYPE:WALL-INNER
G1 Z20.675
G1 F600 E214.34245
G1 F660 X76.750 Y79.750 E214.41103
G1 X70.750 Y79.750 E214.52859
G1 X70.750 Y76.250 E214.59717
G1 X76.750 Y76.250 E214.71474
G0 F10500 X77.250 Y75.750
;TYPE:WALL-OUTER
G1 F540 X77.250 Y80.250 E214.80291
G1 X70.250 Y80.250 E214.94008
G1 X70.250 Y75.750 E215.02825
G1 X77.250 Y75.750 E215.16541
G0 F10500 X76.900 Y76.010
G0 X75.603 Y76.424
;TYPE:FILL
G1 F780 X72.453 Y79.574 E215.25270
G0 F10500 X72.889 Y76.424
G1 F780 X76.038 Y79.574 E215.33997
G1 F600 E213.58997
G1 Z20.775
G0 F10500 X83.250 Y79.750
;TYPE:WALL-INNER
G1 Z20.675
G1 F600 E215.33997
G1 F660 X83.250 Y76.250 E215.40855
G1 X89.250 Y76.250 E215.52612
G1 X89.250 Y79.750 E215.59470
G1 X83.250 Y79.750 E215.71227
G0 F10500 X82.750 Y80.250
;TYPE:WALL-OUTER
G1 F540 X82.750 Y75.750 E215.80044
G1 X89.750 Y75.750 E215.93760
G1 X89.750 Y80.250 E216.02577
G1 X82.750 Y80.250 E216.16293
G0 F10500 X83.010 Y79.900
G0 X86.595 Y79.574
;TYPE:FILL
G1 F780 X89.074 Y77.095 E216.23163
G0 F10500 X89.074 Y78.467
G1 F780 X87.032 Y76.425 E216.28821
;LAYER:82
G1 F600 E214.53821
G1 Z20.775
G0 F10500 X76.750 Y76.250 Z20.925
;TYPE:WALL-INNER
G1 Z20.925
G1 F600 E216.28821
G1 F660 X76.750 Y79.750 E216.35679
G1 X70.750 Y79.750 E216.47436
G1 X70.750 Y76.250 E216.54294
G1 X76.750 Y76.250 E216.66051
G0 F10500 X77.250 Y75.750
;TYPE:WALL-OUTER
G1 F540 X77.250 Y80.250 E216.74868
G1 X70.250 Y80.250 E216.88584
G1 X70.250 Y75.750 E216.97402
G1 X77.250 Y75.750 E217.11118
G0 F10500 X76.900 Y76.010
G0 X75.603 Y76.424
;TYPE:FILL
G1 F780 X72.453 Y79.574 E217.19846
G0 F10500 X72.889 Y76.424
G1 F780 X76.038 Y79.574 E217.28574
G1 F600 E215.53574
G1 Z21.025
G0 F10500 X83.250 Y79.750
;TYPE:WALL-INNER
G1 Z20.925
G1 F600 E217.28574
G1 F660 X83.250 Y76.250 E217.35432
G1 X89.250 Y76.250 E217.47188
G1 X89.250 Y79.750 E217.54046
G1 X83.250 Y79.750 E217.65803
G0 F10500 X82.750 Y80.250
;TYPE:WALL-OUTER
G1 F540 X82.750 Y75.750 E217.74621
G1 X89.750 Y75.750 E217.88337
G1 X89.750 Y80.250 E217.97154
G1 X82.750 Y80.250 E218.10870
G0 F10500 X83.010 Y79.900
G0 X86.595 Y79.574
;TYPE:FILL
G1 F780 X89.074 Y77.095 E218.17739
G0 F10500 X89.074 Y78.467
G1 F780 X87.032 Y76.425 E218.23398
;LAYER:83
G1 F600 E216.48398
G1 Z21.025
G0 F10500 X76.750 Y76.250 Z21.175
;TYPE:WALL-INNER
G1 Z21.175
G1 F600 E218.23398
G1 F660 X76.750 Y79.750 E218.30256
G1 X70.750 Y79.750 E218.42013
G1 X70.750 Y76.250 E218.48871
G1 X76.750 Y76.250 E218.60627
G0 F10500 X77.250 Y75.750
;TYPE:WALL-OUTER
G1 F540 X77.250 Y80.250 E218.69445
G1 X70.250 Y80.250 E218.83161
G1 X70.250 Y75.750 E218.91978
G1 X77.250 Y75.750 E219.05694
G0 F10500 X76.900 Y76.010
G0 X75.603 Y76.424
;TYPE:FILL
G1 F780 X72.453 Y79.574 E219.14423
G0 F10500 X72.889 Y76.424
G1 F780 X76.038 Y79.574 E219.23150
G1 F600 E217.48150
G1 Z21.275
G0 F10500 X83.250 Y79.750
;TYPE:WALL-INNER
G1 Z21.175
G1 F600 E219.23150
G1 F660 X83.250 Y76.250 E219.30008
G1 X89.250 Y76.250 E219.41765
G1 X89.250 Y79.750 E219.48623
G1 X83.250 Y79.750 E219.60380
G0 F10500 X82.750 Y80.250
;TYPE:WALL-OUTER
G1 F540 X82.750 Y75.750 E219.69197
G1 X89.750 Y75.750 E219.82913
G1 X89.750 Y80.250 E219.91731
G1 X82.750 Y80.250 E220.05447
G0 F10500 X83.010 Y79.900
G0 X86.595 Y79.574
;TYPE:FILL
G1 F780 X89.074 Y77.095 E220.12316
G0 F10500 X89.074 Y78.467
G1 F780 X87.032 Y76.425 E220.17975
;LAYER:84
G1 F600 E218.42975
G1 Z21.275
G0 F10500 X76.750 Y76.250 Z21.425
;TYPE:WALL-INNER
G1 Z21.425
G1 F600 E220.17975
G1 F660 X76.750 Y79.750 E220.24833
G1 X70.750 Y79.750 E220.36589
G1 X70.750 Y76.250 E220.43447
G1 X76.750 Y76.250 E220.55204
G0 F10500 X77.250 Y75.750
;TYPE:WALL-OUTER
G1 F540 X77.250 Y80.250 E220.64021
G1 X70.250 Y80.250 E220.77737
G1 X70.250 Y75.750 E220.86555
G1 X77.250 Y75.750 E221.00271
G0 F10500 X76.900 Y76.010
G0 X75.603 Y76.424
;TYPE:FILL
G1 F780 X72.453 Y79.574 E221.09000
G0 F10500 X72.889 Y76.424
G1 F780 X76.038 Y79.574 E221.17727
G1 F600 E219.42727
G1 Z21.525
G0 F10500 X83.250 Y79.750
;TYPE:WALL-INNER
G1 Z21.425
G1 F600 E221.17727
G1 F660 X83.250 Y76.250 E221.24585
G1 X89.250 Y76.250 E221.36342
G1 X89.250 Y79.750 E221.43200
G1 X83.250 Y79.750 E221.54956
G0 F10500 X82.750 Y80.250
;TYPE:WALL-OUTER
G1 F540 X82.750 Y75.750 E221.63774
G1 X89.750 Y75.750 E221.77490
G1 X89.750 Y80.250 E221.86307
G1 X82.750 Y80.250 E222.00023
G0 F10500 X83.010 Y79.900
G0 X86.595 Y79.574
;TYPE:FILL
G1 F780 X89.074 Y77.095 E222.06893
G0 F10500 X89.074 Y78.467
G1 F780 X87.032 Y76.425 E222.12551
;LAYER:85
G1 F600 E220.37551
G1 Z21.525
G0 F10500 X76.750 Y76.250 Z21.675
;TYPE:WALL-INNER
G1 Z21.675
G1 F600 E222.12551
G1 F660 X76.750 Y79.750 E222.19409
G1 X70.750 Y79.750 E222.31166
G1 X70.750 Y76.250 E222.38024
G1 X76.750 Y76.250 E222.49780
G0 F10500 X77.250 Y75.750
;TYPE:WALL-OUTER
G1 F540 X77.250 Y80.250 E222.58598
G1 X70.250 Y80.250 E222.72314
G1 X70.250 Y75.750 E222.81131
G1 X77.250 Y75.750 E222.94847
G0 F10500 X76.900 Y76.010
G0 X75.603 Y76.424
;TYPE:FILL
G1 F780 X72.453 Y79.574 E223.03576
G0 F10500 X72.889 Y76.424
G1 F780 X76.038 Y79.574 E223.12304
G1 F600 E221.37304
G1 Z21.775
G0 F10500 X83.250 Y79.750
;TYPE:WALL-INNER
G1 Z21.675
G1 F600 E223.12304
G1 F660 X83.250 Y76.250 E223.19162
G1 X89.250 Y76.250 E223.30918
G1 X89.250 Y79.750 E223.37776
G1 X83.250 Y79.750 E223.49533
G0 F10500 X82.750 Y80.250
;TYPE:WALL-OUTER
G1 F540 X82.750 Y75.750 E223.58350
G1 X89.750 Y75.750 E223.72066
G1 X89.750 Y80.250 E223.80884
G1 X82.750 Y80.250 E223.94600
G0 F10500 X83.010 Y79.900
G0 X86.595 Y79.574
;TYPE:FILL
G1 F780 X89.074 Y77.095 E224.01469
G0 F10500 X89.074 Y78.467
G1 F780 X87.032 Y76.425 E224.07128
;LAYER:86
G1 F600 E222.32128
G1 Z21.775
G0 F10500 X76.750 Y76.250 Z21.925
;TYPE:WALL-INNER
G1 Z21.925
G1 F600 E224.07128
G1 F660 X76.750 Y79.750 E224.13986
G1 X70.750 Y79.750 E224.25742
G1 X70.750 Y76.250 E224.32600
G1 X76.750 Y76.250 E224.44357
G0 F10500 X77.250 Y75.750
;TYPE:WALL-OUTER
G1 F540 X77.250 Y80.250 E224.53174
G1 X70.250 Y80.250 E224.66890
G1 X70.250 Y75.750 E224.75708
G1 X77.250 Y75.750 E224.89424
G0 F10500 X76.900 Y76.010
G0 X75.603 Y76.424
;TYPE:FILL
G1 F780 X72.453 Y79.574 E224.98153
G0 F10500 X72.889 Y76.424
G1 F780 X76.038 Y79.574 E225.06880
G1 F600 E223.31880
G1 Z22.025
G0 F10500 X83.250 Y79.750
;TYPE:WALL-INNER
G1 Z21.925
G1 F600 E225.06880
G1 F660 X83.250 Y76.250 E225.13738
G1 X89.250 Y76.250 E225.25495
G1 X89.250 Y79.750 E225.32353
G1 X83.250 Y79.750 E225.44109
G0 F10500 X82.750 Y80.250
;TYPE:WALL-OUTER
G1 F540 X82.750 Y75.750 E225.52927
G1 X89.750 Y75.750 E225.66643
G1 X89.750 Y80.250 E225.75460
G1 X82.750 Y80.250 E225.89176
G0 F10500 X83.010 Y79.900
G0 X86.595 Y79.574
;TYPE:FILL
G1 F780 X89.074 Y77.095 E225.96046
G0 F10500 X89.074 Y78.467
G1 F780 X87.032 Y76.425 E226.01704
;LAYER:87
G1 F600 E224.26704
G1 Z22.025
G0 F10500 X76.750 Y76.250 Z22.175
;TYPE:WALL-INNER
G1 Z22.175
G1 F600 E226.01704
G1 F660 X76.750 Y79.750 E226.08562
G1 X70.750 Y79.750 E226.20319
G1 X70.750 Y76.250 E226.27177
G1 X76.750 Y76.250 E226.38934
G0 F10500 X77.250 Y75.750
;TYPE:WALL-OUTER
G1 F540 X77.250 Y80.250 E226.47751
G1 X70.250 Y80.250 E226.61467
G1 X70.250 Y75.750 E226.70285
G1 X77.250 Y75.750 E226.84001
G0 F10500 X76.900 Y76.010
G0 X75.603 Y76.424
;TYPE:FILL
G1 F780 X72.453 Y79.574 E226.92729
G0 F10500 X72.889 Y76.424
G1 F780 X76.038 Y79.574 E227.01457
G1 F600 E225.26457
G1 Z22.275
G0 F10500 X83.250 Y79.750
;TYPE:WALL-INNER
G1 Z22.175
G1 F600 E227.01457
G1 F660 X83.250 Y76.250 E227.08315
G1 X89.250 Y76.250 E227.20071
G1 X89.250 Y79.750 E227.26929
G1 X83.250 Y79.750 E227.38686
G0 F10500 X82.750 Y80.250
;TYPE:WALL-OUTER
G1 F540 X82.750 Y75.750 E227.47503
G1 X89.750 Y75.750 E227.61220
G1 X89.750 Y80.250 E227.70037
G1 X82.750 Y80.250 E227.83753
G0 F10500 X83.010 Y79.900
G0 X86.595 Y79.574
;TYPE:FILL
G1 F780 X89.074 Y77.095 E227.90622
G0 F10500 X89.074 Y78.467
G1 F780 X87.032 Y76.425 E227.96281
;LAYER:88
G1 F600 E226.21281
G1 Z22.275
G0 F10500 X76.750 Y76.250 Z22.425
;TYPE:WALL-INNER
G1 Z22.425
G1 F600 E227.96281
G1 F660 X76.750 Y79.750 E228.03139
G1 X70.750 Y79.750 E228.14896
G1 X70.750 Y76.250 E228.21754
G1 X76.750 Y76.250 E228.33510
G0 F10500 X77.250 Y75.750
;TYPE:WALL-OUTER
G1 F540 X77.250 Y80.250 E228.42328
G1 X70.250 Y80.250 E228.56044
G1 X70.250 Y75.750 E228.64861
G1 X77.250 Y75.750 E228.78577
G0 F10500 X76.900 Y76.010
G0 X75.603 Y76.424
;TYPE:FILL
G1 F780 X72.453 Y79.574 E228.87306
G0 F10500 X72.889 Y76.424
G1 F780 X76.038 Y79.574 E228.96033
G1 F600 E227.21033
G1 Z22.525
G0 F10500 X83.250 Y79.750
;TYPE:WALL-INNER
G1 Z22.425
G1 F600 E228.96033
G1 F660 X83.250 Y76.250 E229.02891
G1 X89.250 Y76.250 E229.14648
G1 X89.250 Y79.750 E229.21506
G1 X83.250 Y79.750 E229.33263
G0 F10500 X82.750 Y80.250
;TYPE:WALL-OUTER
G1 F540 X82.750 Y75.750 E229.42080
G1 X89.750 Y75.750 E229.55796
G1 X89.750 Y80.250 E229.64614
G1 X82.750 Y80.250 E229.78330
G0 F10500 X83.010 Y79.900
G0 X86.595 Y79.574
;TYPE:FILL
G1 F780 X89.074 Y77.095 E229.85199
G0 F10500 X89.074 Y78.467
G1 F780 X87.032 Y76.425 E229.90858
;LAYER:89
G1 F600 E228.15858
G1 Z22.525
G0 F10500 X76.750 Y76.250 Z22.675
;TYPE:WALL-INNER
G1 Z22.675
G1 F600 E229.90858
G1 F660 X76.750 Y79.750 E229.97716
G1 X70.750 Y79.750 E230.09472
G1 X70.750 Y76.250 E230.16330
G1 X76.750 Y76.250 E230.28087
G0 F10500 X77.250 Y75.750
;TYPE:WALL-OUTER
G1 F540 X77.250 Y80.250 E230.36904
G1 X70.250 Y80.250 E230.50620
G1 X70.250 Y75.750 E230.59438
G1 X77.250 Y75.750 E230.73154
G0 F10500 X76.900 Y76.010
G0 X75.603 Y76.424
;TYPE:FILL
G1 F780 X72.453 Y79.574 E230.81883
G0 F10500 X72.889 Y76.424
G1 F780 X76.038 Y79.574 E230.90610
G1 F600 E229.15610
G1 Z22.775
G0 F10500 X83.250 Y79.750
;TYPE:WALL-INNER
G1 Z22.675
G1 F600 E230.90610
G1 F660 X83.250 Y76.250 E230.97468
G1 X89.250 Y76.250 E231.09225
G1 X89.250 Y79.750 E231.16083
G1 X83.250 Y79.750 E231.27839
G0 F10500 X82.750 Y80.250
;TYPE:WALL-OUTER
G1 F540 X82.750 Y75.750 E231.36657
G1 X89.750 Y75.750 E231.50373
G1 X89.750 Y80.250 E231.59190
G1 X82.750 Y80.250 E231.72906
G0 F10500 X83.010 Y79.900
G0 X86.595 Y79.574
;TYPE:FILL
G1 F780 X89.074 Y77.095 E231.79776
G0 F10500 X89.074 Y78.467
G1 F780 X87.032 Y76.425 E231.85434
;LAYER:90
G1 F600 E230.10434
G1 Z22.775
G0 F10500 X76.750 Y76.250 Z22.925
;TYPE:WALL-INNER
G1 Z22.925
G1 F600 E231.85434
G1 F660 X76.750 Y79.750 E231.92292
G1 X70.750 Y79.750 E232.04049
G1 X70.750 Y76.250 E232.10907
G1 X76.750 Y76.250 E232.22663
G0 F10500 X77.250 Y75.750
;TYPE:WALL-OUTER
G1 F540 X77.250 Y80.250 E232.31481
G1 X70.250 Y80.250 E232.45197
G1 X70.250 Y75.750 E232.54014
G1 X77.250 Y75.750 E232.67730
G0 F10500 X76.900 Y76.010
G0 X75.603 Y76.424
;TYPE:FILL
G1 F780 X72.453 Y79.574 E232.76459
G0 F10500 X72.889 Y76.424
G1 F780 X76.038 Y79.574 E232.85187
G1 F600 E231.10187
G1 Z23.025
G0 F10500 X83.250 Y79.750
;TYPE:WALL-INNER
G1 Z22.925
G1 F600 E232.85187
G1 F660 X83.250 Y76.250 E232.92045
G1 X89.250 Y76.250 E233.03801
G1 X89.250 Y79.750 E233.10659
G1 X83.250 Y79.750 E233.22416
G0 F10500 X82.750 Y80.250
;TYPE:WALL-OUTER
G1 F540 X82.750 Y75.750 E233.31233
G1 X89.750 Y75.750 E233.44949
G1 X89.750 Y80.250 E233.53767
G1 X82.750 Y80.250 E233.67483
G0 F10500 X83.010 Y79.900
G0 X86.595 Y79.574
;TYPE:FILL
G1 F780 X89.074 Y77.095 E233.74352
G0 F10500 X89.074 Y78.467
G1 F780 X87.032 Y76.425 E233.80011
;LAYER:91
G1 F600 E232.05011
G1 Z23.025
G0 F10500 X76.750 Y76.250 Z23.175
;TYPE:WALL-INNER
G1 Z23.175
G1 F600 E233.80011
G1 F660 X76.750 Y79.750 E233.86869
G1 X70.750 Y79.750 E233.98625
G1 X70.750 Y76.250 E234.05483
G1 X76.750 Y76.250 E234.17240
G0 F10500 X77.250 Y75.750
;TYPE:WALL-OUTER
G1 F540 X77.250 Y80.250 E234.26057
G1 X70.250 Y80.250 E234.39773
G1 X70.250 Y75.750 E234.48591
G1 X77.250 Y75.750 E234.62307
