;This Gcode has been generated specifically for the LulzBot Mini
;Basic settings: Layer height: 0.25 Walls: 1 Fill: 20
;Filament Diameter: 2.85
;Nozzle Size: 0.5
G26                          ; clear potential 'probe fail' condition
G21                          ; metric values
G90                          ; absolute positioning
M82                          ; set extruder to absolute mode
M107                         ; start with the fan off
G92 E0                       ; set extruder position to 0
M140 S60; get bed heating up
G28                          ; home all
M109 R140                    ; set to cleaning temp and wait
G1 Z150 E-30 F75             ; suck up XXmm of filament
M109 R140                    ; heat up rest of way
G1 X45 Y174 F11520           ; move behind scraper
G1 Z0  F1200                 ; CRITICAL: set Z to height of top of scraper
G1 X45 Y174 Z-.5 F4000       ; wiping ; plunge into wipe pad
G1 X55 Y172 Z-.5 F4000       ; wiping
G1 X45 Y174 Z0 F4000         ; wiping
G1 X55 Y172 F4000            ; wiping
G1 X45 Y174 F4000            ; wiping
G1 X55 Y172 F4000            ; wiping
G1 X45 Y174 F4000            ; wiping
G1 X55 Y172 F4000            ; wiping
G1 X60 Y174 F4000            ; wiping
G1 X80 Y172 F4000            ; wiping
G1 X60 Y174 F4000            ; wiping
G1 X80 Y172 F4000            ; wiping
G1 X60 Y174 F4000            ; wiping
G1 X90 Y172 F4000            ; wiping
G1 X80 Y174 F4000            ; wiping
G1 X100 Y172 F4000           ; wiping
G1 X80 Y174 F4000            ; wiping
G1 X100 Y172 F4000           ; wiping
G1 X80 Y174 F4000            ; wiping
G1 X100 Y172 F4000           ; wiping
G1 X110 Y174 F4000           ; wiping
G1 X100 Y172 F4000           ; wiping
G1 X110 Y174 F4000           ; wiping
G1 X100 Y172 F4000           ; wiping
G1 X110 Y174 F4000           ; wiping
G1 X115 Y172 Z-0.5 F1000     ; wipe slower and bury noz in cleanish area
G1 Z10                       ; raise z
G28 X0 Y0                    ; home x and y
M109 R140                    ; set to probing temp
M204 S300                    ; Set probing acceleration
G29                          ; Probe
M204 S2000                   ; Restore standard acceleration
G1 X5 Y15 Z10 F5000          ; get out the way
G4 S1                        ; pause
M400                         ; clear buffer
M109 R205    ; set extruder temp and wait
G4 S15                       ; wait for bed to temp up
G1 Z2 E0 F75                 ; extrude filament back into nozzle
M140 S60; get bed temping up during first layer

;Layer count: 27
;LAYER:0
M107
G0 F10500 X72.489 Y69.388 Z0.425
;TYPE:SKIRT
G1 F900 X87.511 Y69.388 E0.62549
G1 X87.511 Y86.612 E1.34266
G1 X72.489 Y86.612 E1.96814
G1 X72.489 Y69.388 E2.68531
G0 F10500 X73.114 Y70.013
G1 F900 X86.886 Y70.013 E3.25875
G1 X86.886 Y85.987 E3.92388
G1 X73.114 Y85.987 E4.49732
G1 X73.114 Y70.013 E5.16244
G0 F10500 X73.739 Y70.638
G1 F900 X86.261 Y70.638 E5.68383
G1 X86.261 Y85.362 E6.29691
G1 X73.739 Y85.362 E6.81830
G1 X73.739 Y70.638 E7.43137
G0 F10500 X74.364 Y71.263
G1 F900 X85.636 Y71.263 E7.90072
G1 X85.636 Y84.737 E8.46175
G1 X74.364 Y84.737 E8.93109
G1 X74.364 Y71.263 E9.49212
G0 F10500 X74.989 Y71.888
G1 F900 X85.011 Y71.888 E9.90942
G1 X85.011 Y84.112 E10.41840
G1 X74.989 Y84.112 E10.83569
G1 X74.989 Y71.888 E11.34468
G1 F600 E9.59468
G1 Z0.525
G0 F10500 X79.238 Y76.137
;TYPE:WALL-INNER
G1 Z0.425
G1 F600 E11.34468
G1 F900 X80.762 Y76.137 E11.40813
G1 X80.762 Y79.863 E11.56328
G1 X79.238 Y79.863 E11.62673
G1 X79.238 Y76.137 E11.78187
G0 F10500 X78.613 Y75.512
;TYPE:WALL-OUTER
G1 F900 X81.387 Y75.512 E11.89738
G1 X81.387 Y80.488 E12.10457
G1 X78.613 Y80.488 E12.22007
G1 X78.613 Y75.512 E12.42726
G0 F10500 X79.026 Y75.835
G0 X79.456 Y77.688
;TYPE:FILL
G1 F900 X80.542 Y78.774 E12.49121
G0 F10500 X80.542 Y78.333
;TYPE:SKIN
G1 F900 X79.456 Y77.247 E12.55516
G0 F10500 X79.456 Y78.131
G1 F900 X80.542 Y79.217 E12.61911
G0 F10500 X80.084 Y79.643
G1 F900 X79.456 Y79.014 E12.65612
G0 F10500 X80.542 Y77.449
G1 F900 X79.456 Y76.363 E12.72007
G0 F10500 X80.332 Y76.356
G1 F900 X80.542 Y76.565 E12.73240
;LAYER:1
M106 S247
G0 F10500 X80.949 Y75.950 Z0.675
;TYPE:WALL-INNER
G1 F600 X80.949 Y80.050 E12.81274
G1 X79.051 Y80.050 E12.84993
G1 X79.051 Y75.950 E12.93027
G1 X80.949 Y75.950 E12.96746
G0 F10500 X81.449 Y75.450
;TYPE:WALL-OUTER
G1 F540 X81.449 Y80.550 E13.06739
G1 X78.551 Y80.550 E13.12417
G1 X78.551 Y75.450 E13.22410
G1 X81.449 Y75.450 E13.28089
G0 F10500 X80.499 Y76.124
;TYPE:SKIN
G1 F720 X79.225 Y77.398 E13.31619
G0 F10500 X79.226 Y78.104
G1 F720 X80.772 Y76.558 E13.35903
G0 F10500 X80.772 Y77.265
G1 F720 X79.226 Y78.812 E13.40189
G0 F10500 X79.226 Y79.519
G1 F720 X80.772 Y77.972 E13.44474
G0 F10500 X80.772 Y78.679
G1 F720 X79.577 Y79.874 E13.47786
G0 F10500 X79.225 Y76.691
G1 F720 X79.792 Y76.124 E13.49357
G0 F10500 X80.772 Y79.386
G1 F720 X80.284 Y79.874 E13.50709
;LAYER:2
M106 S255
G0 F10500 X80.949 Y80.050 Z0.925
;TYPE:WALL-INNER
G1 F600 X79.051 Y80.050 E13.54428
G1 X79.051 Y75.950 E13.62462
G1 X80.949 Y75.950 E13.66181
G1 X80.949 Y80.050 E13.74214
G0 F10500 X81.449 Y80.550
;TYPE:WALL-OUTER
G1 F540 X78.551 Y80.550 E13.79893
G1 X78.551 Y75.450 E13.89886
G1 X81.449 Y75.450 E13.95564
G1 X81.449 Y80.550 E14.05557
G0 F10500 X80.773 Y79.712
;TYPE:SKIN
G1 F840 X79.225 Y78.164 E14.09847
G0 F10500 X79.224 Y77.457
G1 F840 X80.773 Y79.005 E14.14138
G0 F10500 X80.773 Y78.298
G1 F840 X79.224 Y76.750 E14.18429
G0 F10500 X79.306 Y76.124
G1 F840 X80.773 Y77.591 E14.22494
G0 F10500 X80.773 Y76.884
G1 F840 X80.014 Y76.124 E14.24599
G0 F10500 X79.225 Y78.872
G1 F840 X80.227 Y79.874 E14.27375
G0 F10500 X79.520 Y79.874
G1 F840 X79.225 Y79.579 E14.28193
;LAYER:3
G0 F10500 X79.051 Y80.050 Z1.175
;TYPE:WALL-INNER
G1 F660 X79.051 Y75.950 E14.36227
G1 X80.949 Y75.950 E14.39946
G1 X80.949 Y80.050 E14.47979
G1 X79.051 Y80.050 E14.51698
G0 F10500 X78.551 Y80.550
;TYPE:WALL-OUTER
G1 F600 X78.551 Y75.450 E14.61691
G1 X81.449 Y75.450 E14.67370
G1 X81.449 Y80.550 E14.77363
G1 X78.551 Y80.550 E14.83041
G0 F10500 X79.577 Y79.874
;TYPE:SKIN
G1 F960 X80.772 Y78.679 E14.86353
G0 F10500 X80.772 Y79.386
G1 F960 X80.284 Y79.874 E14.87705
G0 F10500 X79.226 Y79.519
G1 F960 X80.772 Y77.972 E14.91990
G0 F10500 X80.772 Y77.265
G1 F960 X79.226 Y78.812 E14.96276
G0 F10500 X79.226 Y78.104
G1 F960 X80.772 Y76.558 E15.00560
G0 F10500 X80.499 Y76.124
G1 F960 X79.225 Y77.398 E15.04090
G0 F10500 X79.225 Y76.691
G1 F960 X79.792 Y76.124 E15.05661
;LAYER:4
G0 F10500 X79.051 Y75.950 Z1.425
;TYPE:WALL-INNER
G1 F660 X80.949 Y75.950 E15.09380
G1 X80.949 Y80.050 E15.17414
G1 X79.051 Y80.050 E15.21133
G1 X79.051 Y75.950 E15.29167
G0 F10500 X78.551 Y75.450
;TYPE:WALL-OUTER
G1 F540 X81.449 Y75.450 E15.34845
G1 X81.449 Y80.550 E15.44838
G1 X78.551 Y80.550 E15.50517
G1 X78.551 Y75.450 E15.60510
G0 F10500 X79.660 Y76.124
;TYPE:FILL
G1 F780 X80.773 Y77.237 E15.63594
G0 F10500 X80.772 Y78.326
G1 F780 X79.226 Y79.872 E15.67878
G0 F10500 X79.980 Y79.626
;TYPE:SKIN
G1 F960 X79.225 Y78.872 E15.69969
G0 F10500 X79.225 Y78.164
G1 F960 X80.687 Y79.626 E15.74020
G0 F10500 X80.773 Y79.005
G1 F960 X79.225 Y77.457 E15.78310
G0 F10500 X79.225 Y76.750
G1 F960 X80.773 Y78.298 E15.82599
G0 F10500 X80.773 Y77.591
G1 F960 X79.555 Y76.373 E15.85975
G0 F10500 X80.262 Y76.373
G1 F960 X80.773 Y76.884 E15.87391
;LAYER:5
G0 F10500 X80.949 Y75.950 Z1.675
;TYPE:WALL-INNER
G1 F660 X80.949 Y80.050 E15.95424
G1 X79.051 Y80.050 E15.99143
G1 X79.051 Y75.950 E16.07177
G1 X80.949 Y75.950 E16.10896
G0 F10500 X81.449 Y75.450
;TYPE:WALL-OUTER
G1 F540 X81.449 Y80.550 E16.20889
G1 X78.551 Y80.550 E16.26567
G1 X78.551 Y75.450 E16.36561
G1 X81.449 Y75.450 E16.42239
G0 F10500 X81.099 Y75.710
G0 X80.773 Y77.237
;TYPE:FILL
G1 F780 X79.660 Y76.124 E16.45323
G0 F10500 X80.772 Y78.326
G1 F780 X79.226 Y79.872 E16.49607
G0 F10500 X79.226 Y79.519
;TYPE:SKIN
G1 F960 X80.772 Y77.972 E16.53893
G0 F10500 X80.772 Y77.265
G1 F960 X79.226 Y78.812 E16.58178
G0 F10500 X79.226 Y78.104
G1 F960 X80.772 Y76.558 E16.62462
G0 F10500 X80.250 Y76.373
G1 F960 X79.226 Y77.397 E16.65300
G0 F10500 X79.226 Y76.690
G1 F960 X79.543 Y76.373 E16.66178
G0 F10500 X80.772 Y78.679
G1 F960 X79.825 Y79.626 E16.68802
G0 F10500 X80.533 Y79.626
G1 F960 X80.772 Y79.386 E16.69466
;LAYER:6
G0 F10500 X80.949 Y80.050 Z1.925
;TYPE:WALL-INNER
G1 F660 X79.051 Y80.050 E16.73185
G1 X79.051 Y75.950 E16.81219
G1 X80.949 Y75.950 E16.84938
G1 X80.949 Y80.050 E16.92971
G0 F10500 X81.449 Y80.550
;TYPE:WALL-OUTER
G1 F540 X78.551 Y80.550 E16.98650
G1 X78.551 Y75.450 E17.08643
G1 X81.449 Y75.450 E17.14321
G1 X81.449 Y80.550 E17.24314
G0 F10500 X81.099 Y80.290
G0 X79.226 Y79.872
;TYPE:FILL
G1 F780 X80.772 Y78.326 E17.28599
G0 F10500 X80.773 Y77.237
G1 F780 X79.660 Y76.124 E17.31683
G0 F10500 X79.555 Y76.373
;TYPE:SKIN
G1 F960 X80.773 Y77.591 E17.35058
G0 F10500 X80.773 Y78.298
G1 F960 X79.225 Y76.750 E17.39347
G0 F10500 X79.225 Y77.457
G1 F960 X80.773 Y79.005 E17.43637
G0 F10500 X80.687 Y79.626
G1 F960 X79.225 Y78.164 E17.47688
G0 F10500 X79.225 Y78.872
G1 F960 X79.980 Y79.626 E17.49779
G0 F10500 X80.773 Y76.884
G1 F960 X80.262 Y76.373 E17.51195
;LAYER:7
G0 F10500 X80.949 Y76.448 Z2.175
;TYPE:WALL-INNER
G1 F660 X79.051 Y76.448 E17.54914
G1 X79.051 Y75.950 E17.55890
G1 X80.949 Y75.950 E17.59609
G1 X80.949 Y76.448 E17.60585
G0 F10500 X81.449 Y76.948
;TYPE:WALL-OUTER
G1 F540 X78.551 Y76.948 E17.66263
G1 X78.551 Y75.450 E17.69198
G1 X81.449 Y75.450 E17.74877
G1 X81.449 Y76.948 E17.77812
G1 F600 E16.02812
G1 Z2.275
G0 F10500 X80.949 Y79.552
;TYPE:WALL-INNER
G1 Z2.175
G1 F600 E17.77812
G1 F660 X80.949 Y80.050 E17.78788
G1 X79.051 Y80.050 E17.82507
G1 X79.051 Y79.552 E17.83483
G1 X80.949 Y79.552 E17.87202
G0 F10500 X81.449 Y79.052
;TYPE:WALL-OUTER
G1 F540 X81.449 Y80.550 E17.90137
G1 X78.551 Y80.550 E17.95815
G1 X78.551 Y79.052 E17.98751
G1 X81.449 Y79.052 E18.04429
;LAYER:8
G1 F600 E16.29429
G1 Z2.275
G0 F10500 X80.949 Y76.448 Z2.425
;TYPE:WALL-INNER
G1 Z2.425
G1 F600 E18.04429
G1 F660 X79.051 Y76.448 E18.08148
G1 X79.051 Y75.950 E18.09124
G1 X80.949 Y75.950 E18.12843
G1 X80.949 Y76.448 E18.13819
G0 F10500 X81.449 Y76.948
;TYPE:WALL-OUTER
G1 F540 X78.551 Y76.948 E18.19497
G1 X78.551 Y75.450 E18.22432
G1 X81.449 Y75.450 E18.28111
G1 X81.449 Y76.948 E18.31046
G1 F600 E16.56046
G1 Z2.525
G0 F10500 X80.949 Y79.552
;TYPE:WALL-INNER
G1 Z2.425
G1 F600 E18.31046
G1 F660 X80.949 Y80.050 E18.32022
G1 X79.051 Y80.050 E18.35741
G1 X79.051 Y79.552 E18.36717
G1 X80.949 Y79.552 E18.40436
G0 F10500 X81.449 Y79.052
;TYPE:WALL-OUTER
G1 F540 X81.449 Y80.550 E18.43371
G1 X78.551 Y80.550 E18.49049
G1 X78.551 Y79.052 E18.51984
G1 X81.449 Y79.052 E18.57663
;LAYER:9
G1 F600 E16.82663
G1 Z2.525
G0 F10500 X80.949 Y76.448 Z2.675
;TYPE:WALL-INNER
G1 Z2.675
G1 F600 E18.57663
G1 F660 X79.051 Y76.448 E18.61382
G1 X79.051 Y75.950 E18.62358
G1 X80.949 Y75.950 E18.66077
G1 X80.949 Y76.448 E18.67052
G0 F10500 X81.449 Y76.948
;TYPE:WALL-OUTER
G1 F540 X78.551 Y76.948 E18.72731
G1 X78.551 Y75.450 E18.75666
G1 X81.449 Y75.450 E18.81345
G1 X81.449 Y76.948 E18.84280
G1 F600 E17.09280
G1 Z2.775
G0 F10500 X80.949 Y79.552
;TYPE:WALL-INNER
G1 Z2.675
G1 F600 E18.84280
G1 F660 X80.949 Y80.050 E18.85256
G1 X79.051 Y80.050 E18.88975
G1 X79.051 Y79.552 E18.89950
G1 X80.949 Y79.552 E18.93669
G0 F10500 X81.449 Y79.052
;TYPE:WALL-OUTER
G1 F540 X81.449 Y80.550 E18.96605
G1 X78.551 Y80.550 E19.02283
G1 X78.551 Y79.052 E19.05218
G1 X81.449 Y79.052 E19.10897
;LAYER:10
G1 F600 E17.35897
G1 Z2.775
G0 F10500 X80.949 Y76.448 Z2.925
;TYPE:WALL-INNER
G1 Z2.925
G1 F600 E19.10897
G1 F660 X79.051 Y76.448 E19.14616
G1 X79.051 Y75.950 E19.15592
G1 X80.949 Y75.950 E19.19311
G1 X80.949 Y76.448 E19.20286
G0 F10500 X81.449 Y76.948
;TYPE:WALL-OUTER
G1 F540 X78.551 Y76.948 E19.25965
G1 X78.551 Y75.450 E19.28900
G1 X81.449 Y75.450 E19.34578
G1 X81.449 Y76.948 E19.37514
G1 F600 E17.62514
G1 Z3.025
G0 F10500 X80.949 Y79.552
;TYPE:WALL-INNER
G1 Z2.925
G1 F600 E19.37514
G1 F660 X80.949 Y80.050 E19.38489
G1 X79.051 Y80.050 E19.42208
G1 X79.051 Y79.552 E19.43184
G1 X80.949 Y79.552 E19.46903
G0 F10500 X81.449 Y79.052
;TYPE:WALL-OUTER
G1 F540 X81.449 Y80.550 E19.49838
G1 X78.551 Y80.550 E19.55517
G1 X78.551 Y79.052 E19.58452
G1 X81.449 Y79.052 E19.64131
;LAYER:11
G1 F600 E17.89131
G1 Z3.025
G0 F10500 X80.949 Y76.448 Z3.175
;TYPE:WALL-INNER
G1 Z3.175
G1 F600 E19.64131
G1 F660 X79.051 Y76.448 E19.67850
G1 X79.051 Y75.950 E19.68825
G1 X80.949 Y75.950 E19.72544
G1 X80.949 Y76.448 E19.73520
G0 F10500 X81.449 Y76.948
;TYPE:WALL-OUTER
G1 F540 X78.551 Y76.948 E19.79199
G1 X78.551 Y75.450 E19.82134
G1 X81.449 Y75.450 E19.87812
G1 X81.449 Y76.948 E19.90748
G1 F600 E18.15748
G1 Z3.275
G0 F10500 X80.949 Y79.552
;TYPE:WALL-INNER
G1 Z3.175
G1 F600 E19.90748
G1 F660 X80.949 Y80.050 E19.91723
G1 X79.051 Y80.050 E19.95442
G1 X79.051 Y79.552 E19.96418
G1 X80.949 Y79.552 E20.00137
G0 F10500 X81.449 Y79.052
;TYPE:WALL-OUTER
G1 F540 X81.449 Y80.550 E20.03072
G1 X78.551 Y80.550 E20.08751
G1 X78.551 Y79.052 E20.11686
G1 X81.449 Y79.052 E20.17364
;LAYER:12
G1 F600 E18.42364
G1 Z3.275
G0 F10500 X80.949 Y76.448 Z3.425
;TYPE:WALL-INNER
G1 Z3.425
G1 F600 E20.17364
G1 F660 X79.051 Y76.448 E20.21083
G1 X79.051 Y75.950 E20.22059
G1 X80.949 Y75.950 E20.25778
G1 X80.949 Y76.448 E20.26754
G0 F10500 X81.449 Y76.948
;TYPE:WALL-OUTER
G1 F540 X78.551 Y76.948 E20.32433
G1 X78.551 Y75.450 E20.35368
G1 X81.449 Y75.450 E20.41046
G1 X81.449 Y76.948 E20.43981
G1 F600 E18.68981
G1 Z3.525
G0 F10500 X80.949 Y79.552
;TYPE:WALL-INNER
G1 Z3.425
G1 F600 E20.43981
G1 F660 X80.949 Y80.050 E20.44957
G1 X79.051 Y80.050 E20.48676
G1 X79.051 Y79.552 E20.49652
G1 X80.949 Y79.552 E20.53371
G0 F10500 X81.449 Y79.052
;TYPE:WALL-OUTER
G1 F540 X81.449 Y80.550 E20.56306
G1 X78.551 Y80.550 E20.61985
G1 X78.551 Y79.052 E20.64920
G1 X81.449 Y79.052 E20.70598
;LAYER:13
G1 F600 E18.95598
G1 Z3.525
G0 F10500 X80.949 Y76.448 Z3.675
;TYPE:WALL-INNER
G1 Z3.675
G1 F600 E20.70598
G1 F660 X79.051 Y76.448 E20.74317
G1 X79.051 Y75.950 E20.75293
G1 X80.949 Y75.950 E20.79012
G1 X80.949 Y76.448 E20.79988
G0 F10500 X81.449 Y76.948
;TYPE:WALL-OUTER
G1 F540 X78.551 Y76.948 E20.85666
G1 X78.551 Y75.450 E20.88602
G1 X81.449 Y75.450 E20.94280
G1 X81.449 Y76.948 E20.97215
G1 F600 E19.22215
G1 Z3.775
G0 F10500 X80.949 Y79.552
;TYPE:WALL-INNER
G1 Z3.675
G1 F600 E20.97215
G1 F660 X80.949 Y80.050 E20.98191
G1 X79.051 Y80.050 E21.01910
G1 X79.051 Y79.552 E21.02886
G1 X80.949 Y79.552 E21.06605
G0 F10500 X81.449 Y79.052
;TYPE:WALL-OUTER
G1 F540 X81.449 Y80.550 E21.09540
G1 X78.551 Y80.550 E21.15219
G1 X78.551 Y79.052 E21.18154
G1 X81.449 Y79.052 E21.23832
;LAYER:14
G1 F600 E19.48832
G1 Z3.775
G0 F10500 X80.949 Y76.448 Z3.925
;TYPE:WALL-INNER
G1 Z3.925
G1 F600 E21.23832
G1 F660 X79.051 Y76.448 E21.27551
G1 X79.051 Y75.950 E21.28527
G1 X80.949 Y75.950 E21.32246
G1 X80.949 Y76.448 E21.33222
G0 F10500 X81.449 Y76.948
;TYPE:WALL-OUTER
G1 F540 X78.551 Y76.948 E21.38900
G1 X78.551 Y75.450 E21.41835
G1 X81.449 Y75.450 E21.47514
G1 X81.449 Y76.948 E21.50449
G1 F600 E19.75449
G1 Z4.025
G0 F10500 X80.949 Y79.552
;TYPE:WALL-INNER
G1 Z3.925
G1 F600 E21.50449
G1 F660 X80.949 Y80.050 E21.51425
G1 X79.051 Y80.050 E21.55144
G1 X79.051 Y79.552 E21.56120
G1 X80.949 Y79.552 E21.59839
G0 F10500 X81.449 Y79.052
;TYPE:WALL-OUTER
G1 F540 X81.449 Y80.550 E21.62774
G1 X78.551 Y80.550 E21.68452
G1 X78.551 Y79.052 E21.71388
G1 X81.449 Y79.052 E21.77066
;LAYER:15
G1 F600 E20.02066
G1 Z4.025
G0 F10500 X80.949 Y76.448 Z4.175
;TYPE:WALL-INNER
G1 Z4.175
G1 F600 E21.77066
G1 F660 X79.051 Y76.448 E21.80785
G1 X79.051 Y75.950 E21.81761
G1 X80.949 Y75.950 E21.85480
G1 X80.949 Y76.448 E21.86456
G0 F10500 X81.449 Y76.948
;TYPE:WALL-OUTER
G1 F540 X78.551 Y76.948 E21.92134
G1 X78.551 Y75.450 E21.95069
G1 X81.449 Y75.450 E22.00748
G1 X81.449 Y76.948 E22.03683
G1 F600 E20.28683
G1 Z4.275
G0 F10500 X80.949 Y79.552
;TYPE:WALL-INNER
G1 Z4.175
G1 F600 E22.03683
G1 F660 X80.949 Y80.050 E22.04659
G1 X79.051 Y80.050 E22.08378
G1 X79.051 Y79.552 E22.09354
G1 X80.949 Y79.552 E22.13073
G0 F10500 X81.449 Y79.052
;TYPE:WALL-OUTER
G1 F540 X81.449 Y80.550 E22.16008
G1 X78.551 Y80.550 E22.21686
G1 X78.551 Y79.052 E22.24622
G1 X81.449 Y79.052 E22.30300
;LAYER:16
G1 F600 E20.55300
G1 Z4.275
G0 F10500 X80.949 Y76.448 Z4.425
;TYPE:WALL-INNER
G1 Z4.425
G1 F600 E22.30300
G1 F660 X79.051 Y76.448 E22.34019
G1 X79.051 Y75.950 E22.34995
G1 X80.949 Y75.950 E22.38714
G1 X80.949 Y76.448 E22.39690
G0 F10500 X81.449 Y76.948
;TYPE:WALL-OUTER
G1 F540 X78.551 Y76.948 E22.45368
G1 X78.551 Y75.450 E22.48303
G1 X81.449 Y75.450 E22.53982
G1 X81.449 Y76.948 E22.56917
G1 F600 E20.81917
G1 Z4.525
G0 F10500 X80.949 Y79.552
;TYPE:WALL-INNER
G1 Z4.425
G1 F600 E22.56917
G1 F660 X80.949 Y80.050 E22.57893
G1 X79.051 Y80.050 E22.61612
G1 X79.051 Y79.552 E22.62588
G1 X80.949 Y79.552 E22.66307
G0 F10500 X81.449 Y79.052
;TYPE:WALL-OUTER
G1 F540 X81.449 Y80.550 E22.69242
G1 X78.551 Y80.550 E22.74920
G1 X78.551 Y79.052 E22.77855
G1 X81.449 Y79.052 E22.83534
;LAYER:17
G1 F600 E21.08534
G1 Z4.525
G0 F10500 X80.949 Y76.448 Z4.675
;TYPE:WALL-INNER
G1 Z4.675
G1 F600 E22.83534
G1 F660 X79.051 Y76.448 E22.87253
G1 X79.051 Y75.950 E22.88229
G1 X80.949 Y75.950 E22.91948
G1 X80.949 Y76.448 E22.92923
G0 F10500 X81.449 Y76.948
;TYPE:WALL-OUTER
G1 F540 X78.551 Y76.948 E22.98602
G1 X78.551 Y75.450 E23.01537
G1 X81.449 Y75.450 E23.07216
G1 X81.449 Y76.948 E23.10151
G1 F600 E21.35151
G1 Z4.775
G0 F10500 X80.949 Y79.552
;TYPE:WALL-INNER
G1 Z4.675
G1 F600 E23.10151
G1 F660 X80.949 Y80.050 E23.11127
G1 X79.051 Y80.050 E23.14846
G1 X79.051 Y79.552 E23.15821
G1 X80.949 Y79.552 E23.19540
G0 F10500 X81.449 Y79.052
;TYPE:WALL-OUTER
G1 F540 X81.449 Y80.550 E23.22476
G1 X78.551 Y80.550 E23.28154
G1 X78.551 Y79.052 E23.31089
G1 X81.449 Y79.052 E23.36768
;LAYER:18
G1 F600 E21.61768
G1 Z4.775
G0 F10500 X80.949 Y76.448 Z4.925
;TYPE:WALL-INNER
G1 Z4.925
G1 F600 E23.36768
G1 F660 X79.051 Y76.448 E23.40487
G1 X79.051 Y75.950 E23.41463
G1 X80.949 Y75.950 E23.45182
G1 X80.949 Y76.448 E23.46157
G0 F10500 X81.449 Y76.948
;TYPE:WALL-OUTER
G1 F540 X78.551 Y76.948 E23.51836
G1 X78.551 Y75.450 E23.54771
G1 X81.449 Y75.450 E23.60449
G1 X81.449 Y76.948 E23.63385
G1 F600 E21.88385
G1 Z5.025
G0 F10500 X80.949 Y79.552
;TYPE:WALL-INNER
G1 Z4.925
G1 F600 E23.63385
G1 F660 X80.949 Y80.050 E23.64360
G1 X79.051 Y80.050 E23.68079
G1 X79.051 Y79.552 E23.69055
G1 X80.949 Y79.552 E23.72774
G0 F10500 X81.449 Y79.052
;TYPE:WALL-OUTER
G1 F540 X81.449 Y80.550 E23.75709
G1 X78.551 Y80.550 E23.81388
G1 X78.551 Y79.052 E23.84323
G1 X81.449 Y79.052 E23.90002
;LAYER:19
G1 F600 E22.15002
G1 Z5.025
G0 F10500 X80.949 Y76.448 Z5.175
;TYPE:WALL-INNER
G1 Z5.175
G1 F600 E23.90002
G1 F660 X79.051 Y76.448 E23.93721
G1 X79.051 Y75.950 E23.94696
G1 X80.949 Y75.950 E23.98415
G1 X80.949 Y76.448 E23.99391
G0 F10500 X81.449 Y76.948
;TYPE:WALL-OUTER
G1 F540 X78.551 Y76.948 E24.05070
G1 X78.551 Y75.450 E24.08005
G1 X81.449 Y75.450 E24.13683
G1 X81.449 Y76.948 E24.16619
G1 F600 E22.41619
G1 Z5.275
G0 F10500 X80.949 Y79.552
;TYPE:WALL-INNER
G1 Z5.175
G1 F600 E24.16619
G1 F660 X80.949 Y80.050 E24.17594
G1 X79.051 Y80.050 E24.21313
G1 X79.051 Y79.552 E24.22289
G1 X80.949 Y79.552 E24.26008
G0 F10500 X81.449 Y79.052
;TYPE:WALL-OUTER
G1 F540 X81.449 Y80.550 E24.28943
G1 X78.551 Y80.550 E24.34622
G1 X78.551 Y79.052 E24.37557
G1 X81.449 Y79.052 E24.43235
;LAYER:20
G1 F600 E22.68235
G1 Z5.275
G0 F10500 X80.949 Y76.448 Z5.425
;TYPE:WALL-INNER
G1 Z5.425
G1 F600 E24.43235
G1 F660 X79.051 Y76.448 E24.46954
G1 X79.051 Y75.950 E24.47930
G1 X80.949 Y75.950 E24.51649
G1 X80.949 Y76.448 E24.52625
G0 F10500 X81.449 Y76.948
;TYPE:WALL-OUTER
G1 F540 X78.551 Y76.948 E24.58304
G1 X78.551 Y75.450 E24.61239
G1 X81.449 Y75.450 E24.66917
G1 X81.449 Y76.948 E24.69852
G1 F600 E22.94852
G1 Z5.525
G0 F10500 X80.949 Y79.552
;TYPE:WALL-INNER
G1 Z5.425
G1 F600 E24.69852
G1 F660 X80.949 Y80.050 E24.70828
G1 X79.051 Y80.050 E24.74547
G1 X79.051 Y79.552 E24.75523
G1 X80.949 Y79.552 E24.79242
G0 F10500 X81.449 Y79.052
;TYPE:WALL-OUTER
G1 F540 X81.449 Y80.550 E24.82177
G1 X78.551 Y80.550 E24.87856
G1 X78.551 Y79.052 E24.90791
G1 X81.449 Y79.052 E24.96469
;LAYER:21
G1 F600 E23.21469
G1 Z5.525
G0 F10500 X80.949 Y76.448 Z5.675
;TYPE:WALL-INNER
G1 Z5.675
G1 F600 E24.96469
G1 F660 X79.051 Y76.448 E25.00188
G1 X79.051 Y75.950 E25.01164
G1 X80.949 Y75.950 E25.04883
G1 X80.949 Y76.448 E25.05859
G0 F10500 X81.449 Y76.948
;TYPE:WALL-OUTER
G1 F540 X78.551 Y76.948 E25.11537
G1 X78.551 Y75.450 E25.14473
G1 X81.449 Y75.450 E25.20151
G1 X81.449 Y76.948 E25.23086
G1 F600 E23.48086
G1 Z5.775
G0 F10500 X80.949 Y79.552
;TYPE:WALL-INNER
G1 Z5.675
G1 F600 E25.23086
G1 F660 X80.949 Y80.050 E25.24062
G1 X79.051 Y80.050 E25.27781
G1 X79.051 Y79.552 E25.28757
G1 X80.949 Y79.552 E25.32476
G0 F10500 X81.449 Y79.052
;TYPE:WALL-OUTER
G1 F540 X81.449 Y80.550 E25.35411
G1 X78.551 Y80.550 E25.41090
G1 X78.551 Y79.052 E25.44025
G1 X81.449 Y79.052 E25.49703
;LAYER:22
G1 F600 E23.74703
G1 Z5.775
G0 F10500 X80.949 Y76.448 Z5.925
;TYPE:WALL-INNER
G1 Z5.925
G1 F600 E25.49703
G1 F660 X79.051 Y76.448 E25.53422
G1 X79.051 Y75.950 E25.54398
G1 X80.949 Y75.950 E25.58117
G1 X80.949 Y76.448 E25.59093
G0 F10500 X81.449 Y76.948
;TYPE:WALL-OUTER
G1 F540 X78.551 Y76.948 E25.64771
G1 X78.551 Y75.450 E25.67706
G1 X81.449 Y75.450 E25.73385
G1 X81.449 Y76.948 E25.76320
G1 F600 E24.01320
G1 Z6.025
G0 F10500 X80.949 Y79.552
;TYPE:WALL-INNER
G1 Z5.925
G1 F600 E25.76320
G1 F660 X80.949 Y80.050 E25.77296
G1 X79.051 Y80.050 E25.81015
G1 X79.051 Y79.552 E25.81991
G1 X80.949 Y79.552 E25.85710
G0 F10500 X81.449 Y79.052
;TYPE:WALL-OUTER
G1 F540 X81.449 Y80.550 E25.88645
G1 X78.551 Y80.550 E25.94323
G1 X78.551 Y79.052 E25.97259
G1 X81.449 Y79.052 E26.02937
;LAYER:23
G1 F600 E24.27937
G1 Z6.025
G0 F10500 X80.949 Y76.448 Z6.175
;TYPE:WALL-INNER
G1 Z6.175
G1 F600 E26.02937
G1 F660 X79.051 Y76.448 E26.06656
G1 X79.051 Y75.950 E26.07632
G1 X80.949 Y75.950 E26.11351
G1 X80.949 Y76.448 E26.12327
G0 F10500 X81.449 Y76.948
;TYPE:WALL-OUTER
G1 F540 X78.551 Y76.948 E26.18005
G1 X78.551 Y75.450 E26.20940
G1 X81.449 Y75.450 E26.26619
G1 X81.449 Y76.948 E26.29554
G1 F600 E24.54554
G1 Z6.275
G0 F10500 X80.949 Y79.552
;TYPE:WALL-INNER
G1 Z6.175
G1 F600 E26.29554
G1 F660 X80.949 Y80.050 E26.30530
G1 X79.051 Y80.050 E26.34249
G1 X79.051 Y79.552 E26.35225
G1 X80.949 Y79.552 E26.38944
G0 F10500 X81.449 Y79.052
;TYPE:WALL-OUTER
G1 F540 X81.449 Y80.550 E26.41879
G1 X78.551 Y80.550 E26.47557
G1 X78.551 Y79.052 E26.50493
G1 X81.449 Y79.052 E26.56171
;LAYER:24
G1 F600 E24.81171
G1 Z6.275
G0 F10500 X80.949 Y76.448 Z6.425
;TYPE:WALL-INNER
G1 Z6.425
G1 F600 E26.56171
G1 F660 X79.051 Y76.448 E26.59890
G1 X79.051 Y75.950 E26.60866
G1 X80.949 Y75.950 E26.64585
G1 X80.949 Y76.448 E26.65561
G0 F10500 X81.449 Y76.948
;TYPE:WALL-OUTER
G1 F540 X78.551 Y76.948 E26.71239
G1 X78.551 Y75.450 E26.74174
G1 X81.449 Y75.450 E26.79853
G1 X81.449 Y76.948 E26.82788
G1 F600 E25.07788
G1 Z6.525
G0 F10500 X80.949 Y79.552
;TYPE:WALL-INNER
G1 Z6.425
G1 F600 E26.82788
G1 F660 X80.949 Y80.050 E26.83764
G1 X79.051 Y80.050 E26.87483
G1 X79.051 Y79.552 E26.88459
G1 X80.949 Y79.552 E26.92178
G0 F10500 X81.449 Y79.052
;TYPE:WALL-OUTER
G1 F540 X81.449 Y80.550 E26.95113
G1 X78.551 Y80.550 E27.00791
G1 X78.551 Y79.052 E27.03726
G1 X81.449 Y79.052 E27.09405
;LAYER:25
G1 F600 E25.34405
G1 Z6.525
G0 F10500 X80.949 Y76.448 Z6.675
;TYPE:WALL-INNER
G1 Z6.675
G1 F600 E27.09405
G1 F660 X79.051 Y76.448 E27.13124
G1 X79.051 Y75.950 E27.14100
G1 X80.949 Y75.950 E27.17819
G1 X80.949 Y76.448 E27.18794
G0 F10500 X81.449 Y76.948
;TYPE:WALL-OUTER
G1 F540 X78.551 Y76.948 E27.24473
G1 X78.551 Y75.450 E27.27408
G1 X81.449 Y75.450 E27.33087
G1 X81.449 Y76.948 E27.36022
G1 F600 E25.61022
G1 Z6.775
G0 F10500 X80.949 Y79.552
;TYPE:WALL-INNER
G1 Z6.675
G1 F600 E27.36022
G1 F660 X80.949 Y80.050 E27.36998
G1 X79.051 Y80.050 E27.40717
G1 X79.051 Y79.552 E27.41692
G1 X80.949 Y79.552 E27.45411
G0 F10500 X81.449 Y79.052
;TYPE:WALL-OUTER
G1 F540 X81.449 Y80.550 E27.48347
G1 X78.551 Y80.550 E27.54025
G1 X78.551 Y79.052 E27.56960
G1 X81.449 Y79.052 E27.62639
;LAYER:26
G1 F600 E25.87639
G1 Z6.775
G0 F10500 X80.949 Y76.448 Z6.925
;TYPE:WALL-INNER
G1 Z6.925
G1 F600 E27.62639
G1 F660 X79.051 Y76.448 E27.66358
G1 X79.051 Y75.950 E27.67334
G1 X80.949 Y75.950 E27.71053
G1 X80.949 Y76.448 E27.72028
G0 F10500 X81.449 Y76.948
;TYPE:WALL-OUTER
G1 F540 X78.551 Y76.948 E27.77707
G1 X78.551 Y75.450 E27.80642
G1 X81.449 Y75.450 E27.86320
G1 X81.449 Y76.948 E27.89256
G1 F600 E26.14256
G1 Z7.025
G0 F10500 X80.949 Y79.552
;TYPE:WALL-INNER
G1 Z6.925
G1 F600 E27.89256
G1 F660 X80.949 Y80.050 E27.90231
G1 X79.051 Y80.050 E27.93950
G1 X79.051 Y79.552 E27.94926
G1 X80.949 Y79.552 E27.98645
G0 F10500 X81.449 Y79.052
;TYPE:WALL-OUTER
G1 F540 X81.449 Y80.550 E28.01580
G1 X78.551 Y80.550 E28.07259
G1 X78.551 Y79.052 E28.10194
G1 X81.449 Y79.052 E28.15873
M107
G1 F600 E26.40873
G1 Z7.025
G0 F10500 X81.449 Y79.052 Z12.000
M400
M104 S0                                      ; hotend off
M140 S0                                      ; heated bed heater off (if you have it)
M107                                         ; fans off
G92 E5                                       ; set extruder to 5mm for retract on print end
G1 X5 Y5 Z158 E0 F10000                      ; move to cooling positioning
M190 R50                                     ; wait for bed to cool
M140 S0                                      ;
G1 X145 F1000                                ; move to cooling positioning
G1 Y175 F1000                                ; move to cooling positioning
M84                                          ; steppers off
G90                                          ; absolute positioning
;CURA_PROFILE_STRING:eNrtWltv20YWfhWE/RHz1haNtSQlxnYIPjSpbRSwiyD2Yl2/ECNyJM2GIglyaPkC/ff9zgwpkTKlyrvZbtIqD455dG5zrt/QivmjyIOZkNOZ8q2B4/YWPI4DNZPh50QUhW/3cqFyHiqZJoFI+DgW/k1eil6RxjIKYi3fZJ9IyEciKaR69B2rl4lczoUC11hM0lwEMiEWoyRJn55iERTyScC628tymaigyISIfNeqHpWYQwlXZS6g0H1JdfwO1mEXcdRFdFfEsYha1t5avaLMsjRX/q9pInpZzBXOMA94NBMFImLIFU8QlTwOxIPKS/3Z+1TNeguZiUClC5H75zwuRIMQ3KdxORe+7fbS9AlRmEkRRxUbYsTnAj5Fkuvw+c7gxH1JprO/IA67iKMuotskTuJ04duWNbCaSTfZsFs0Pk/LRPn24NhtknUA6s/eDlqfzWUS4OFexBBrfRKm87FMpv5PcbwhIOetgMIxqyU5SzMQ7d44VSqdN8rQGoxQyro4rWAhIzULJpBJc98GPR3/S4QoM5l8Jp299F7kMc+0+6TP7RlH66PjkJUFU+4V2e2ZUq6eR5bpCZ4LXpFIuUwKoayKMKyeH+pntxemaayDU7USmoXaZsLrdouqfvssUWKxTAQCpgNckaY884cwZJ7qqMUimaqZ77hG1aSEn6s2dzXNuHDceAjm/IEKYO3UBFQ0g6D8a+JMcHS9nKiqTs0YUEhEYyqYaBmKjlAVYYpZ3SzqMRP+JY5TrEg8mcbNpgu0rDY/XBMfHlG9heJJKHQl1fSnNVnnsMhkzmOaLJWncp5h1szTqKaMMZlaEUWN8wliyPOpTHx3UD1rliLjIVXpsKaOeSFaJTds0ElE1x1crPgxYESOKmwLOcebn65FUcXmQy5zZDnAZNYl1aDpZOrnoqzEqYwK32lTu0yuJFoGJ/IBfZXnEqUXlInudtoISFfA65RuZxmv5leTBxFJM5EEY6mKLgb0OG2Me4RZSRXOKNCGLYtL5AIJQqtN/bp1Q0HhCh78I3uD9Egkk+orZPpaKAVlhd+gfcxTFBa6LEgwy3nc+OgKtZZLTAE7wKzv+OCGqva9gEuJyP+GcsvVYBpSSXk3M1mwC/qdzXjBxkIkbCoS2iUiYuivUE5kiEA9MuwQpmaCXZbxE7YEu0LT9r33vJAhKyqP37FLyiQzTfuOPceNVb1k/4Qi8Dy31/WSnaNlQG5u4WXfO69GPPu5mvuGpb0LwPer3sfsGl0DjsZ2XvYvnLds6z+PhbHgOctS5FEhTuy7LE/Hgk24jL9jyF4kaWJDi71LC/zIEYN7Hpei6F+cWruY+RjTplQCVgutHWHrX504u2QQXaYXSoTQqnStg8ZC/8q2jncJU7rZQqqZzh7GJksnE7jpsDNrP5O1q2Tbgr2Rxa6fO8HH0kP1KJRRhBLgVBKszBC/k13Hm6VzwVARdJJT9onUb/UJHlDSKGqM7DKeRGzBpepf2OzOdi12djS02Pmxuylchp/hC7u9nc8RAFYX0u8ZpWOQXC4KRXIL/kimbkcu+80+HrFz23Ydq10PWBwIAeYBOijMOYKjvQPXue1YVoeVD59+ufnlw0+X7/Qh7+iYpmfIJPYU/ddQtbJ+dzRw2fnIWin1kOmMguMxDKFkKhiylBIRFccjLexqYWe7cNuE1eLZ4Kp1tVm26drN9cfremvto+vE+jp1ne6l62QvXcBP3cq+CV22vUXZt6HLXjWkRR1p17ye6dsipouXnnTjMn9k2HDo6moOFjNG2N2Mv+3zPOeyEOxJj+JbOGXtGMUP2tTjnuOYVmY9jftXjjVi10NriwiAzYqfh6GIaW2YDXu6a0N8pLVcKXesTu0e+4QJjas6LbwE95lowwINBYTZ1WE6d1tazNZKS6VXpB7xsGRvdyjjQIf9q5Fl/S66GJeTCaa2Cebzi3v8smvFtxcbueJutUI8GpvR0kU+tDAtXRSEXvGbu9CIVcZWe5CNORakXhYGQe2754lq9jyLypx+m8gcu1Ijv55Iogpq6mhRGHCcHQhpsx4BzSINWIw7+0sKjWBrJIKoQgn7Xk7YY1oC62JFS/XDbvD0UivQU7GGT+7ecpsIzgUIoZxVrwUYsJWOM8Np61KlSnVPdAZpIlhb4SfBDcJFuOlS+FvA0saS+ORae7q5WUuk8pWBNxNt1BxjO03u8h6qMBe/iKqrkxF7RZ4LJTLUep1r6zWynQjfQx/pCxzuitQky57G5U59D7uOZYiYc7ozRfxxST8VhsMzvVpZ/k+vWR914ZEdfFbNJ2N0dQHDsIualy/ztmw5b5AWxva0IRWmhWpK0TO0mprcMleY948kTOdanm46UUT9iuZdJKtpU/EyegVA6miidA3WHao61ZyyG7tLk/MfqbL+e6ca905v6yXT675Rrueat+0GuIYCnm6d27//Rj7NgS0whrBMs0Iz3VVoRDPdvWTRF68BxtRz8w3kshIgk/UraBbROW1Mv/7Nlu3qXS/oXYreZJB0MP3rwbn1zuo9idywV6wRM28SybdzunGdbUAjr15/tlVdBwW97lBp+Pn1VhifcpmsbR09d79dXvZvrL0ObRboN3TsduIxUkpl9hmN4TlmD8dFFDvu8sPPdI0VIkGB2sfsY8UzGAwIKaym4RmyfvGherkx0r3UHTlvtVTXS76SsV8ps33JeXtiiYtTe68NkQu0g7wXm7vu7AihHO7edF6NGEydVJOWs7EkNEZ/qmL0nlsDcnAYKPeGCgtWBccdoCCIT28VqC9z5AbjRvfwj3T5ODty2e2Rg7FAP7o7+o6wnjFJILX2aOWNuBcJljGp3XXbaBxq2/h5A2+1o/QCn8lCQ/TKd0Lpu7a6t/cO916zsYeHjX3Y2H/Nje38FTf2AaYcYMoGTBn+P2EKyTgHaHOANl8e2owO0OargjbOl4M2B5T0h6Gk4V67cwSn/0SAYT9oOPxzHfoADQ/QcAMajr41aEgywwOcPMDJLwsnq2+3Nr9quCKu/yRsvpzbYtKUBkcusGNDMQiLe7+HJJgxc1bV5QqwmuEzFmpBX2CkQ4dlnusQ1yVMCdCJBmVFfcMWM5GsO12DiXkZK5nFq3GRF4O++aKk/p4k/ge80VWuq4iU3nyf/NBDTNTX5B+fUAPW7v0bHBiZ6w==

