;This Gcode has been generated specifically for the LulzBot Mini
;Basic settings: Layer height: 0.25 Walls: 1 Fill: 20
;Filament Diameter: 2.85
;Nozzle Size: 0.5
G26                          ; clear potential 'probe fail' condition
G21                          ; metric values
G90                          ; absolute positioning
M82                          ; set extruder to absolute mode
M107                         ; start with the fan off
G92 E0                       ; set extruder position to 0
M140 S60; get bed heating up
G28                          ; home all
M109 R140                    ; set to cleaning temp and wait
G1 Z150 E-30 F75             ; suck up XXmm of filament
M109 R140                    ; heat up rest of way
G1 X45 Y174 F11520           ; move behind scraper
G1 Z0  F1200                 ; CRITICAL: set Z to height of top of scraper
G1 X45 Y174 Z-.5 F4000       ; wiping ; plunge into wipe pad
G1 X55 Y172 Z-.5 F4000       ; wiping
G1 X45 Y174 Z0 F4000         ; wiping
G1 X55 Y172 F4000            ; wiping
G1 X45 Y174 F4000            ; wiping
G1 X55 Y172 F4000            ; wiping
G1 X45 Y174 F4000            ; wiping
G1 X55 Y172 F4000            ; wiping
G1 X60 Y174 F4000            ; wiping
G1 X80 Y172 F4000            ; wiping
G1 X60 Y174 F4000            ; wiping
G1 X80 Y172 F4000            ; wiping
G1 X60 Y174 F4000            ; wiping
G1 X90 Y172 F4000            ; wiping
G1 X80 Y174 F4000            ; wiping
G1 X100 Y172 F4000           ; wiping
G1 X80 Y174 F4000            ; wiping
G1 X100 Y172 F4000           ; wiping
G1 X80 Y174 F4000            ; wiping
G1 X100 Y172 F4000           ; wiping
G1 X110 Y174 F4000           ; wiping
G1 X100 Y172 F4000           ; wiping
G1 X110 Y174 F4000           ; wiping
G1 X100 Y172 F4000           ; wiping
G1 X110 Y174 F4000           ; wiping
G1 X115 Y172 Z-0.5 F1000     ; wipe slower and bury noz in cleanish area
G1 Z10                       ; raise z
G28 X0 Y0                    ; home x and y
M109 R140                    ; set to probing temp
M204 S300                    ; Set probing acceleration
G29                          ; Probe
M204 S2000                   ; Restore standard acceleration
G1 X5 Y15 Z10 F5000          ; get out the way
G4 S1                        ; pause
M400                         ; clear buffer
M109 R205    ; set extruder temp and wait
G4 S15                       ; wait for bed to temp up
G1 Z2 E0 F75                 ; extrude filament back into nozzle
M140 S60; get bed temping up during first layer

;Layer count: 27
;LAYER:0
M107
G0 F10500 X72.489 Y69.388 Z0.425
;TYPE:SKIRT
G1 F900 X87.511 Y69.388 E0.62549
G1 X87.511 Y86.612 E1.34266
G1 X72.489 Y86.612 E1.96814
G1 X72.489 Y69.388 E2.68531
G0 F10500 X73.114 Y70.013
G1 F900 X86.886 Y70.013 E3.25875
G1 X86.886 Y85.987 E3.92388
G1 X73.114 Y85.987 E4.49732
G1 X73.114 Y70.013 E5.16244
G0 F10500 X73.739 Y70.638
G1 F900 X86.261 Y70.638 E5.68383
G1 X86.261 Y85.362 E6.29691
G1 X73.739 Y85.362 E6.81830
G1 X73.739 Y70.638 E7.43137
G0 F10500 X74.364 Y71.263
G1 F900 X85.636 Y71.263 E7.90072
G1 X85.636 Y84.737 E8.46175
G1 X74.364 Y84.737 E8.93109
G1 X74.364 Y71.263 E9.49212
G0 F10500 X74.989 Y71.888
G1 F900 X85.011 Y71.888 E9.90942
G1 X85.011 Y84.112 E10.41840
G1 X74.989 Y84.112 E10.83569
G1 X74.989 Y71.888 E11.34468
G1 F600 E9.59468
G1 Z0.525
G0 F10500 X79.238 Y76.137
;TYPE:WALL-INNER
G1 Z0.425
G1 F600 E11.34468
G1 F900 X80.762 Y76.137 E11.40813
G1 X80.762 Y79.863 E11.56328
G1 X79.238 Y79.863 E11.62673
G1 X79.238 Y76.137 E11.78187
G0 F10500 X78.613 Y75.512
;TYPE:WALL-OUTER
G1 F900 X81.387 Y75.512 E11.89738
G1 X81.387 Y80.488 E12.10457
G1 X78.613 Y80.488 E12.22007
G1 X78.613 Y75.512 E12.42726
G0 F10500 X79.026 Y75.835
G0 X79.456 Y77.688
;TYPE:FILL
G1 F900 X80.542 Y78.774 E12.49121
G0 F10500 X80.542 Y78.333
;TYPE:SKIN
G1 F900 X79.456 Y77.247 E12.55516
G0 F10500 X79.456 Y78.131
G1 F900 X80.542 Y79.217 E12.61911
G0 F10500 X80.084 Y79.643
G1 F900 X79.456 Y79.014 E12.65612
G0 F10500 X80.542 Y77.449
G1 F900 X79.456 Y76.363 E12.72007
G0 F10500 X80.332 Y76.356
G1 F900 X80.542 Y76.565 E12.73240
;LAYER:1
M106 S247
G0 F10500 X80.949 Y75.950 Z0.675
;TYPE:WALL-INNER
G1 F600 X80.949 Y80.050 E12.81274
G1 X79.051 Y80.050 E12.84993
G1 X79.051 Y75.950 E12.93027
G1 X80.949 Y75.950 E12.96746
G0 F10500 X81.449 Y75.450
;TYPE:WALL-OUTER
G1 F540 X81.449 Y80.550 E13.06739
G1 X78.551 Y80.550 E13.12417
G1 X78.551 Y75.450 E13.22410
G1 X81.449 Y75.450 E13.28089
G0 F10500 X80.499 Y76.124
;TYPE:SKIN
G1 F720 X79.225 Y77.398 E13.31619
G0 F10500 X79.226 Y78.104
G1 F720 X80.772 Y76.558 E13.35903
G0 F10500 X80.772 Y77.265
G1 F720 X79.226 Y78.812 E13.40189
G0 F10500 X79.226 Y79.519
G1 F720 X80.772 Y77.972 E13.44474
G0 F10500 X80.772 Y78.679
G1 F720 X79.577 Y79.874 E13.47786
G0 F10500 X79.225 Y76.691
G1 F720 X79.792 Y76.124 E13.49357
G0 F10500 X80.772 Y79.386
G1 F720 X80.284 Y79.874 E13.50709
;LAYER:2
M106 S255
G0 F10500 X80.949 Y80.050 Z0.925
;TYPE:WALL-INNER
G1 F600 X79.051 Y80.050 E13.54428
G1 X79.051 Y75.950 E13.62462
G1 X80.949 Y75.950 E13.66181
G1 X80.949 Y80.050 E13.74214
G0 F10500 X81.449 Y80.550
;TYPE:WALL-OUTER
G1 F540 X78.551 Y80.550 E13.79893
G1 X78.551 Y75.450 E13.89886
G1 X81.449 Y75.450 E13.95564
G1 X81.449 Y80.550 E14.05557
G0 F10500 X80.773 Y79.712
;TYPE:SKIN
G1 F840 X79.225 Y78.164 E14.09847
G0 F10500 X79.224 Y77.457
G1 F840 X80.773 Y79.005 E14.14138
G0 F10500 X80.773 Y78.298
G1 F840 X79.224 Y76.750 E14.18429
G0 F10500 X79.306 Y76.124
G1 F840 X80.773 Y77.591 E14.22494
G0 F10500 X80.773 Y76.884
G1 F840 X80.014 Y76.124 E14.24599
G0 F10500 X79.225 Y78.872
G1 F840 X80.227 Y79.874 E14.27375
G0 F10500 X79.520 Y79.874
G1 F840 X79.225 Y79.579 E14.28193
;LAYER:3
G0 F10500 X79.051 Y80.050 Z1.175
;TYPE:WALL-INNER
G1 F660 X79.051 Y75.950 E14.36227
G1 X80.949 Y75.950 E14.39946
G1 X80.949 Y80.050 E14.47979
G1 X79.051 Y80.050 E14.51698
G0 F10500 X78.551 Y80.550
;TYPE:WALL-OUTER
G1 F600 X78.551 Y75.450 E14.61691
G1 X81.449 Y75.450 E14.67370
G1 X81.449 Y80.550 E14.77363
G1 X78.551 Y80.550 E14.83041
G0 F10500 X79.577 Y79.874
;TYPE:SKIN
G1 F960 X80.772 Y78.679 E14.86353
G0 F10500 X80.772 Y79.386
G1 F960 X80.284 Y79.874 E14.87705
G0 F10500 X79.226 Y79.519
G1 F960 X80.772 Y77.972 E14.91990
G0 F10500 X80.772 Y77.265
G1 F960 X79.226 Y78.812 E14.96276
G0 F10500 X79.226 Y78.104
G1 F960 X80.772 Y76.558 E15.00560
G0 F10500 X80.499 Y76.124
G1 F960 X79.225 Y77.398 E15.04090
G0 F10500 X79.225 Y76.691
G1 F960 X79.792 Y76.124 E15.05661
;LAYER:4
G0 F10500 X79.051 Y75.950 Z1.425
;TYPE:WALL-INNER
G1 F660 X80.949 Y75.950 E15.09380
G1 X80.949 Y80.050 E15.17414
G1 X79.051 Y80.050 E15.21133
G1 X79.051 Y75.950 E15.29167
G0 F10500 X78.551 Y75.450
;TYPE:WALL-OUTER
G1 F540 X81.449 Y75.450 E15.34845
G1 X81.449 Y80.550 E15.44838
G1 X78.551 Y80.550 E15.50517
G1 X78.551 Y75.450 E15.60510
G0 F10500 X79.660 Y76.124
;TYPE:FILL
G1 F780 X80.308 Y76.772 E15.62306
G0 F10500 X79.772 Y79.326
G1 F780 X79.225 Y79.725 E15.63818
G1 X79.520 Y79.874 E15.64466
G0 F10500 X80.227 Y79.874
;TYPE:SKIN
G1 F960 X79.225 Y78.872 E15.67242
G0 F10500 X79.225 Y78.164
G1 F960 X80.773 Y79.712 E15.71532
G0 F10500 X80.773 Y79.005
G1 F960 X79.224 Y77.457 E15.75823
G0 F10500 X79.224 Y76.750
G1 F960 X80.773 Y78.298 E15.80114
G0 F10500 X80.773 Y77.591
G1 F960 X79.306 Y76.124 E15.84179
G0 F10500 X80.014 Y76.124
G1 F960 X80.773 Y76.884 E15.86283
;LAYER:5
G0 F10500 X80.949 Y75.950 Z1.675
;TYPE:WALL-INNER
G1 F660 X80.949 Y80.050 E15.94317
G1 X79.051 Y80.050 E15.98036
G1 X79.051 Y75.950 E16.06070
G1 X80.949 Y75.950 E16.09789
G0 F10500 X81.449 Y75.450
;TYPE:WALL-OUTER
G1 F540 X81.449 Y80.550 E16.19782
G1 X78.551 Y80.550 E16.25460
G1 X78.551 Y75.450 E16.35453
G1 X81.449 Y75.450 E16.41132
G0 F10500 X81.099 Y75.710
G0 X80.308 Y76.772
;TYPE:FILL
G1 F780 X79.660 Y76.124 E16.42928
G0 F10500 X79.772 Y79.326
G1 F780 X79.226 Y79.872 E16.44441
G0 F10500 X79.577 Y79.874
;TYPE:SKIN
G1 F960 X80.772 Y78.679 E16.47752
G0 F10500 X80.772 Y79.386
G1 F960 X80.284 Y79.874 E16.49104
G0 F10500 X79.226 Y79.519
G1 F960 X80.772 Y77.972 E16.53390
G0 F10500 X80.772 Y77.265
G1 F960 X79.226 Y78.812 E16.57675
G0 F10500 X79.226 Y78.104
G1 F960 X80.772 Y76.558 E16.61959
G0 F10500 X80.499 Y76.124
G1 F960 X79.225 Y77.398 E16.65489
G0 F10500 X79.225 Y76.691
G1 F960 X79.792 Y76.124 E16.67061
;LAYER:6
G0 F10500 X79.051 Y75.950 Z1.925
;TYPE:WALL-INNER
G1 F660 X80.949 Y75.950 E16.70780
G1 X80.949 Y80.050 E16.78813
G1 X79.051 Y80.050 E16.82532
G1 X79.051 Y75.950 E16.90566
G0 F10500 X78.551 Y75.450
;TYPE:WALL-OUTER
G1 F540 X81.449 Y75.450 E16.96244
G1 X81.449 Y80.550 E17.06238
G1 X78.551 Y80.550 E17.11916
G1 X78.551 Y75.450 E17.21909
G0 F10500 X79.660 Y76.124
;TYPE:FILL
G1 F780 X80.308 Y76.772 E17.23705
G0 F10500 X79.772 Y79.326
G1 F780 X79.225 Y79.725 E17.25217
G1 X79.520 Y79.874 E17.25865
G0 F10500 X80.227 Y79.874
;TYPE:SKIN
G1 F960 X79.225 Y78.872 E17.28641
G0 F10500 X79.225 Y78.164
G1 F960 X80.773 Y79.712 E17.32931
G0 F10500 X80.773 Y79.005
G1 F960 X79.224 Y77.457 E17.37222
G0 F10500 X79.224 Y76.750
G1 F960 X80.773 Y78.298 E17.41513
G0 F10500 X80.773 Y77.591
G1 F960 X79.306 Y76.124 E17.45578
G0 F10500 X80.014 Y76.124
G1 F960 X80.773 Y76.884 E17.47683
;LAYER:7
G0 F10500 X80.949 Y76.198 Z2.175
;TYPE:WALL-INNER
G1 F660 X79.051 Y76.198 E17.51402
G1 X79.051 Y75.950 E17.51888
G1 X80.949 Y75.950 E17.55607
G1 X80.949 Y76.198 E17.56093
G0 F10500 X81.449 Y76.698
;TYPE:WALL-OUTER
G1 F540 X78.551 Y76.698 E17.61771
G1 X78.551 Y75.450 E17.64216
G1 X81.449 Y75.450 E17.69895
G1 X81.449 Y76.698 E17.72340
G1 F600 E15.97340
G1 Z2.275
G0 F10500 X80.949 Y79.902
;TYPE:WALL-INNER
G1 Z2.175
G1 F600 E17.72340
G1 F660 X80.949 Y80.050 E17.72630
G1 X79.051 Y80.050 E17.76349
G1 X79.051 Y79.902 E17.76639
G1 X80.949 Y79.902 E17.80358
G0 F10500 X81.449 Y79.402
;TYPE:WALL-OUTER
G1 F540 X81.449 Y80.550 E17.82608
G1 X78.551 Y80.550 E17.88286
G1 X78.551 Y79.402 E17.90535
G1 X81.449 Y79.402 E17.96214
;LAYER:8
G1 F600 E16.21214
G1 Z2.275
G0 F10500 X80.949 Y76.198 Z2.425
;TYPE:WALL-INNER
G1 Z2.425
G1 F600 E17.96214
G1 F660 X79.051 Y76.198 E17.99933
G1 X79.051 Y75.950 E18.00419
G1 X80.949 Y75.950 E18.04138
G1 X80.949 Y76.198 E18.04624
G0 F10500 X81.449 Y76.698
;TYPE:WALL-OUTER
G1 F540 X78.551 Y76.698 E18.10302
G1 X78.551 Y75.450 E18.12748
G1 X81.449 Y75.450 E18.18426
G1 X81.449 Y76.698 E18.20871
G1 F600 E16.45871
G1 Z2.525
G0 F10500 X80.949 Y79.902
;TYPE:WALL-INNER
G1 Z2.425
G1 F600 E18.20871
G1 F660 X80.949 Y80.050 E18.21161
G1 X79.051 Y80.050 E18.24880
G1 X79.051 Y79.902 E18.25170
G1 X80.949 Y79.902 E18.28889
G0 F10500 X81.449 Y79.402
;TYPE:WALL-OUTER
G1 F540 X81.449 Y80.550 E18.31139
G1 X78.551 Y80.550 E18.36817
G1 X78.551 Y79.402 E18.39067
G1 X81.449 Y79.402 E18.44745
;LAYER:9
G1 F600 E16.69745
G1 Z2.525
G0 F10500 X80.949 Y76.198 Z2.675
;TYPE:WALL-INNER
G1 Z2.675
G1 F600 E18.44745
G1 F660 X79.051 Y76.198 E18.48464
G1 X79.051 Y75.950 E18.48950
G1 X80.949 Y75.950 E18.52669
G1 X80.949 Y76.198 E18.53155
G0 F10500 X81.449 Y76.698
;TYPE:WALL-OUTER
G1 F540 X78.551 Y76.698 E18.58833
G1 X78.551 Y75.450 E18.61279
G1 X81.449 Y75.450 E18.66957
G1 X81.449 Y76.698 E18.69403
G1 F600 E16.94403
G1 Z2.775
G0 F10500 X80.949 Y79.902
;TYPE:WALL-INNER
G1 Z2.675
G1 F600 E18.69403
G1 F660 X80.949 Y80.050 E18.69693
G1 X79.051 Y80.050 E18.73412
G1 X79.051 Y79.902 E18.73702
G1 X80.949 Y79.902 E18.77421
G0 F10500 X81.449 Y79.402
;TYPE:WALL-OUTER
G1 F540 X81.449 Y80.550 E18.79670
G1 X78.551 Y80.550 E18.85348
G1 X78.551 Y79.402 E18.87598
G1 X81.449 Y79.402 E18.93276
;LAYER:10
G1 F600 E17.18276
G1 Z2.775
G0 F10500 X80.949 Y76.198 Z2.925
;TYPE:WALL-INNER
G1 Z2.925
G1 F600 E18.93276
G1 F660 X79.051 Y76.198 E18.96995
G1 X79.051 Y75.950 E18.97481
G1 X80.949 Y75.950 E19.01200
G1 X80.949 Y76.198 E19.01686
G0 F10500 X81.449 Y76.698
;TYPE:WALL-OUTER
G1 F540 X78.551 Y76.698 E19.07365
G1 X78.551 Y75.450 E19.09810
G1 X81.449 Y75.450 E19.15488
G1 X81.449 Y76.698 E19.17934
G1 F600 E17.42934
G1 Z3.025
G0 F10500 X80.949 Y79.902
;TYPE:WALL-INNER
G1 Z2.925
G1 F600 E19.17934
G1 F660 X80.949 Y80.050 E19.18224
G1 X79.051 Y80.050 E19.21943
G1 X79.051 Y79.902 E19.22233
G1 X80.949 Y79.902 E19.25952
G0 F10500 X81.449 Y79.402
;TYPE:WALL-OUTER
G1 F540 X81.449 Y80.550 E19.28201
G1 X78.551 Y80.550 E19.33880
G1 X78.551 Y79.402 E19.36129
G1 X81.449 Y79.402 E19.41808
;LAYER:11
G1 F600 E17.66808
G1 Z3.025
G0 F10500 X80.949 Y76.198 Z3.175
;TYPE:WALL-INNER
G1 Z3.175
G1 F600 E19.41808
G1 F660 X79.051 Y76.198 E19.45527
G1 X79.051 Y75.950 E19.46013
G1 X80.949 Y75.950 E19.49732
G1 X80.949 Y76.198 E19.50217
G0 F10500 X81.449 Y76.698
;TYPE:WALL-OUTER
G1 F540 X78.551 Y76.698 E19.55896
G1 X78.551 Y75.450 E19.58341
G1 X81.449 Y75.450 E19.64020
G1 X81.449 Y76.698 E19.66465
G1 F600 E17.91465
G1 Z3.275
G0 F10500 X80.949 Y79.902
;TYPE:WALL-INNER
G1 Z3.175
G1 F600 E19.66465
G1 F660 X80.949 Y80.050 E19.66755
G1 X79.051 Y80.050 E19.70474
G1 X79.051 Y79.902 E19.70764
G1 X80.949 Y79.902 E19.74483
G0 F10500 X81.449 Y79.402
;TYPE:WALL-OUTER
G1 F540 X81.449 Y80.550 E19.76733
G1 X78.551 Y80.550 E19.82411
G1 X78.551 Y79.402 E19.84660
G1 X81.449 Y79.402 E19.90339
;LAYER:12
G1 F600 E18.15339
G1 Z3.275
G0 F10500 X80.949 Y76.198 Z3.425
;TYPE:WALL-INNER
G1 Z3.425
G1 F600 E19.90339
G1 F660 X79.051 Y76.198 E19.94058
G1 X79.051 Y75.950 E19.94544
G1 X80.949 Y75.950 E19.98263
G1 X80.949 Y76.198 E19.98749
G0 F10500 X81.449 Y76.698
;TYPE:WALL-OUTER
G1 F540 X78.551 Y76.698 E20.04427
G1 X78.551 Y75.450 E20.06873
G1 X81.449 Y75.450 E20.12551
G1 X81.449 Y76.698 E20.14996
G1 F600 E18.39996
G1 Z3.525
G0 F10500 X80.949 Y79.902
;TYPE:WALL-INNER
G1 Z3.425
G1 F600 E20.14996
G1 F660 X80.949 Y80.050 E20.15286
G1 X79.051 Y80.050 E20.19005
G1 X79.051 Y79.902 E20.19295
G1 X80.949 Y79.902 E20.23014
G0 F10500 X81.449 Y79.402
;TYPE:WALL-OUTER
G1 F540 X81.449 Y80.550 E20.25264
G1 X78.551 Y80.550 E20.30942
G1 X78.551 Y79.402 E20.33192
G1 X81.449 Y79.402 E20.38870
;LAYER:13
G1 F600 E18.63870
G1 Z3.525
G0 F10500 X80.949 Y76.198 Z3.675
;TYPE:WALL-INNER
G1 Z3.675
G1 F600 E20.38870
G1 F660 X79.051 Y76.198 E20.42589
G1 X79.051 Y75.950 E20.43075
G1 X80.949 Y75.950 E20.46794
G1 X80.949 Y76.198 E20.47280
G0 F10500 X81.449 Y76.698
;TYPE:WALL-OUTER
G1 F540 X78.551 Y76.698 E20.52958
G1 X78.551 Y75.450 E20.55404
G1 X81.449 Y75.450 E20.61082
G1 X81.449 Y76.698 E20.63528
G1 F600 E18.88528
G1 Z3.775
G0 F10500 X80.949 Y79.902
;TYPE:WALL-INNER
G1 Z3.675
G1 F600 E20.63528
G1 F660 X80.949 Y80.050 E20.63818
G1 X79.051 Y80.050 E20.67537
G1 X79.051 Y79.902 E20.67827
G1 X80.949 Y79.902 E20.71546
G0 F10500 X81.449 Y79.402
;TYPE:WALL-OUTER
G1 F540 X81.449 Y80.550 E20.73795
G1 X78.551 Y80.550 E20.79473
G1 X78.551 Y79.402 E20.81723
G1 X81.449 Y79.402 E20.87401
;LAYER:14
G1 F600 E19.12401
G1 Z3.775
G0 F10500 X80.949 Y76.198 Z3.925
;TYPE:WALL-INNER
G1 Z3.925
G1 F600 E20.87401
G1 F660 X79.051 Y76.198 E20.91120
G1 X79.051 Y75.950 E20.91606
G1 X80.949 Y75.950 E20.95325
G1 X80.949 Y76.198 E20.95811
G0 F10500 X81.449 Y76.698
;TYPE:WALL-OUTER
G1 F540 X78.551 Y76.698 E21.01490
G1 X78.551 Y75.450 E21.03935
G1 X81.449 Y75.450 E21.09613
G1 X81.449 Y76.698 E21.12059
G1 F600 E19.37059
G1 Z4.025
G0 F10500 X80.949 Y79.902
;TYPE:WALL-INNER
G1 Z3.925
G1 F600 E21.12059
G1 F660 X80.949 Y80.050 E21.12349
G1 X79.051 Y80.050 E21.16068
G1 X79.051 Y79.902 E21.16358
G1 X80.949 Y79.902 E21.20077
G0 F10500 X81.449 Y79.402
;TYPE:WALL-OUTER
G1 F540 X81.449 Y80.550 E21.22326
G1 X78.551 Y80.550 E21.28005
G1 X78.551 Y79.402 E21.30254
G1 X81.449 Y79.402 E21.35933
;LAYER:15
G1 F600 E19.60933
G1 Z4.025
G0 F10500 X80.949 Y76.198 Z4.175
;TYPE:WALL-INNER
G1 Z4.175
G1 F600 E21.35933
G1 F660 X79.051 Y76.198 E21.39652
G1 X79.051 Y75.950 E21.40137
G1 X80.949 Y75.950 E21.43856
G1 X80.949 Y76.198 E21.44342
G0 F10500 X81.449 Y76.698
;TYPE:WALL-OUTER
G1 F540 X78.551 Y76.698 E21.50021
G1 X78.551 Y75.450 E21.52466
G1 X81.449 Y75.450 E21.58145
G1 X81.449 Y76.698 E21.60590
G1 F600 E19.85590
G1 Z4.275
G0 F10500 X80.949 Y79.902
;TYPE:WALL-INNER
G1 Z4.175
G1 F600 E21.60590
G1 F660 X80.949 Y80.050 E21.60880
G1 X79.051 Y80.050 E21.64599
G1 X79.051 Y79.902 E21.64889
G1 X80.949 Y79.902 E21.68608
G0 F10500 X81.449 Y79.402
;TYPE:WALL-OUTER
G1 F540 X81.449 Y80.550 E21.70857
G1 X78.551 Y80.550 E21.76536
G1 X78.551 Y79.402 E21.78785
G1 X81.449 Y79.402 E21.84464
;LAYER:16
G1 F600 E20.09464
G1 Z4.275
G0 F10500 X80.949 Y76.198 Z4.425
;TYPE:WALL-INNER
G1 Z4.425
G1 F600 E21.84464
G1 F660 X79.051 Y76.198 E21.88183
G1 X79.051 Y75.950 E21.88669
G1 X80.949 Y75.950 E21.92388
G1 X80.949 Y76.198 E21.92874
G0 F10500 X81.449 Y76.698
;TYPE:WALL-OUTER
G1 F540 X78.551 Y76.698 E21.98552
G1 X78.551 Y75.450 E22.00997
G1 X81.449 Y75.450 E22.06676
G1 X81.449 Y76.698 E22.09121
G1 F600 E20.34121
G1 Z4.525
G0 F10500 X80.949 Y79.902
;TYPE:WALL-INNER
G1 Z4.425
G1 F600 E22.09121
G1 F660 X80.949 Y80.050 E22.09411
G1 X79.051 Y80.050 E22.13130
G1 X79.051 Y79.902 E22.13420
G1 X80.949 Y79.902 E22.17139
G0 F10500 X81.449 Y79.402
;TYPE:WALL-OUTER
G1 F540 X81.449 Y80.550 E22.19389
G1 X78.551 Y80.550 E22.25067
G1 X78.551 Y79.402 E22.27317
G1 X81.449 Y79.402 E22.32995
;LAYER:17
G1 F600 E20.57995
G1 Z4.525
G0 F10500 X80.949 Y76.198 Z4.675
;TYPE:WALL-INNER
G1 Z4.675
G1 F600 E22.32995
G1 F660 X79.051 Y76.198 E22.36714
G1 X79.051 Y75.950 E22.37200
G1 X80.949 Y75.950 E22.40919
G1 X80.949 Y76.198 E22.41405
G0 F10500 X81.449 Y76.698
;TYPE:WALL-OUTER
G1 F540 X78.551 Y76.698 E22.47083
G1 X78.551 Y75.450 E22.49529
G1 X81.449 Y75.450 E22.55207
G1 X81.449 Y76.698 E22.57652
G1 F600 E20.82652
G1 Z4.775
G0 F10500 X80.949 Y79.902
;TYPE:WALL-INNER
G1 Z4.675
G1 F600 E22.57652
G1 F660 X80.949 Y80.050 E22.57942
G1 X79.051 Y80.050 E22.61661
G1 X79.051 Y79.902 E22.61951
G1 X80.949 Y79.902 E22.65670
G0 F10500 X81.449 Y79.402
;TYPE:WALL-OUTER
G1 F540 X81.449 Y80.550 E22.67920
G1 X78.551 Y80.550 E22.73598
G1 X78.551 Y79.402 E22.75848
G1 X81.449 Y79.402 E22.81526
;LAYER:18
G1 F600 E21.06526
G1 Z4.775
G0 F10500 X80.949 Y76.198 Z4.925
;TYPE:WALL-INNER
G1 Z4.925
G1 F600 E22.81526
G1 F660 X79.051 Y76.198 E22.85245
G1 X79.051 Y75.950 E22.85731
G1 X80.949 Y75.950 E22.89450
G1 X80.949 Y76.198 E22.89936
G0 F10500 X81.449 Y76.698
;TYPE:WALL-OUTER
G1 F540 X78.551 Y76.698 E22.95615
G1 X78.551 Y75.450 E22.98060
G1 X81.449 Y75.450 E23.03738
G1 X81.449 Y76.698 E23.06184
G1 F600 E21.31184
G1 Z5.025
G0 F10500 X80.949 Y79.902
;TYPE:WALL-INNER
G1 Z4.925
G1 F600 E23.06184
G1 F660 X80.949 Y80.050 E23.06474
G1 X79.051 Y80.050 E23.10193
G1 X79.051 Y79.902 E23.10483
G1 X80.949 Y79.902 E23.14202
G0 F10500 X81.449 Y79.402
;TYPE:WALL-OUTER
G1 F540 X81.449 Y80.550 E23.16451
G1 X78.551 Y80.550 E23.22130
G1 X78.551 Y79.402 E23.24379
G1 X81.449 Y79.402 E23.30057
;LAYER:19
G1 F600 E21.55057
G1 Z5.025
G0 F10500 X80.949 Y76.198 Z5.175
;TYPE:WALL-INNER
G1 Z5.175
G1 F600 E23.30057
G1 F660 X79.051 Y76.198 E23.33776
G1 X79.051 Y75.950 E23.34262
G1 X80.949 Y75.950 E23.37981
G1 X80.949 Y76.198 E23.38467
G0 F10500 X81.449 Y76.698
;TYPE:WALL-OUTER
G1 F540 X78.551 Y76.698 E23.44146
G1 X78.551 Y75.450 E23.46591
G1 X81.449 Y75.450 E23.52270
G1 X81.449 Y76.698 E23.54715
G1 F600 E21.79715
G1 Z5.275
G0 F10500 X80.949 Y79.902
;TYPE:WALL-INNER
G1 Z5.175
G1 F600 E23.54715
G1 F660 X80.949 Y80.050 E23.55005
G1 X79.051 Y80.050 E23.58724
G1 X79.051 Y79.902 E23.59014
G1 X80.949 Y79.902 E23.62733
G0 F10500 X81.449 Y79.402
;TYPE:WALL-OUTER
G1 F540 X81.449 Y80.550 E23.64982
G1 X78.551 Y80.550 E23.70661
G1 X78.551 Y79.402 E23.72910
G1 X81.449 Y79.402 E23.78589
;LAYER:20
G1 F600 E22.03589
G1 Z5.275
G0 F10500 X80.949 Y76.198 Z5.425
;TYPE:WALL-INNER
G1 Z5.425
G1 F600 E23.78589
G1 F660 X79.051 Y76.198 E23.82308
G1 X79.051 Y75.950 E23.82794
G1 X80.949 Y75.950 E23.86513
G1 X80.949 Y76.198 E23.86999
G0 F10500 X81.449 Y76.698
;TYPE:WALL-OUTER
G1 F540 X78.551 Y76.698 E23.92677
G1 X78.551 Y75.450 E23.95122
G1 X81.449 Y75.450 E24.00801
G1 X81.449 Y76.698 E24.03246
G1 F600 E22.28246
G1 Z5.525
G0 F10500 X80.949 Y79.902
;TYPE:WALL-INNER
G1 Z5.425
G1 F600 E24.03246
G1 F660 X80.949 Y80.050 E24.03536
G1 X79.051 Y80.050 E24.07255
G1 X79.051 Y79.902 E24.07545
G1 X80.949 Y79.902 E24.11264
G0 F10500 X81.449 Y79.402
;TYPE:WALL-OUTER
G1 F540 X81.449 Y80.550 E24.13514
G1 X78.551 Y80.550 E24.19192
G1 X78.551 Y79.402 E24.21441
G1 X81.449 Y79.402 E24.27120
;LAYER:21
G1 F600 E22.52120
G1 Z5.525
G0 F10500 X80.949 Y76.198 Z5.675
;TYPE:WALL-INNER
G1 Z5.675
G1 F600 E24.27120
G1 F660 X79.051 Y76.198 E24.30839
G1 X79.051 Y75.950 E24.31325
G1 X80.949 Y75.950 E24.35044
G1 X80.949 Y76.198 E24.35530
G0 F10500 X81.449 Y76.698
;TYPE:WALL-OUTER
G1 F540 X78.551 Y76.698 E24.41208
G1 X78.551 Y75.450 E24.43654
G1 X81.449 Y75.450 E24.49332
G1 X81.449 Y76.698 E24.51777
G1 F600 E22.76777
G1 Z5.775
G0 F10500 X80.949 Y79.902
;TYPE:WALL-INNER
G1 Z5.675
G1 F600 E24.51777
G1 F660 X80.949 Y80.050 E24.52067
G1 X79.051 Y80.050 E24.55786
G1 X79.051 Y79.902 E24.56076
G1 X80.949 Y79.902 E24.59795
G0 F10500 X81.449 Y79.402
;TYPE:WALL-OUTER
G1 F540 X81.449 Y80.550 E24.62045
G1 X78.551 Y80.550 E24.67723
G1 X78.551 Y79.402 E24.69973
G1 X81.449 Y79.402 E24.75651
;LAYER:22
G1 F600 E23.00651
G1 Z5.775
G0 F10500 X80.949 Y76.198 Z5.925
;TYPE:WALL-INNER
G1 Z5.925
G1 F600 E24.75651
G1 F660 X79.051 Y76.198 E24.79370
G1 X79.051 Y75.950 E24.79856
G1 X80.949 Y75.950 E24.83575
G1 X80.949 Y76.198 E24.84061
G0 F10500 X81.449 Y76.698
;TYPE:WALL-OUTER
G1 F540 X78.551 Y76.698 E24.89739
G1 X78.551 Y75.450 E24.92185
G1 X81.449 Y75.450 E24.97863
G1 X81.449 Y76.698 E25.00309
G1 F600 E23.25309
G1 Z6.025
G0 F10500 X80.949 Y79.902
;TYPE:WALL-INNER
G1 Z5.925
G1 F600 E25.00309
G1 F660 X80.949 Y80.050 E25.00599
G1 X79.051 Y80.050 E25.04318
G1 X79.051 Y79.902 E25.04608
G1 X80.949 Y79.902 E25.08327
G0 F10500 X81.449 Y79.402
;TYPE:WALL-OUTER
G1 F540 X81.449 Y80.550 E25.10576
G1 X78.551 Y80.550 E25.16255
G1 X78.551 Y79.402 E25.18504
G1 X81.449 Y79.402 E25.24182
;LAYER:23
G1 F600 E23.49182
G1 Z6.025
G0 F10500 X80.949 Y76.198 Z6.175
;TYPE:WALL-INNER
G1 Z6.175
G1 F600 E25.24182
G1 F660 X79.051 Y76.198 E25.27901
G1 X79.051 Y75.950 E25.28387
G1 X80.949 Y75.950 E25.32106
G1 X80.949 Y76.198 E25.32592
G0 F10500 X81.449 Y76.698
;TYPE:WALL-OUTER
G1 F540 X78.551 Y76.698 E25.38271
G1 X78.551 Y75.450 E25.40716
G1 X81.449 Y75.450 E25.46395
G1 X81.449 Y76.698 E25.48840
G1 F600 E23.73840
G1 Z6.275
G0 F10500 X80.949 Y79.902
;TYPE:WALL-INNER
G1 Z6.175
G1 F600 E25.48840
G1 F660 X80.949 Y80.050 E25.49130
G1 X79.051 Y80.050 E25.52849
G1 X79.051 Y79.902 E25.53139
G1 X80.949 Y79.902 E25.56858
G0 F10500 X81.449 Y79.402
;TYPE:WALL-OUTER
G1 F540 X81.449 Y80.550 E25.59107
G1 X78.551 Y80.550 E25.64786
G1 X78.551 Y79.402 E25.67035
G1 X81.449 Y79.402 E25.72714
;LAYER:24
G1 F600 E23.97714
G1 Z6.275
G0 F10500 X80.949 Y76.198 Z6.425
;TYPE:WALL-INNER
G1 Z6.425
G1 F600 E25.72714
G1 F660 X79.051 Y76.198 E25.76433
G1 X79.051 Y75.950 E25.76919
G1 X80.949 Y75.950 E25.80638
G1 X80.949 Y76.198 E25.81124
G0 F10500 X81.449 Y76.698
;TYPE:WALL-OUTER
G1 F540 X78.551 Y76.698 E25.86802
G1 X78.551 Y75.450 E25.89247
G1 X81.449 Y75.450 E25.94926
G1 X81.449 Y76.698 E25.97371
G1 F600 E24.22371
G1 Z6.525
G0 F10500 X80.949 Y79.902
;TYPE:WALL-INNER
G1 Z6.425
G1 F600 E25.97371
G1 F660 X80.949 Y80.050 E25.97661
G1 X79.051 Y80.050 E26.01380
G1 X79.051 Y79.902 E26.01670
G1 X80.949 Y79.902 E26.05389
G0 F10500 X81.449 Y79.402
;TYPE:WALL-OUTER
G1 F540 X81.449 Y80.550 E26.07639
G1 X78.551 Y80.550 E26.13317
G1 X78.551 Y79.402 E26.15566
G1 X81.449 Y79.402 E26.21245
;LAYER:25
G1 F600 E24.46245
G1 Z6.525
G0 F10500 X80.949 Y76.198 Z6.675
;TYPE:WALL-INNER
G1 Z6.675
G1 F600 E26.21245
G1 F660 X79.051 Y76.198 E26.24964
G1 X79.051 Y75.950 E26.25450
G1 X80.949 Y75.950 E26.29169
G1 X80.949 Y76.198 E26.29655
G0 F10500 X81.449 Y76.698
;TYPE:WALL-OUTER
G1 F540 X78.551 Y76.698 E26.35333
G1 X78.551 Y75.450 E26.37779
G1 X81.449 Y75.450 E26.43457
G1 X81.449 Y76.698 E26.45902
G1 F600 E24.70902
G1 Z6.775
G0 F10500 X80.949 Y79.902
;TYPE:WALL-INNER
G1 Z6.675
G1 F600 E26.45902
G1 F660 X80.949 Y80.050 E26.46192
G1 X79.051 Y80.050 E26.49911
G1 X79.051 Y79.902 E26.50201
G1 X80.949 Y79.902 E26.53920
G0 F10500 X81.449 Y79.402
;TYPE:WALL-OUTER
G1 F540 X81.449 Y80.550 E26.56170
G1 X78.551 Y80.550 E26.61848
G1 X78.551 Y79.402 E26.64098
G1 X81.449 Y79.402 E26.69776
;LAYER:26
G1 F600 E24.94776
G1 Z6.775
G0 F10500 X80.949 Y76.198 Z6.925
;TYPE:WALL-INNER
G1 Z6.925
G1 F600 E26.69776
G1 F660 X79.051 Y76.198 E26.73495
G1 X79.051 Y75.950 E26.73981
G1 X80.949 Y75.950 E26.77700
G1 X80.949 Y76.198 E26.78186
G0 F10500 X81.449 Y76.698
;TYPE:WALL-OUTER
G1 F540 X78.551 Y76.698 E26.83864
G1 X78.551 Y75.450 E26.86310
G1 X81.449 Y75.450 E26.91988
G1 X81.449 Y76.698 E26.94434
G1 F600 E25.19434
G1 Z7.025
G0 F10500 X80.949 Y79.902
;TYPE:WALL-INNER
G1 Z6.925
G1 F600 E26.94434
G1 F660 X80.949 Y80.050 E26.94724
G1 X79.051 Y80.050 E26.98443
G1 X79.051 Y79.902 E26.98733
G1 X80.949 Y79.902 E27.02452
G0 F10500 X81.449 Y79.402
;TYPE:WALL-OUTER
G1 F540 X81.449 Y80.550 E27.04701
G1 X78.551 Y80.550 E27.10379
G1 X78.551 Y79.402 E27.12629
G1 X81.449 Y79.402 E27.18307
M107
G1 F600 E25.43307
G1 Z7.025
G0 F10500 X81.449 Y79.402 Z12.000
M400
M104 S0                                      ; hotend off
M140 S0                                      ; heated bed heater off (if you have it)
M107                                         ; fans off
G92 E5                                       ; set extruder to 5mm for retract on print end
G1 X5 Y5 Z158 E0 F10000                      ; move to cooling positioning
M190 R50                                     ; wait for bed to cool
M140 S0                                      ;
G1 X145 F1000                                ; move to cooling positioning
G1 Y175 F1000                                ; move to cooling positioning
M84                                          ; steppers off
G90                                          ; absolute positioning
;CURA_PROFILE_STRING:eNrtWltv20YWfhWE/RHz1haNtSQlxnYIPjSpbRSwiyD2Yl2/ECNyJM2GIglyaPkC/ff9zgwpkTKlyrvZbtIqD455dG5zrt/QivmjyIOZkNOZ8q2B4/YWPI4DNZPh50QUhW/3cqFyHiqZJoFI+DgW/k1eil6RxjIKYi3fZJ9IyEciKaR69B2rl4lczoUC11hM0lwEMiEWoyRJn55iERTyScC628tymaigyISIfNeqHpWYQwlXZS6g0H1JdfwO1mEXcdRFdFfEsYha1t5avaLMsjRX/q9pInpZzBXOMA94NBMFImLIFU8QlTwOxIPKS/3Z+1TNeguZiUClC5H75zwuRIMQ3KdxORe+7fbS9AlRmEkRRxUbYsTnAj5Fkuvw+c7gxH1JprO/IA67iKMuotskTuJ04duWNbCaSTfZsFs0Pk/LRPn24NhtknUA6s/eDlqfzWUS4OFexBBrfRKm87FMpv5PcbwhIOetgMIxqyU5SzMQ7d44VSqdN8rQGoxQyro4rWAhIzULJpBJc98GPR3/S4QoM5l8Jp299F7kMc+0+6TP7RlH66PjkJUFU+4V2e2ZUq6eR5bpCZ4LXpFIuUwKoayKMKyeH+pntxemaayDU7USmoXaZsLrdouqfvssUWKxTAQCpgNckaY884cwZJ7qqMUimaqZ77hG1aSEn6s2dzXNuHDceAjm/IEKYO3UBFQ0g6D8a+JMcHS9nKiqTs0YUEhEYyqYaBmKjlAVYYpZ3SzqMRP+JY5TrEg8mcbNpgu0rDY/XBMfHlG9heJJKHQl1fSnNVnnsMhkzmOaLJWncp5h1szTqKaMMZlaEUWN8wliyPOpTHx3UD1rliLjIVXpsKaOeSFaJTds0ElE1x1crPgxYESOKmwLOcebn65FUcXmQy5zZDnAZNYl1aDpZOrnoqzEqYwK32lTu0yuJFoGJ/IBfZXnEqUXlInudtoISFfA65RuZxmv5leTBxFJM5EEY6mKLgb0OG2Me4RZSRXOKNCGLYtL5AIJQqtN/bp1Q0HhCh78I3uD9Egkk+orZPpaKAVlhd+gfcxTFBa6LEgwy3nc+OgKtZZLTAE7wKzv+OCGqva9gEuJyP+GcsvVYBpSSXk3M1mwC/qdzXjBxkIkbCoS2iUiYuivUE5kiEA9MuwQpmaCXZbxE7YEu0LT9r33vJAhKyqP37FLyiQzTfuOPceNVb1k/4Qi8Dy31/WSnaNlQG5u4WXfO69GPPu5mvuGpb0LwPer3sfsGl0DjsZ2XvYvnLds6z+PhbHgOctS5FEhTuy7LE/Hgk24jL9jyF4kaWJDi71LC/zIEYN7Hpei6F+cWruY+RjTplQCVgutHWHrX504u2QQXaYXSoTQqnStg8ZC/8q2jncJU7rZQqqZzh7GJksnE7jpsDNrP5O1q2Tbgr2Rxa6fO8HH0kP1KJRRhBLgVBKszBC/k13Hm6VzwVARdJJT9onUb/UJHlDSKGqM7DKeRGzBpepf2OzOdi12djS02Pmxuylchp/hC7u9nc8RAFYX0u8ZpWOQXC4KRXIL/kimbkcu+80+HrFz23Ydq10PWBwIAeYBOijMOYKjvQPXue1YVoeVD59+ufnlw0+X7/Qh7+iYpmfIJPYU/ddQtbJ+dzRw2fnIWin1kOmMguMxDKFkKhiylBIRFccjLexqYWe7cNuE1eLZ4Kp1tVm26drN9cfremvto+vE+jp1ne6l62QvXcBP3cq+CV22vUXZt6HLXjWkRR1p17ye6dsipouXnnTjMn9k2HDo6moOFjNG2N2Mv+3zPOeyEOxJj+JbOGXtGMUP2tTjnuOYVmY9jftXjjVi10NriwiAzYqfh6GIaW2YDXu6a0N8pLVcKXesTu0e+4QJjas6LbwE95lowwINBYTZ1WE6d1tazNZKS6VXpB7xsGRvdyjjQIf9q5Fl/S66GJeTCaa2Cebzi3v8smvFtxcbueJutUI8GpvR0kU+tDAtXRSEXvGbu9CIVcZWe5CNORakXhYGQe2754lq9jyLypx+m8gcu1Ijv55Iogpq6mhRGHCcHQhpsx4BzSINWIw7+0sKjWBrJIKoQgn7Xk7YY1oC62JFS/XDbvD0UivQU7GGT+7ecpsIzgUIoZxVrwUYsJWOM8Np61KlSnVPdAZpIlhb4SfBDcJFuOlS+FvA0saS+ORae7q5WUuk8pWBNxNt1BxjO03u8h6qMBe/iKqrkxF7RZ4LJTLUep1r6zWynQjfQx/pCxzuitQky57G5U59D7uOZYiYc7ozRfxxST8VhsMzvVpZ/k+vWR914ZEdfFbNJ2N0dQHDsIualy/ztmw5b5AWxva0IRWmhWpK0TO0mprcMleY948kTOdanm46UUT9iuZdJKtpU/EyegVA6miidA3WHao61ZyyG7tLk/MfqbL+e6ca905v6yXT675Rrueat+0GuIYCnm6d27//Rj7NgS0whrBMs0Iz3VVoRDPdvWTRF68BxtRz8w3kshIgk/UraBbROW1Mv/7Nlu3qXS/oXYreZJB0MP3rwbn1zuo9idywV6wRM28SybdzunGdbUAjr15/tlVdBwW97lBp+Pn1VhifcpmsbR09d79dXvZvrL0ObRboN3TsduIxUkpl9hmN4TlmD8dFFDvu8sPPdI0VIkGB2sfsY8UzGAwIKaym4RmyfvGherkx0r3UHTlvtVTXS76SsV8ps33JeXtiiYtTe68NkQu0g7wXm7vu7AihHO7edF6NGEydVJOWs7EkNEZ/qmL0nlsDcnAYKPeGCgtWBccdoCCIT28VqC9z5AbjRvfwj3T5ODty2e2Rg7FAP7o7+o6wnjFJILX2aOWNuBcJljGp3XXbaBxq2/h5A2+1o/QCn8lCQ/TKd0Lpu7a6t/cO916zsYeHjX3Y2H/Nje38FTf2AaYcYMoGTBn+P2EKyTgHaHOANl8e2owO0OargjbOl4M2B5T0h6Gk4V67cwSn/0SAYT9oOPxzHfoADQ/QcAMajr41aEgywwOcPMDJLwsnq2+3Nr9quCKu/yRsvpzbYtKUBkcusGNDMQiLe7+HJJgxc1bV5QqwmuEzFmpBX2CkQ4dlnusQ1yVMCdCJBmVFfcMWM5GsO12DiXkZK5nFq3GRF4O++aKk/p4k/ge80VWuq4iU3nyf/NBDTNTX5B+fUAPW7v0bHBiZ6w==

